P2
# Created by GIMP version 3.2.0 PNM plug-in
256 256
255
255
255
255
255
255
255
255
255
255
255
255
255
255
255
255
255
255
255
255
255
255
255
255
255
255
255
255
255
255
255
255
255
255
255
255
255
255
255
255
255
255
255
255
255
255
255
255
254
253
251
251
252
252
253
254
255
255
255
255
255
254
255
255
255
255
255
255
255
255
255
255
255
255
255
255
255
255
255
255
255
255
255
255
255
255
255
255
255
255
255
255
255
255
255
255
255
255
255
255
255
255
255
255
255
255
255
255
255
255
255
255
255
255
255
255
255
255
255
255
255
255
255
255
255
255
255
255
255
255
255
255
255
255
255
255
255
255
255
255
255
255
255
255
255
255
255
255
255
255
255
255
255
255
255
255
255
255
255
255
255
255
255
255
255
255
255
255
255
255
255
255
255
255
255
255
255
255
255
255
255
255
255
255
255
255
255
255
255
255
255
255
255
255
255
255
255
255
255
255
255
255
255
255
255
255
255
255
255
255
255
255
255
255
255
255
255
255
255
255
255
255
255
255
255
255
255
255
255
255
255
255
255
255
255
255
255
255
255
255
255
255
255
255
255
255
255
255
255
255
255
255
255
255
255
255
255
255
255
255
255
255
255
255
255
255
255
255
255
255
255
255
255
255
255
255
255
255
255
255
255
255
255
255
255
255
255
255
255
255
255
255
255
255
255
255
255
255
255
255
255
255
255
255
254
252
249
248
249
250
252
252
254
255
255
255
255
254
254
255
255
255
255
255
255
255
255
255
255
255
255
255
255
255
255
255
255
255
255
255
255
255
255
255
255
255
255
255
255
255
255
255
255
255
255
255
255
255
255
255
255
255
255
255
255
255
255
255
255
255
255
255
255
255
255
255
255
255
255
255
255
255
255
255
255
255
255
255
255
255
255
255
255
255
255
255
255
255
255
255
255
255
255
255
255
255
255
255
255
255
255
255
255
255
255
255
255
255
255
255
255
255
255
255
255
255
255
255
255
255
255
255
255
255
255
255
255
255
255
255
255
255
255
255
255
255
255
255
255
255
255
255
255
255
255
255
255
255
255
255
255
255
255
255
255
255
255
255
255
255
255
255
255
255
255
255
255
255
255
255
255
255
255
255
255
255
255
255
255
255
255
255
255
255
255
255
255
255
255
255
255
255
255
255
255
255
255
255
255
255
255
255
255
255
255
255
255
255
255
255
255
255
255
255
255
255
255
255
255
255
255
255
255
255
255
255
255
255
255
255
255
255
255
255
255
255
255
255
255
255
255
255
255
255
255
255
255
255
254
254
253
250
248
247
248
248
249
250
252
254
254
254
255
255
255
255
255
255
255
255
255
255
255
255
255
255
255
255
255
255
255
255
255
255
255
255
255
255
255
255
255
255
255
255
255
255
255
255
255
255
255
255
255
255
255
255
255
255
255
255
255
255
255
255
255
255
255
255
255
255
255
255
255
255
255
255
255
255
255
255
255
255
255
255
255
255
255
255
255
255
255
255
255
255
255
255
255
255
255
255
255
255
255
255
255
255
255
255
255
255
255
255
255
255
255
255
255
255
255
255
255
255
255
255
255
255
255
255
255
255
255
255
255
255
255
255
255
255
255
255
255
255
255
255
255
255
255
255
255
255
255
255
255
255
255
255
255
255
255
255
255
255
255
255
255
255
255
255
255
255
255
255
255
255
255
255
255
255
255
255
255
255
255
255
255
255
255
255
255
255
255
255
255
255
255
255
255
255
255
255
255
255
255
255
255
255
255
255
255
255
255
255
255
255
255
255
255
255
255
255
255
255
255
255
255
255
255
255
255
255
255
255
255
255
255
255
255
255
255
255
255
255
255
255
255
255
255
255
255
255
255
255
255
254
253
253
252
250
248
246
246
245
246
248
250
251
253
254
255
255
255
255
255
255
255
255
255
255
255
255
255
255
255
255
255
255
255
255
255
255
255
255
255
255
255
255
255
255
255
255
255
255
255
255
255
255
255
255
255
255
255
255
255
255
255
255
255
255
255
255
255
255
255
255
255
255
255
255
255
255
255
255
255
255
255
255
255
255
255
255
255
255
255
255
255
255
255
255
255
255
255
255
255
255
255
255
255
255
255
255
255
255
255
255
255
255
255
255
255
255
255
255
255
255
255
255
255
255
255
255
255
255
255
255
255
255
255
255
255
255
255
255
255
255
255
255
255
255
255
255
255
255
255
255
255
255
255
255
255
255
255
255
255
255
255
255
255
255
255
255
255
255
255
255
255
255
255
255
255
255
255
255
255
255
255
255
255
255
255
255
255
255
255
255
255
255
255
255
255
255
255
255
255
255
255
255
255
255
255
255
255
255
255
255
255
255
255
255
255
255
255
255
255
255
255
255
255
255
255
255
255
255
255
255
255
255
255
255
255
255
255
255
255
255
255
255
255
255
255
255
255
255
255
255
255
255
255
255
254
253
252
252
253
251
250
247
245
243
245
246
247
248
251
254
255
255
255
255
255
255
255
255
255
255
255
255
255
255
255
255
255
255
255
255
255
255
255
255
255
255
255
255
255
255
255
255
255
255
255
255
255
255
255
255
255
255
255
255
255
255
255
255
255
255
255
255
255
255
255
255
255
255
255
255
255
255
255
255
255
255
255
255
255
255
255
255
255
255
255
255
255
255
255
255
255
255
255
255
255
255
255
255
255
255
255
255
255
255
255
255
255
255
255
255
255
255
255
255
255
255
255
255
255
255
255
255
255
255
255
255
255
255
255
255
255
255
255
255
255
255
255
255
255
255
255
255
255
255
255
255
255
255
255
255
255
255
255
255
255
255
255
255
255
255
255
255
255
255
255
255
255
255
255
255
255
255
255
255
255
255
255
255
255
255
255
255
255
255
255
255
255
255
255
255
255
255
255
255
255
255
255
255
255
255
255
255
255
255
255
255
255
255
255
255
255
255
255
255
255
255
255
255
255
255
255
255
255
255
255
255
255
255
255
255
255
255
255
255
255
255
255
255
255
255
255
255
255
255
255
255
255
255
255
255
254
253
252
251
252
251
250
249
246
242
242
244
245
247
251
255
255
255
255
255
255
255
255
255
255
255
255
255
255
255
255
255
255
255
255
255
255
255
255
255
255
255
255
255
255
255
255
255
255
255
255
255
255
255
255
255
255
255
255
255
255
255
255
255
255
255
255
255
255
255
255
255
255
255
255
255
255
255
255
255
255
255
255
255
255
255
255
255
255
255
255
255
255
255
255
255
255
255
255
255
255
255
255
255
255
255
255
255
255
255
255
255
255
255
255
255
255
255
255
255
255
255
255
255
255
255
255
255
255
255
255
255
255
255
255
255
255
255
255
255
255
255
255
255
255
255
255
255
255
255
255
255
255
255
255
255
255
255
255
255
255
255
255
255
255
255
255
255
255
255
255
255
255
255
255
255
255
255
255
255
255
255
255
255
255
255
255
255
255
255
255
255
255
255
255
255
255
255
255
255
255
255
255
255
255
255
255
255
255
255
255
255
255
255
255
255
255
255
255
255
255
255
255
255
255
255
255
255
255
255
255
255
255
255
255
255
255
255
255
255
255
255
255
255
255
255
255
255
255
255
255
255
255
255
255
255
255
254
252
250
250
250
249
247
246
243
243
244
245
247
251
254
255
255
255
255
255
255
255
255
255
255
255
255
255
255
255
255
255
255
255
255
255
255
255
255
255
255
255
255
255
255
255
255
255
255
255
255
255
255
255
255
255
255
255
255
255
255
255
255
255
255
255
255
255
255
255
255
255
255
255
255
255
255
255
255
255
255
255
255
255
255
255
255
255
255
255
255
255
255
255
255
255
255
255
255
255
255
255
255
255
255
255
255
255
255
255
255
255
255
255
255
255
255
255
255
255
255
255
255
255
255
255
255
255
255
255
255
255
255
255
255
255
255
255
255
255
255
255
255
255
255
255
255
255
255
255
255
255
255
255
255
255
255
255
255
255
255
255
255
255
255
255
255
255
255
255
255
255
255
255
255
255
255
255
255
255
255
255
255
255
255
255
255
255
255
255
255
255
255
255
255
255
255
255
255
255
255
255
255
255
255
255
255
255
255
255
255
255
255
255
255
255
255
255
255
255
255
255
255
255
255
255
255
255
255
255
255
255
255
255
255
255
255
255
255
255
255
255
255
255
255
255
255
255
255
255
255
255
255
255
255
255
255
254
251
249
248
246
245
245
243
243
243
246
249
253
254
255
255
255
255
255
255
255
255
255
255
255
255
255
255
255
255
255
255
255
255
255
255
255
255
255
255
255
255
255
255
255
255
255
255
255
255
255
255
255
255
255
255
255
255
255
255
255
255
255
255
255
255
255
255
255
255
255
255
255
255
255
255
255
255
255
255
255
255
255
255
255
255
255
255
255
255
255
255
255
255
255
255
255
255
255
255
255
255
255
255
255
255
255
255
255
255
255
255
255
255
255
255
255
255
255
255
255
255
255
255
255
255
255
255
255
255
255
255
255
255
255
255
255
255
255
255
255
255
255
255
255
255
255
255
255
255
255
255
255
255
255
255
255
255
255
255
255
255
255
255
255
255
255
255
255
255
255
255
255
255
255
255
255
255
255
255
255
255
255
255
255
255
255
255
255
255
255
255
255
255
255
255
255
255
255
255
255
255
255
255
255
255
255
255
255
255
255
255
255
255
255
255
255
255
255
255
255
255
255
255
255
255
255
255
255
255
255
255
255
255
255
255
255
255
255
255
255
255
255
255
255
255
255
255
255
255
255
255
255
255
255
255
255
252
249
248
247
245
244
244
243
244
248
252
254
255
255
255
255
255
255
255
255
255
255
255
255
255
255
255
255
255
255
255
255
255
255
255
255
255
255
255
255
255
255
255
255
255
255
255
255
255
255
255
255
255
255
255
255
255
255
255
255
255
255
255
255
255
255
255
255
255
255
255
255
255
255
255
255
255
255
255
255
255
255
255
255
255
255
255
255
255
255
255
255
255
255
255
255
255
255
255
255
255
255
255
255
255
255
255
255
255
255
255
255
255
255
255
255
255
255
255
255
255
255
255
255
255
255
255
255
255
255
255
255
255
255
255
255
255
255
255
255
255
255
255
255
255
255
255
255
255
255
255
255
255
255
255
255
255
255
255
255
255
255
255
255
255
255
255
255
255
255
255
255
255
255
255
255
255
255
255
255
255
255
255
255
255
255
255
255
255
255
255
255
255
255
255
255
255
255
255
255
255
255
255
255
255
255
255
255
255
255
255
255
255
255
255
255
255
255
255
255
255
255
255
255
255
255
255
255
255
255
255
255
255
255
255
255
255
255
255
255
255
255
255
255
255
255
255
255
255
255
255
255
255
255
255
255
254
252
250
248
247
244
244
246
248
251
254
254
255
255
255
255
255
255
255
255
255
255
255
255
255
255
255
255
255
255
255
255
255
255
255
255
255
255
255
255
255
255
255
255
255
255
255
255
255
255
255
255
255
255
255
255
255
255
255
255
255
255
255
255
255
255
255
255
255
255
255
255
255
255
255
255
255
255
255
255
255
255
255
255
255
255
255
255
255
255
255
255
255
255
255
255
255
255
255
255
255
255
255
255
255
255
255
255
255
255
255
255
255
255
255
255
255
255
255
255
255
255
255
255
255
255
255
255
255
255
255
255
255
255
255
255
255
255
255
255
255
255
255
255
255
255
255
255
255
255
255
255
255
255
255
255
255
255
255
255
255
255
255
255
255
255
255
255
255
255
255
255
255
255
255
255
255
255
255
255
255
255
255
255
255
255
255
255
255
255
255
255
255
255
255
255
255
255
255
255
255
255
255
255
255
255
255
255
255
255
255
255
255
255
255
255
255
255
255
255
255
255
255
255
255
255
255
255
255
255
255
255
255
255
255
255
255
255
255
255
255
255
255
255
255
255
255
255
255
255
255
255
255
255
255
255
255
255
253
251
249
246
246
247
252
254
255
255
255
255
255
255
255
255
255
255
255
255
255
255
255
255
255
255
255
255
255
255
255
255
255
255
255
255
255
255
255
255
255
255
255
255
255
255
255
255
255
255
255
255
255
255
255
255
255
255
255
255
255
255
255
255
255
255
255
255
255
255
255
255
255
255
255
255
255
255
255
255
255
255
255
255
255
255
255
255
255
255
255
255
255
255
255
255
255
255
255
255
255
255
255
255
255
255
255
255
255
255
255
255
255
255
255
255
255
255
255
255
255
255
255
255
255
255
255
255
255
255
255
255
255
255
255
255
255
255
255
255
255
255
255
255
255
255
255
255
255
255
255
255
255
255
255
255
255
255
255
255
255
255
255
255
255
255
255
255
255
255
255
255
255
255
255
255
255
255
255
255
255
255
255
255
255
255
255
255
255
255
255
255
255
255
255
255
255
255
255
255
255
255
255
255
255
255
255
255
255
255
255
255
255
255
255
255
255
255
255
255
255
255
255
255
255
255
255
255
255
255
255
255
255
255
255
255
255
255
255
255
255
255
255
255
255
255
255
255
255
255
255
255
255
255
255
255
255
254
251
247
246
247
253
255
255
255
255
255
255
255
255
255
255
255
255
255
255
255
255
255
255
255
255
255
255
255
255
255
255
255
255
255
255
255
255
255
255
255
255
255
255
255
255
255
255
255
255
255
255
255
255
255
255
255
255
255
255
255
255
255
255
255
255
255
255
255
255
255
255
255
255
255
255
255
255
255
255
255
255
255
255
255
255
255
255
255
255
255
255
255
255
255
255
255
255
255
255
255
255
255
255
255
255
255
255
255
255
255
255
255
255
255
255
255
255
255
255
255
255
255
255
255
255
255
255
255
255
255
255
255
255
255
255
255
255
255
255
255
255
255
255
255
255
255
255
255
255
255
255
255
255
255
255
255
255
255
255
255
255
255
255
255
255
255
255
255
255
255
255
255
255
255
255
255
255
255
255
255
255
255
255
255
255
255
255
255
255
255
255
255
255
255
255
255
255
255
255
255
255
255
255
255
255
255
255
255
255
255
255
255
255
255
255
255
255
255
255
255
255
255
255
255
255
255
255
255
255
255
255
255
255
255
255
255
255
255
255
255
255
255
255
255
255
255
255
255
255
255
255
255
255
255
255
254
253
250
249
249
254
255
255
255
255
255
255
255
255
255
255
255
255
255
255
255
255
255
255
255
255
255
255
255
255
255
255
255
255
255
255
255
255
255
255
255
255
255
255
255
255
255
255
255
255
255
255
255
255
255
255
255
255
255
255
255
255
255
255
255
255
255
255
255
255
255
255
255
255
255
255
255
255
255
255
255
255
255
255
255
255
255
255
255
255
255
255
255
255
255
255
255
255
255
255
255
255
255
255
255
255
255
255
255
255
255
255
255
255
255
255
255
255
255
255
255
255
255
255
255
255
255
255
255
255
255
255
255
255
255
255
255
255
255
255
255
255
255
255
255
255
255
255
255
255
255
255
255
255
255
255
255
255
255
255
255
255
255
255
255
255
255
255
255
255
255
255
255
255
255
255
255
255
255
255
255
255
255
255
255
255
255
255
255
255
255
255
255
255
255
255
255
255
255
255
255
255
255
255
255
255
255
255
255
255
255
255
255
255
255
255
255
255
255
255
255
255
255
255
255
255
255
255
255
255
255
255
255
255
255
255
255
255
255
255
255
255
255
255
255
255
255
255
255
255
255
255
255
255
255
255
255
253
251
251
252
254
255
255
255
255
255
255
255
255
255
255
255
255
255
255
255
255
255
255
255
255
255
255
255
255
255
255
255
255
255
255
255
255
255
255
255
255
255
255
255
255
255
255
255
255
255
255
255
255
255
255
255
255
255
255
255
255
255
255
255
255
255
255
255
255
255
255
255
255
255
255
255
255
255
255
255
255
255
255
255
255
255
255
255
255
255
255
255
255
255
255
255
255
255
255
255
255
255
255
255
255
255
255
255
255
255
255
255
255
255
255
255
255
255
255
255
255
255
255
255
255
255
255
255
255
255
255
255
255
255
255
255
255
255
255
255
255
255
255
255
255
255
255
255
255
255
255
255
255
255
255
255
255
255
255
255
255
255
255
255
255
255
255
255
255
255
255
255
255
255
255
255
255
255
255
255
255
255
255
255
255
255
255
255
255
255
255
255
255
255
255
255
255
255
255
255
255
255
255
255
255
255
255
255
255
255
255
255
255
255
255
255
255
255
255
255
255
255
255
255
255
255
255
255
255
255
255
255
255
255
255
255
255
255
255
255
255
255
255
255
255
255
255
255
255
255
255
255
255
255
255
255
252
250
251
253
254
255
255
255
255
255
255
255
255
255
255
255
255
255
255
255
255
255
255
255
255
255
255
255
255
255
255
255
255
255
255
255
255
255
255
255
255
255
255
255
255
255
255
255
255
255
255
255
255
255
255
255
255
255
255
255
255
255
255
255
255
255
255
255
255
255
255
255
255
255
255
255
255
255
255
255
255
255
255
255
255
255
255
255
255
255
255
255
255
255
255
255
255
255
255
255
255
255
255
255
255
255
255
255
255
255
255
255
255
255
255
255
255
255
255
255
255
255
255
255
255
255
255
255
255
255
255
255
255
255
255
255
255
255
255
255
255
255
255
255
255
255
255
255
255
255
255
255
255
255
255
255
255
255
255
255
255
255
255
255
255
255
255
255
255
255
255
255
255
255
255
255
255
255
255
255
255
255
255
255
255
255
255
255
255
255
255
255
255
255
255
255
255
255
255
255
255
255
255
255
255
255
255
255
255
255
255
255
255
255
255
255
255
255
255
255
255
255
255
255
255
255
255
255
255
255
255
255
255
255
255
255
255
255
255
255
255
255
255
255
255
255
255
255
255
255
255
255
255
255
255
254
250
248
250
251
253
255
255
255
255
255
255
255
255
255
255
255
255
255
255
255
255
255
255
255
255
255
255
255
255
255
255
255
255
255
255
255
255
255
255
255
255
255
255
255
255
255
255
255
255
255
255
255
255
255
255
255
255
255
255
255
255
255
255
255
255
255
255
255
255
255
255
255
255
255
255
255
255
255
255
255
255
255
255
255
255
255
255
255
255
255
255
255
255
255
255
255
255
255
255
255
255
255
255
255
255
255
255
255
255
255
255
255
255
255
255
255
255
255
255
255
255
255
255
255
255
255
255
255
255
255
255
255
255
255
255
255
255
255
255
255
255
255
255
255
255
255
255
255
255
255
255
255
255
255
255
255
255
255
255
255
255
255
255
255
255
255
255
255
255
255
255
255
255
255
255
255
255
255
255
255
255
255
255
255
255
255
255
255
255
255
255
255
255
255
255
255
255
255
255
255
255
255
255
255
255
255
255
255
255
255
255
255
255
255
255
255
255
255
255
255
255
255
255
255
255
255
255
255
255
255
255
255
255
255
255
255
255
255
255
255
255
255
255
255
255
255
255
255
255
255
255
255
255
255
255
254
249
248
250
252
253
254
255
255
255
255
255
255
255
255
255
255
255
255
255
255
255
255
255
255
255
255
255
255
255
255
255
255
255
255
255
255
255
255
255
255
255
255
255
255
255
255
255
255
255
255
255
255
255
255
255
255
255
255
255
255
255
255
255
255
255
255
255
255
255
255
255
255
255
255
255
255
255
255
255
255
255
255
255
255
255
255
255
255
255
255
255
255
255
255
255
255
255
255
255
255
255
255
255
255
255
255
255
255
255
255
255
255
255
255
255
255
255
255
255
255
255
255
255
255
255
255
255
255
255
255
255
255
255
255
255
255
255
255
255
255
255
255
255
255
255
255
255
255
255
255
255
255
255
255
255
255
255
255
255
255
255
255
255
255
255
255
255
255
255
255
255
255
255
255
255
255
255
255
255
255
255
255
255
255
255
255
255
255
255
255
255
255
255
255
255
255
255
255
255
255
255
255
255
255
255
255
255
255
255
255
255
255
255
255
255
255
255
255
255
255
255
255
255
255
255
255
255
255
255
255
255
255
255
255
255
255
255
255
255
255
255
255
255
255
255
255
255
255
255
255
255
255
255
255
255
253
249
248
250
252
254
254
255
255
255
255
255
255
255
255
255
255
255
255
255
255
255
255
255
255
255
255
255
255
255
255
255
255
255
255
255
255
255
255
255
255
255
255
255
255
255
255
255
255
255
255
255
255
255
255
255
255
255
255
255
255
255
255
255
255
255
255
255
255
255
255
255
255
255
255
255
255
255
255
255
255
255
255
255
255
255
255
255
255
255
255
255
255
255
255
255
255
255
255
255
255
255
255
255
255
255
255
255
255
255
255
255
255
255
255
255
255
255
255
255
255
255
255
255
255
255
255
255
255
255
255
255
255
255
255
255
255
255
255
255
255
255
255
255
255
255
255
255
255
255
255
255
255
255
255
255
255
255
255
255
255
255
255
255
255
255
255
255
255
255
255
255
255
255
255
255
255
255
255
255
255
255
255
255
255
255
255
255
255
255
255
255
255
255
255
255
255
255
255
255
255
255
255
255
255
255
255
255
255
255
255
255
255
255
255
255
255
255
255
255
255
255
255
255
255
255
255
255
255
255
255
255
255
255
255
255
255
255
255
255
255
255
255
255
255
255
255
255
255
255
255
255
255
255
255
255
253
249
248
249
253
255
255
255
255
255
255
255
255
255
255
255
255
255
255
255
255
255
255
255
255
255
255
255
255
255
255
255
255
255
255
255
255
255
255
255
255
255
255
255
255
255
255
255
255
255
255
255
255
255
255
255
255
255
255
255
255
255
255
255
255
255
255
255
255
255
255
255
255
255
255
255
255
255
255
255
255
255
255
255
255
255
255
255
255
255
255
255
255
255
255
255
255
255
255
255
255
255
255
255
255
255
255
255
255
255
255
255
255
255
255
255
255
255
255
255
255
255
255
255
255
255
255
255
255
255
255
255
255
255
255
255
255
255
255
255
255
255
255
255
255
255
255
255
255
255
255
255
255
255
255
255
255
255
255
255
255
255
255
255
255
255
255
255
255
255
255
255
255
255
255
255
255
255
255
255
255
255
255
255
255
255
255
255
255
255
255
255
255
255
255
255
255
255
255
255
255
255
255
255
255
255
255
255
255
255
255
255
255
255
255
255
255
255
255
255
255
255
255
255
255
255
255
255
255
255
255
255
255
255
255
255
255
255
255
255
255
255
255
255
255
255
255
255
255
255
255
255
255
255
255
255
254
250
249
250
254
255
255
255
255
255
255
255
255
255
255
255
255
255
255
255
255
255
255
255
255
255
255
255
255
255
255
255
255
255
255
255
255
255
255
255
255
255
255
255
255
255
255
255
255
255
255
255
255
255
255
255
255
255
255
255
255
255
255
255
255
255
255
255
255
255
255
255
255
255
255
255
255
255
255
255
255
255
255
255
255
255
255
255
255
255
255
255
255
255
255
255
255
255
255
255
255
255
255
255
255
255
255
255
255
255
255
255
255
255
255
255
255
255
255
255
255
255
255
255
255
255
255
255
255
255
255
255
255
255
255
255
255
255
255
255
255
255
255
255
255
255
255
255
255
255
255
255
255
255
255
255
255
255
255
255
255
255
255
255
255
255
255
255
255
255
255
255
255
255
255
255
255
255
255
255
255
255
255
255
255
255
255
255
255
255
255
255
255
255
255
255
255
255
255
255
255
255
255
255
255
255
255
255
255
255
255
255
255
255
255
255
255
255
255
255
255
255
255
255
255
255
255
255
255
255
255
255
255
255
255
255
255
255
255
255
255
255
255
255
255
255
255
255
255
255
255
255
255
255
255
255
254
252
249
250
254
254
255
255
255
255
255
255
255
255
255
255
255
255
255
255
255
255
255
255
255
255
255
255
255
255
255
255
255
255
255
255
255
255
255
255
255
255
255
255
255
255
255
255
255
255
255
255
255
255
255
255
255
255
255
255
255
255
255
255
255
255
255
255
255
255
255
255
255
255
255
255
255
255
255
255
255
255
255
255
255
255
255
255
255
255
255
255
255
255
255
255
255
255
255
255
255
255
255
255
255
255
255
255
255
255
255
255
255
255
255
255
255
255
255
255
255
255
255
255
255
255
255
255
255
255
255
255
255
255
255
255
255
255
255
255
255
255
255
255
255
255
255
255
255
255
255
255
255
255
255
255
255
255
255
255
255
255
255
255
255
255
255
255
255
255
255
255
255
255
255
255
255
255
255
255
255
255
255
255
255
255
255
255
255
255
255
255
255
255
255
255
255
255
255
255
255
255
255
255
255
255
255
255
255
255
255
255
255
255
255
255
255
255
255
255
255
255
255
255
255
255
255
255
255
255
255
255
255
255
255
255
255
255
255
255
255
255
255
255
255
255
255
255
255
255
255
255
255
255
255
255
255
254
253
253
254
255
255
255
255
255
255
255
255
255
255
255
255
255
255
255
255
255
255
255
255
255
255
255
255
255
255
255
255
255
255
255
255
255
255
255
255
255
255
255
255
255
255
255
255
255
255
255
255
255
255
255
255
255
255
255
255
255
255
255
255
255
255
255
255
255
255
255
255
255
255
255
255
255
255
255
255
255
255
255
255
255
255
255
255
255
255
255
255
255
255
255
255
255
255
255
255
255
255
255
255
255
255
255
255
255
255
255
255
255
255
255
255
255
255
255
255
255
255
255
255
255
255
255
255
255
255
255
255
255
255
255
255
255
255
255
255
255
255
255
255
255
255
255
255
255
255
255
255
255
255
255
255
255
255
255
255
255
255
255
255
255
255
255
255
255
255
255
255
255
255
255
255
255
255
255
255
255
255
255
255
255
255
255
255
255
255
255
255
255
255
255
255
255
255
255
255
255
255
255
255
255
255
255
255
255
255
255
255
255
255
255
255
255
255
255
255
255
255
255
255
255
255
255
255
255
255
255
255
255
255
255
255
255
255
255
255
255
255
255
255
255
255
255
255
255
255
255
255
255
255
255
255
255
254
254
255
255
255
255
255
255
255
255
255
255
255
255
255
255
255
255
255
255
255
255
255
255
255
255
255
255
255
255
255
255
255
255
255
255
255
255
255
255
255
255
255
255
255
255
255
255
255
255
255
255
255
255
255
255
255
255
255
255
255
255
255
255
255
255
255
255
255
255
255
255
255
255
255
255
255
255
255
255
255
255
255
255
255
255
255
255
255
255
255
255
255
255
255
255
255
255
255
255
255
255
255
255
255
255
255
255
255
255
255
255
255
255
255
255
255
255
255
255
255
255
255
255
255
255
255
255
255
255
255
255
255
255
255
255
255
255
255
255
255
255
255
255
255
255
255
255
255
255
255
255
255
255
255
255
255
255
255
255
255
255
255
255
255
255
255
255
255
255
255
255
255
255
255
255
255
255
255
255
255
255
255
255
255
255
255
255
255
255
255
255
255
255
255
255
255
255
255
255
255
255
255
255
255
255
255
255
255
255
255
255
255
255
255
255
255
255
255
255
255
255
255
255
255
255
255
255
255
255
255
255
255
255
255
255
255
255
255
255
255
255
255
255
255
255
255
255
255
255
255
255
255
255
255
255
255
255
255
255
255
255
255
255
255
255
255
255
255
255
255
255
255
255
255
255
255
255
255
255
255
255
255
255
255
255
255
255
255
255
255
255
255
255
255
255
255
255
255
255
255
255
255
255
255
255
255
255
255
255
255
255
255
255
255
255
255
255
255
255
255
255
255
255
255
255
255
255
255
255
255
255
255
255
255
255
255
255
255
255
255
255
255
255
255
255
255
255
255
255
255
255
255
255
255
255
255
255
255
255
255
255
255
255
255
255
255
255
255
255
255
255
255
255
255
255
255
255
255
255
255
255
255
255
255
255
255
255
255
255
255
255
255
255
255
255
255
255
255
255
255
255
255
255
255
255
255
255
255
255
255
255
255
255
255
255
255
255
255
255
255
255
255
255
255
255
255
255
255
255
255
255
255
255
255
255
255
255
255
255
255
255
255
255
255
255
255
255
255
255
255
255
255
255
255
255
255
255
255
255
255
255
255
255
255
255
255
255
255
255
255
255
255
255
255
255
255
255
255
255
255
255
255
255
255
255
255
255
255
255
255
255
255
255
255
255
255
255
255
255
255
255
255
255
255
255
255
255
255
255
255
255
255
255
255
255
255
255
255
255
255
255
255
255
255
255
255
255
255
255
255
255
255
255
255
255
255
255
255
255
255
255
255
255
255
255
255
255
255
255
255
255
255
255
255
255
255
255
255
255
255
255
255
255
255
255
255
255
255
255
255
255
255
255
255
255
255
255
255
255
255
255
255
255
255
255
255
255
255
255
255
255
255
255
255
255
255
255
255
255
255
255
255
255
255
255
255
255
255
255
255
255
255
255
255
255
255
255
255
255
255
255
255
255
255
255
255
255
255
255
255
255
255
255
255
255
255
255
255
255
255
255
255
255
255
255
255
255
255
255
255
255
255
255
255
255
255
255
255
255
255
255
255
255
255
255
255
255
255
255
255
255
255
255
255
255
255
255
255
255
255
255
255
255
255
255
255
255
255
255
255
255
255
255
255
255
255
255
255
255
255
255
255
255
255
255
255
255
255
255
255
255
255
255
255
255
255
255
255
255
255
255
255
255
255
255
255
255
255
255
255
255
255
255
255
255
255
255
255
255
255
255
255
255
255
255
255
255
255
255
255
255
255
255
255
255
255
255
255
255
255
255
255
255
255
255
255
255
255
255
255
255
255
255
255
255
255
255
255
255
255
255
255
255
255
255
255
255
255
255
255
255
255
255
255
255
255
255
255
255
255
255
255
255
255
255
255
255
255
255
255
255
255
255
255
255
255
255
255
255
255
255
255
255
255
255
255
255
255
255
255
255
255
255
255
255
255
255
255
255
255
255
255
255
255
255
255
255
255
255
255
255
255
255
255
255
255
255
255
255
255
255
255
255
255
255
255
255
255
255
255
255
255
255
255
255
255
255
255
255
255
255
255
255
255
255
255
255
255
255
255
255
255
255
255
255
255
255
255
255
255
255
255
255
255
255
255
255
255
255
255
255
255
255
255
255
255
255
255
255
255
255
255
255
255
255
255
255
255
255
255
255
255
255
255
255
255
255
255
255
255
255
255
255
255
255
255
255
255
255
255
255
255
255
255
255
255
255
255
255
255
255
255
255
255
255
255
255
255
255
255
255
255
255
255
255
255
255
255
255
255
255
255
255
255
255
255
255
255
255
255
255
255
255
255
255
255
255
255
255
255
255
255
255
255
255
255
255
255
255
255
255
255
255
255
255
255
255
255
255
255
255
255
255
255
255
255
255
255
255
255
255
255
255
255
255
255
255
255
255
255
255
255
255
255
255
255
255
255
255
255
255
255
255
255
255
255
255
255
255
255
255
255
255
255
255
255
255
255
255
255
255
255
255
255
255
255
255
255
255
255
255
255
255
255
255
255
255
255
255
255
255
255
255
255
255
255
255
255
255
255
255
255
255
255
255
255
255
255
255
255
255
255
255
255
255
255
255
255
255
255
255
255
255
255
255
255
255
255
255
255
255
255
255
255
255
255
255
255
255
255
255
255
255
255
255
255
255
255
255
255
255
255
255
255
255
255
255
255
255
255
255
255
255
255
255
255
255
255
255
255
255
255
255
255
255
255
255
255
255
255
255
255
255
255
255
255
255
255
255
255
255
255
255
255
255
255
255
255
255
255
255
255
255
255
255
255
255
255
255
255
255
255
255
255
255
255
255
255
255
255
255
255
255
255
255
255
255
255
255
255
255
255
255
255
255
255
255
255
255
255
255
255
255
255
255
255
255
255
255
255
255
255
255
255
255
255
255
255
255
255
255
255
255
255
255
255
255
255
255
255
255
255
255
255
255
255
255
255
255
255
255
255
255
255
255
255
255
255
255
255
255
255
255
255
255
255
255
255
255
255
255
255
255
255
255
255
255
255
255
255
255
255
255
255
255
255
255
255
255
255
255
255
255
255
255
255
255
255
255
255
255
255
255
255
255
255
255
255
255
255
255
255
255
255
255
255
255
255
255
255
255
255
255
255
255
255
255
255
255
255
255
255
255
255
255
255
255
255
255
255
255
255
255
255
255
255
255
255
255
255
255
255
255
255
255
255
255
255
255
255
255
255
255
255
255
255
255
255
255
255
255
255
255
255
255
255
255
255
255
255
255
255
255
255
255
255
255
255
255
255
255
255
255
255
255
255
255
255
255
255
255
255
255
255
255
255
255
255
255
255
255
255
255
255
255
255
255
255
255
255
255
255
255
255
255
255
255
255
255
255
255
255
255
255
255
255
255
255
255
255
255
255
255
255
255
255
255
255
255
255
255
255
255
255
255
255
255
255
255
255
255
255
255
255
255
255
255
255
255
255
255
255
255
255
255
255
255
255
255
255
255
255
255
255
255
255
255
255
255
255
255
255
255
255
255
255
255
255
255
255
255
255
255
255
255
255
255
255
255
255
255
255
255
255
255
255
255
255
255
255
255
255
255
255
255
255
255
255
255
255
255
255
255
255
255
255
255
255
255
255
255
255
255
255
255
255
255
255
255
255
255
255
255
255
255
255
255
255
255
255
255
255
255
255
255
255
255
255
255
255
255
255
255
255
255
255
255
255
255
255
255
255
255
255
255
255
255
255
255
255
255
255
255
255
255
255
255
255
255
255
255
255
255
255
255
255
255
255
255
255
255
255
255
255
255
255
255
255
255
255
255
255
255
255
255
255
255
255
255
255
255
255
255
255
255
255
255
255
255
255
255
255
255
255
255
255
255
255
255
255
255
255
255
255
255
255
255
255
255
255
255
255
255
255
255
255
255
255
255
255
255
255
255
255
255
255
255
255
255
255
255
255
255
255
255
255
255
255
255
255
255
255
255
255
255
255
255
255
255
255
255
255
255
255
255
255
255
255
255
255
255
255
255
255
255
255
255
255
255
255
255
255
255
255
255
255
255
255
255
255
255
255
255
255
255
255
255
255
255
255
255
255
255
255
255
255
255
255
255
255
255
255
255
255
255
255
255
255
255
255
255
255
255
255
255
255
255
255
255
255
255
255
255
255
255
255
255
255
255
255
255
255
255
255
255
255
255
255
255
255
255
255
255
255
255
255
255
255
255
255
255
255
255
255
255
255
255
255
255
255
255
255
255
255
255
255
255
255
255
255
255
255
255
255
255
255
255
255
255
255
255
255
255
255
255
255
255
255
255
255
255
255
255
255
255
255
255
255
255
255
255
255
255
255
255
255
255
255
255
255
255
255
255
255
255
255
255
255
255
255
255
255
255
255
255
255
255
255
255
255
255
255
255
255
255
255
255
255
255
255
255
255
255
255
255
255
255
255
255
255
255
255
255
255
255
255
255
255
255
255
255
255
255
255
255
255
255
255
255
255
255
255
255
255
255
255
255
255
255
255
255
255
255
255
255
255
255
255
255
255
255
255
255
255
255
255
255
255
255
255
255
255
255
255
255
255
255
255
255
255
255
255
255
255
255
255
255
255
255
255
255
255
255
255
255
255
255
255
255
255
255
255
255
255
255
255
255
255
255
255
255
255
255
255
255
255
255
255
255
255
255
255
255
255
255
255
255
255
255
255
255
255
255
255
255
255
255
255
255
255
255
255
255
255
255
255
255
255
255
255
255
255
255
255
255
255
255
255
255
255
255
255
255
255
255
255
255
255
255
255
255
255
255
255
255
255
255
255
255
255
255
255
255
255
255
255
255
255
255
255
255
255
255
255
255
255
255
255
255
255
255
255
255
255
255
255
255
255
255
255
255
255
255
255
255
255
255
255
255
255
255
255
255
255
255
255
255
255
255
255
255
255
255
255
255
255
255
255
255
255
255
255
255
255
255
255
255
255
255
255
255
255
255
255
255
255
255
255
255
255
255
255
255
255
255
255
255
255
255
255
255
255
255
255
255
255
255
255
255
255
255
255
255
255
255
255
255
255
255
255
255
255
255
255
255
255
255
255
255
255
255
255
255
255
255
255
255
255
255
255
255
255
255
255
255
255
255
255
255
255
255
255
255
255
255
255
255
255
255
255
255
255
255
255
255
255
255
255
255
255
255
255
255
255
255
255
255
255
255
255
255
255
255
255
255
255
255
255
255
255
255
255
255
255
255
255
255
255
255
255
255
255
255
255
255
255
255
255
255
255
255
255
255
255
255
255
255
255
255
255
255
255
255
255
255
255
255
255
255
255
255
255
255
255
255
255
255
255
255
255
255
255
255
255
255
255
255
255
255
255
255
255
255
255
255
255
255
255
255
255
255
255
255
255
255
255
255
255
255
255
255
255
255
255
255
255
255
255
255
255
255
255
255
255
255
255
255
255
255
255
255
255
255
255
255
255
255
255
255
255
255
255
255
255
255
255
255
255
255
255
255
255
255
255
255
255
255
255
255
255
255
255
255
255
255
255
255
255
255
255
255
255
255
255
255
255
255
255
255
255
255
255
255
255
255
255
255
255
255
255
255
255
255
255
255
255
255
255
255
255
255
255
255
255
255
255
255
255
255
255
255
255
255
255
255
255
255
255
255
255
255
255
255
255
255
255
255
255
255
255
255
255
255
255
255
255
255
255
255
255
255
255
255
255
255
255
255
255
255
255
255
255
255
255
255
255
255
255
255
255
255
255
255
255
255
255
255
255
255
255
255
255
255
255
255
255
255
255
255
255
255
255
255
255
255
255
255
255
255
255
255
255
255
255
255
255
255
255
255
255
255
255
255
255
255
255
255
255
255
255
255
255
255
255
255
255
255
255
255
255
255
255
255
255
255
255
255
255
255
255
255
255
255
255
255
255
255
255
255
255
255
255
255
255
255
255
255
255
255
255
255
255
255
255
255
255
255
255
255
255
255
255
255
255
255
255
255
255
255
255
255
255
255
255
255
255
255
255
255
255
255
255
255
255
255
255
255
255
255
255
255
255
255
255
255
255
255
255
255
255
255
255
255
255
255
255
255
255
255
255
255
255
255
255
255
255
255
255
255
255
255
255
255
255
255
255
255
255
255
255
255
255
255
255
255
255
255
255
255
255
255
255
255
255
255
255
255
255
255
255
255
255
255
255
255
255
255
255
255
255
255
255
255
255
255
255
255
255
255
255
255
255
255
255
255
255
255
255
255
255
255
255
255
255
255
255
255
255
255
255
255
255
255
255
255
255
255
255
255
255
255
255
255
255
255
255
255
255
255
255
255
255
255
255
255
255
255
255
255
255
255
255
255
255
248
254
255
255
255
255
255
255
255
255
255
255
255
255
255
255
255
255
255
255
255
255
255
255
255
255
255
255
255
255
255
255
255
255
255
255
255
255
255
255
255
255
255
255
255
255
255
255
255
255
255
255
255
255
255
255
255
255
255
255
255
255
255
255
255
255
255
255
255
255
255
255
255
255
255
255
255
255
255
255
255
255
255
255
255
255
255
255
255
255
255
255
255
255
255
255
255
255
255
255
255
255
255
255
255
255
255
255
255
255
255
255
255
255
255
255
255
255
255
255
255
255
255
255
255
255
255
255
255
255
255
255
255
255
255
255
255
255
255
255
255
255
255
255
255
255
255
255
255
255
255
255
255
255
255
255
255
255
255
255
255
255
255
255
255
255
255
255
255
255
255
255
255
255
255
255
255
255
255
255
255
255
255
255
255
255
255
255
255
255
255
255
255
255
255
255
255
255
255
255
255
255
255
255
255
255
255
255
255
255
255
255
255
255
255
255
255
255
255
255
255
255
255
255
255
255
255
255
255
255
255
255
255
255
255
255
255
255
255
255
255
255
255
255
255
255
255
255
255
255
255
255
255
255
255
255
220
249
254
255
255
255
255
255
255
255
255
255
255
255
255
255
255
255
255
255
255
255
255
255
255
255
255
255
255
255
255
255
255
255
255
255
255
255
255
255
255
255
255
255
255
255
255
255
255
255
255
255
255
255
255
255
255
255
255
255
255
255
255
255
255
255
255
255
255
255
255
255
255
255
255
255
255
255
255
255
255
255
255
255
255
255
255
255
255
255
255
255
255
255
255
255
255
255
255
255
255
255
255
255
255
255
255
255
255
255
255
255
255
255
255
255
255
255
255
255
255
255
255
255
255
255
255
255
255
255
255
255
255
255
255
255
255
255
255
255
255
255
255
255
255
255
255
255
255
255
255
255
255
255
255
255
255
255
255
255
255
255
255
255
255
255
255
255
255
255
255
255
255
255
255
255
255
255
255
255
255
255
255
255
255
255
255
255
255
255
255
255
255
255
255
255
255
255
255
255
255
255
255
255
255
255
255
255
255
255
255
255
255
255
255
255
255
255
255
255
255
255
255
255
255
255
255
255
255
255
255
255
255
255
255
255
255
255
255
255
255
255
255
255
255
255
255
255
255
255
255
255
255
255
255
255
250
221
250
254
255
255
255
255
255
255
255
255
255
255
255
255
255
255
255
255
255
255
255
255
255
255
255
255
255
255
255
255
255
255
255
255
255
255
255
255
255
255
255
255
255
255
255
255
255
255
255
255
255
255
255
255
255
255
255
255
255
255
255
255
255
255
255
255
255
255
255
255
255
255
255
255
255
255
255
255
255
255
255
255
255
255
255
255
255
255
255
255
255
255
255
255
255
255
255
255
255
255
255
255
255
255
255
255
255
255
255
255
255
255
255
255
255
255
255
255
255
255
255
255
255
255
255
255
255
255
255
255
255
255
255
255
255
255
255
255
255
255
255
255
255
255
255
255
255
255
255
255
255
255
255
255
255
255
255
255
255
255
255
255
255
255
255
255
255
255
255
255
255
255
255
255
255
255
255
255
255
255
255
255
255
255
255
255
255
255
255
255
255
255
255
255
255
255
255
255
255
255
255
255
255
255
255
255
255
255
255
255
255
255
255
255
255
255
255
255
255
255
255
255
255
255
255
255
255
255
255
255
255
255
255
255
255
255
255
255
255
255
255
255
255
255
255
255
255
255
255
255
255
255
255
255
255
249
220
250
254
255
255
255
255
255
255
255
255
255
255
255
255
255
255
255
255
255
255
255
255
255
255
255
255
255
255
255
255
255
255
255
255
255
255
255
255
255
255
255
255
255
255
255
255
255
255
255
255
255
255
255
255
255
255
255
255
255
255
255
255
255
255
255
255
255
255
255
255
255
255
255
255
255
255
255
255
255
255
255
255
255
255
255
255
255
255
255
255
255
255
255
255
255
255
255
255
255
255
255
255
255
255
255
255
255
255
255
255
255
255
255
255
255
255
255
255
255
255
255
255
255
255
255
255
255
255
255
255
255
255
255
255
255
255
255
255
255
255
255
255
255
255
255
255
255
255
255
255
255
255
255
255
255
255
255
255
255
255
255
255
255
255
255
255
255
255
255
255
255
255
255
255
255
255
255
255
255
255
255
255
255
255
255
255
255
255
255
255
255
255
255
255
255
255
255
255
255
255
255
255
255
255
255
255
255
255
255
255
255
255
255
255
255
255
255
255
255
255
255
255
255
255
255
255
255
255
255
255
255
255
255
255
255
255
255
255
255
255
255
255
255
255
255
255
255
255
255
255
255
255
255
255
254
249
221
250
254
255
255
255
255
255
255
255
255
255
255
255
255
255
255
255
255
255
255
255
255
255
255
255
255
255
255
255
255
255
255
255
255
255
255
255
255
255
255
255
255
255
255
255
255
255
255
255
255
255
255
255
255
255
255
255
255
255
255
255
255
255
255
255
255
255
255
255
255
255
255
255
255
255
255
255
255
255
255
255
255
255
255
255
255
255
255
255
255
255
255
255
255
255
255
255
255
255
255
255
255
255
255
255
255
255
255
255
255
255
255
255
255
255
255
255
255
255
255
255
255
255
255
255
255
255
255
255
255
255
255
255
255
255
255
255
255
255
255
255
255
255
255
255
255
255
255
255
255
255
255
255
255
255
255
255
255
255
255
255
255
255
255
255
255
255
255
255
255
255
255
255
255
255
255
255
255
255
255
255
255
255
255
255
255
255
255
255
255
255
255
255
255
255
255
255
255
255
255
255
255
255
255
255
255
255
255
255
255
255
255
255
255
255
255
255
255
255
255
255
255
255
255
255
255
255
255
255
255
255
255
255
255
255
255
255
255
255
255
255
255
255
255
255
255
255
255
255
255
255
255
255
255
254
249
221
251
255
255
255
255
255
255
255
255
255
255
255
255
255
255
255
255
255
255
255
255
255
255
255
255
255
255
255
255
255
255
255
255
255
255
255
255
255
255
255
255
255
255
255
255
255
255
255
255
255
255
255
255
255
255
255
255
255
255
255
255
255
255
255
255
255
255
255
255
255
255
255
255
255
255
255
255
255
255
255
255
255
255
255
255
255
255
255
255
255
255
255
255
255
255
255
255
255
255
255
255
255
255
255
255
255
255
255
255
255
255
255
255
255
255
255
255
255
255
255
255
255
255
255
255
255
255
255
255
255
255
255
255
255
255
255
255
255
255
255
255
255
255
255
255
255
255
255
255
255
255
255
255
255
255
255
255
255
255
255
255
255
255
255
255
255
255
255
255
255
255
255
255
255
255
255
255
255
255
255
255
255
255
255
255
255
255
255
255
255
255
255
255
255
255
255
255
255
255
255
255
255
255
255
255
255
255
255
255
255
255
255
255
255
255
255
255
255
255
255
255
255
255
255
255
255
255
255
255
255
255
255
255
255
255
255
255
255
255
255
255
255
255
255
255
255
255
255
255
255
255
255
255
255
254
246
222
253
255
255
255
255
255
255
255
255
255
255
255
255
255
255
255
255
255
255
255
255
255
255
255
255
255
255
255
255
255
255
255
255
255
255
255
255
255
255
255
255
255
255
255
255
255
255
255
255
255
255
255
255
255
255
255
255
255
255
255
255
255
255
255
255
255
255
255
255
255
255
255
255
255
255
255
255
255
255
255
255
255
255
255
255
255
255
255
255
255
255
255
255
255
255
255
255
255
255
255
255
255
255
255
255
255
255
255
255
255
255
255
255
255
255
255
255
255
255
255
255
255
255
255
255
255
255
255
255
255
255
255
255
255
255
255
255
255
255
255
255
255
255
255
255
255
255
255
255
255
255
255
255
255
255
255
255
255
255
255
255
255
255
255
255
255
255
255
255
255
255
255
255
255
255
255
255
255
255
255
255
255
255
255
255
255
255
255
255
255
255
255
255
255
255
255
255
255
255
255
255
255
255
255
255
255
255
255
255
255
255
255
255
255
255
255
255
255
255
255
255
255
255
255
255
255
255
255
255
255
255
255
255
255
255
255
255
255
255
255
255
255
255
255
255
255
255
255
255
255
255
255
255
255
254
241
229
253
255
255
255
255
255
255
255
255
255
255
255
255
255
255
255
255
255
255
255
255
255
255
255
255
255
255
255
255
255
255
255
255
255
255
255
255
255
255
255
255
255
255
255
255
255
255
255
255
255
255
255
255
255
255
255
255
255
255
255
255
255
255
255
255
255
255
255
255
255
255
255
255
255
255
255
255
255
255
255
255
255
255
255
255
255
255
255
255
255
255
255
255
255
255
255
255
255
255
255
255
255
255
255
255
255
255
255
255
255
255
255
255
255
255
255
255
255
255
255
255
255
255
255
255
255
255
255
255
255
255
255
255
255
255
255
255
255
255
255
255
255
255
255
255
255
255
255
255
255
255
255
255
255
255
255
255
255
255
255
255
255
255
255
255
255
255
255
255
255
255
255
255
255
255
255
255
255
255
255
255
255
255
255
255
255
255
255
255
255
255
255
255
255
255
255
255
255
255
255
255
255
255
255
255
255
255
255
255
255
255
255
255
255
255
255
255
255
255
255
255
255
255
255
255
255
255
255
255
255
255
255
255
255
255
255
255
255
255
255
255
255
255
255
255
255
255
255
255
255
255
255
255
255
254
238
233
253
255
255
255
255
255
255
255
255
255
255
255
255
255
255
255
255
255
255
255
255
255
255
255
255
255
255
255
255
255
255
255
255
255
255
255
255
255
255
255
255
255
255
255
255
255
255
255
255
255
255
255
255
255
255
255
255
255
255
255
255
255
255
255
255
255
255
255
255
255
255
255
255
255
255
255
255
255
255
255
255
255
255
255
255
255
255
255
255
255
255
255
255
255
255
255
255
255
255
255
255
255
255
255
255
255
255
255
255
255
255
255
255
255
255
255
255
255
255
255
255
255
255
255
255
255
255
255
255
255
255
255
255
255
255
255
255
255
255
255
255
255
255
255
255
255
255
255
255
255
255
255
255
255
255
255
255
255
255
255
255
255
255
255
255
255
255
255
255
255
255
255
255
255
255
255
255
255
255
255
255
255
255
255
255
255
255
255
255
255
255
255
255
255
255
255
255
255
255
255
255
255
255
255
255
255
255
255
255
255
255
255
255
255
255
255
255
255
255
255
255
255
255
255
255
255
255
255
255
255
255
255
255
255
255
255
255
255
255
255
255
255
255
255
255
255
255
255
255
255
255
255
255
255
254
237
234
253
255
255
255
255
255
255
255
255
255
255
255
255
255
255
255
255
255
255
255
255
255
255
255
255
255
255
255
255
255
255
255
255
255
255
255
255
255
255
255
255
255
255
255
255
255
255
255
255
255
255
255
255
255
255
255
255
255
255
255
255
255
255
255
255
255
255
255
255
255
255
255
255
255
255
255
255
255
255
255
255
255
255
255
255
255
255
255
255
255
255
255
255
255
255
255
255
255
255
255
255
255
255
255
255
255
255
255
255
255
255
255
255
255
255
255
255
255
255
255
255
255
255
255
255
255
255
255
255
255
255
255
255
255
255
255
255
255
255
255
255
255
255
255
255
255
255
255
255
255
255
255
255
255
255
255
255
255
255
255
255
255
255
255
255
255
255
255
255
255
255
255
255
255
255
255
255
255
255
255
255
255
255
255
255
255
255
255
255
255
255
255
255
255
255
255
255
255
255
255
255
255
255
255
255
255
255
255
255
255
255
255
255
255
255
255
255
255
255
255
255
255
255
255
255
255
255
255
255
255
255
255
255
255
255
255
255
255
255
255
255
255
255
255
255
255
255
255
255
255
255
255
255
255
254
235
240
254
255
255
255
255
255
255
255
255
255
255
255
255
255
255
255
255
255
255
255
255
255
255
255
255
255
255
255
255
255
255
255
255
255
255
255
255
255
255
255
255
255
255
255
255
255
255
255
255
255
255
255
255
255
255
255
255
255
255
255
255
255
255
255
255
255
255
255
255
255
255
255
255
255
255
255
255
255
255
255
255
255
255
255
255
255
255
255
255
255
255
255
255
255
255
255
255
255
255
255
255
255
255
255
255
255
255
255
255
255
255
255
255
255
255
255
255
255
255
255
255
255
255
255
255
255
255
255
255
255
255
255
255
255
255
255
255
255
255
255
255
255
255
255
255
255
255
255
255
255
255
255
255
255
255
255
255
255
255
255
255
255
255
255
255
255
255
255
255
255
255
255
255
255
255
255
255
255
255
255
255
255
255
255
255
255
255
255
255
255
255
255
255
255
255
255
255
255
255
255
255
255
255
255
255
255
255
255
255
255
255
255
255
255
255
255
255
255
255
255
255
255
255
255
255
255
255
255
255
255
255
255
255
255
255
255
255
255
255
255
255
255
255
255
255
255
255
255
255
255
255
255
255
255
253
230
246
254
254
255
255
255
255
255
255
255
255
255
255
255
255
255
255
255
255
255
255
255
255
255
255
255
255
255
255
255
255
255
255
255
255
255
255
255
255
255
255
255
255
255
255
255
255
255
255
255
255
255
255
255
255
255
255
255
255
255
255
255
255
255
255
255
255
255
255
255
255
255
255
255
255
255
255
255
255
255
255
255
255
255
255
255
255
255
255
255
255
255
255
255
255
255
255
255
255
255
255
255
255
255
255
255
255
255
255
255
255
255
255
255
255
255
255
255
255
255
255
255
255
255
255
255
255
255
255
255
255
255
255
255
255
255
255
255
255
255
255
255
255
255
255
255
255
255
255
255
255
255
255
255
255
255
255
255
255
255
255
255
255
255
255
255
255
255
255
255
255
255
255
255
255
255
255
255
255
255
255
255
255
255
255
255
255
255
255
255
255
255
255
255
255
255
255
255
255
255
255
255
255
255
255
255
255
255
255
255
255
255
255
255
255
255
255
255
255
255
255
255
255
255
255
255
255
255
255
255
255
255
255
255
255
255
255
255
255
255
255
255
255
255
255
255
255
255
255
255
255
255
255
255
254
252
230
244
254
255
255
255
255
255
255
255
255
255
255
255
255
255
255
255
255
255
255
255
255
255
255
255
255
255
255
255
255
255
255
255
255
255
255
255
255
255
255
255
255
255
255
255
255
255
255
255
255
255
255
255
255
255
255
255
255
255
255
255
255
255
255
255
255
255
255
255
255
255
255
255
255
255
255
255
255
255
255
255
255
255
255
255
255
255
255
255
255
255
255
255
255
255
255
255
255
255
255
255
255
255
255
255
255
255
255
255
255
255
255
255
255
255
255
255
255
255
255
255
255
255
255
255
255
255
255
255
255
255
255
255
255
255
255
255
255
255
255
255
255
255
255
255
255
255
255
255
255
255
255
255
255
255
255
255
255
255
255
255
255
255
255
255
255
255
255
255
255
255
255
255
255
255
255
255
255
255
255
255
255
255
255
255
255
255
255
255
255
255
255
255
255
255
255
255
255
255
255
255
255
255
255
255
255
255
255
255
255
255
255
255
255
255
255
255
255
255
255
255
255
255
255
255
255
255
255
255
255
255
255
255
255
255
255
255
255
255
255
255
255
255
255
255
255
255
255
255
255
255
255
255
255
255
253
233
244
254
255
255
255
255
255
255
255
255
255
255
255
255
255
255
255
255
255
255
255
255
255
255
255
255
255
255
255
255
255
255
255
255
255
255
255
255
255
255
255
255
255
255
255
255
255
255
255
255
255
255
255
255
255
255
255
255
255
255
255
255
255
255
255
255
255
255
255
255
255
255
255
255
255
255
255
255
255
255
255
255
255
255
255
255
255
255
255
255
255
255
255
255
255
255
255
255
255
255
255
255
255
255
255
255
255
255
255
255
255
255
255
255
255
255
255
255
255
255
255
255
255
255
255
255
255
255
255
255
255
255
255
255
255
255
255
255
255
255
255
255
255
255
255
255
255
255
255
255
255
255
255
255
255
255
255
255
255
255
255
255
255
255
255
255
255
255
255
255
255
255
255
255
255
255
255
255
255
255
255
255
255
255
255
255
255
255
255
255
255
255
255
255
255
255
255
255
255
255
255
255
255
255
255
255
255
255
255
255
255
255
255
255
255
255
255
255
255
255
255
255
255
255
255
255
255
255
255
255
255
255
255
255
255
255
255
255
255
255
255
255
255
255
255
255
255
255
255
255
255
255
255
255
255
254
230
247
254
255
255
255
255
255
255
255
255
255
255
255
255
255
255
255
255
255
255
255
255
255
255
255
255
255
255
255
255
255
255
255
255
255
255
255
255
255
255
255
255
255
255
255
255
255
255
255
255
255
255
255
255
255
255
255
255
255
255
255
255
255
255
255
255
255
255
255
255
255
255
255
255
255
255
255
255
255
255
255
255
255
255
255
255
255
255
255
255
255
255
255
255
255
255
255
255
255
255
255
255
255
255
255
255
255
255
255
255
255
255
255
255
255
255
255
255
255
255
255
255
255
255
255
255
255
255
255
255
255
255
255
255
255
255
255
255
255
255
255
255
255
255
255
255
255
255
255
255
255
255
255
255
255
255
255
255
255
255
255
255
255
255
255
255
255
255
255
255
255
255
255
255
255
255
255
255
255
255
255
255
255
255
255
255
255
255
255
255
255
255
255
255
255
255
255
255
255
255
255
255
255
255
255
255
255
255
255
255
255
255
255
255
255
255
255
255
255
255
255
255
255
255
255
255
255
255
255
255
255
255
255
255
255
255
255
255
255
255
255
255
255
255
255
255
255
255
255
255
255
255
255
255
255
252
228
251
254
255
255
255
255
255
255
255
255
255
255
255
255
255
255
255
255
255
255
255
255
255
255
255
255
255
255
255
255
255
255
255
255
255
255
255
255
255
255
255
255
255
255
255
255
255
255
255
255
255
255
255
255
255
255
255
255
255
255
255
255
255
255
255
255
255
255
255
255
255
255
255
255
255
255
255
255
255
255
255
255
255
255
255
255
255
255
255
255
255
255
255
255
255
255
255
255
255
255
255
255
255
255
255
255
255
255
255
255
255
255
255
255
255
255
255
255
255
255
255
255
255
255
255
255
255
255
255
255
255
255
255
255
255
255
255
255
255
255
255
255
255
255
255
255
255
255
255
255
255
255
255
255
255
255
255
255
255
255
255
255
255
255
255
255
255
255
255
255
255
255
255
255
255
255
255
255
255
255
255
255
255
255
255
255
255
255
255
255
255
255
255
255
255
255
255
255
255
255
255
255
255
255
255
255
255
255
255
255
255
255
255
255
255
255
255
255
255
255
255
255
255
255
255
255
255
255
255
255
255
255
255
255
255
255
255
255
255
255
255
255
255
255
255
255
255
255
255
255
255
255
255
255
254
250
229
252
255
255
255
255
255
255
255
255
255
255
255
255
255
255
255
255
255
255
255
255
255
255
255
255
255
255
255
255
255
255
255
255
255
255
255
255
255
255
255
255
255
255
255
255
255
255
255
255
255
255
255
255
255
255
255
255
255
255
255
255
255
255
255
255
255
255
255
255
255
255
255
255
255
255
255
255
255
255
255
255
255
255
255
255
255
255
255
255
255
255
255
255
255
255
255
255
255
255
255
255
255
255
255
255
255
255
255
255
255
255
255
255
255
255
255
255
255
255
255
255
255
255
255
255
255
255
255
255
255
255
255
255
255
255
255
255
255
255
255
255
255
255
255
255
255
255
255
255
255
255
255
255
255
255
255
255
255
255
255
255
255
255
255
255
255
255
255
255
255
255
255
255
255
255
255
255
255
255
255
255
255
255
255
255
255
255
255
255
255
255
255
255
255
255
255
255
255
255
255
255
255
255
255
255
255
255
255
255
255
255
255
255
255
255
255
255
255
255
255
255
255
255
255
255
255
255
255
255
255
255
255
255
255
255
255
255
255
255
255
255
255
255
255
255
255
255
255
255
255
255
255
255
255
254
248
229
252
255
255
255
255
255
255
255
255
255
255
255
255
255
255
255
255
255
255
255
255
255
255
255
255
255
255
255
255
255
255
255
255
255
255
255
255
255
255
255
255
255
255
255
255
255
255
255
255
255
255
255
255
255
255
255
255
255
255
255
255
255
255
255
255
255
255
255
255
255
255
255
255
255
255
255
255
255
255
255
255
255
255
255
255
255
255
255
255
255
255
255
255
255
255
255
255
255
255
255
255
255
255
255
255
255
255
255
255
255
255
255
255
255
255
255
255
255
255
255
255
255
255
255
255
255
255
255
255
255
255
255
255
255
255
255
255
255
255
255
255
255
255
255
255
255
255
255
255
255
255
255
255
255
255
255
255
255
255
255
255
255
255
255
255
255
255
255
255
255
255
255
255
255
255
255
255
255
255
255
255
255
255
255
255
255
255
255
255
255
255
255
255
255
255
255
255
255
255
255
255
255
255
255
255
255
255
255
255
255
255
255
255
255
255
255
255
255
255
255
255
255
255
255
255
255
255
255
255
255
255
255
255
255
255
255
255
255
255
255
255
255
255
255
255
255
255
255
255
255
255
255
255
255
255
249
230
252
255
255
255
255
255
255
255
255
255
255
255
255
255
255
255
255
255
255
255
255
255
255
255
255
255
255
255
255
255
255
255
255
255
255
255
255
255
255
255
255
255
255
255
255
255
255
255
255
255
255
255
255
255
255
255
255
255
255
255
255
255
255
255
255
255
255
255
255
255
255
255
255
255
255
255
255
255
255
255
255
255
255
255
255
255
255
255
255
255
255
255
255
255
255
255
255
255
255
255
255
255
255
255
255
255
255
255
255
255
255
255
255
255
255
255
255
255
255
255
255
255
255
255
255
255
255
255
255
255
255
255
255
255
255
255
255
255
255
255
255
255
255
255
255
255
255
255
255
255
255
255
255
255
255
255
255
255
255
255
255
255
255
255
255
255
255
255
255
255
255
255
255
255
255
255
255
255
255
255
255
255
255
255
255
255
255
255
255
255
255
255
255
255
255
255
255
255
255
255
255
255
255
255
255
255
255
255
255
255
255
255
255
255
255
255
255
255
255
255
255
255
255
255
255
255
255
255
255
255
255
255
255
255
255
255
255
255
255
255
255
255
255
255
255
255
255
255
255
255
255
255
255
255
254
248
235
253
254
255
255
255
255
255
255
255
255
255
255
255
255
255
255
255
255
255
255
255
255
255
255
255
255
255
255
255
255
255
255
255
255
255
255
255
255
255
255
255
255
255
255
255
255
255
255
255
255
255
255
255
255
255
255
255
255
255
255
255
255
255
255
255
255
255
255
255
255
255
255
255
255
255
255
255
255
255
255
255
255
255
255
255
255
255
255
255
255
255
255
255
255
255
255
255
255
255
255
255
255
255
255
255
255
255
255
255
255
255
255
255
255
255
255
255
255
255
255
255
255
255
255
255
255
255
255
255
255
255
255
255
255
255
255
255
255
255
255
255
255
255
255
255
255
255
255
255
255
255
255
255
255
255
255
255
255
255
255
255
255
255
255
255
255
255
255
255
255
255
255
255
255
255
255
255
255
255
255
255
255
255
255
255
255
255
255
255
255
255
255
255
255
255
255
255
255
255
255
255
255
255
255
255
255
255
255
255
255
255
255
255
255
255
255
255
255
255
255
255
255
255
255
255
255
255
255
255
255
255
255
255
255
255
255
255
255
255
255
255
255
255
255
255
255
255
255
255
255
255
255
255
255
254
245
239
254
255
255
255
255
255
255
255
255
255
255
255
255
255
255
255
255
255
255
255
255
255
255
255
255
255
255
255
255
255
255
255
255
255
255
255
255
255
255
255
255
255
255
255
255
255
255
255
255
255
255
255
255
255
255
255
255
255
255
255
255
255
255
255
255
255
255
255
255
255
255
255
255
255
255
255
255
255
255
255
255
255
255
255
255
255
255
255
255
255
255
255
255
255
255
255
255
255
255
255
255
255
255
255
255
255
255
255
255
255
255
255
255
255
255
255
255
255
255
255
255
255
255
255
255
255
255
255
255
255
255
255
255
255
255
255
255
255
255
255
255
255
255
255
255
255
255
255
255
255
255
255
255
255
255
255
255
255
255
255
255
255
255
255
255
255
255
255
255
255
255
255
255
255
255
255
255
255
255
255
255
255
255
255
255
255
255
255
255
255
255
255
255
255
255
255
255
255
255
255
255
255
255
255
255
255
255
255
255
255
255
255
255
255
255
255
255
255
255
255
255
255
255
255
255
255
255
255
255
255
255
255
255
255
255
255
255
255
255
255
255
255
255
255
255
255
255
255
255
255
255
255
255
255
255
244
238
253
255
255
255
255
255
255
255
255
255
255
255
255
255
255
255
255
255
255
255
255
255
255
255
255
255
255
255
255
255
255
255
255
255
255
255
255
255
255
255
255
255
255
255
255
255
255
255
255
255
255
255
255
255
255
255
255
255
255
255
255
255
255
255
255
255
255
255
255
255
255
255
255
255
255
255
255
255
255
255
255
255
255
255
255
255
255
255
255
255
255
255
255
255
255
255
255
255
255
255
255
255
255
255
255
255
255
255
255
255
255
255
255
255
255
255
255
255
255
255
255
255
255
255
255
255
255
255
255
255
255
255
255
255
255
255
255
255
255
255
255
255
255
255
255
255
255
255
255
255
255
255
255
255
255
255
255
255
255
255
255
255
255
255
255
255
255
255
255
255
255
255
255
255
255
255
255
255
255
255
255
255
255
255
255
255
255
255
255
255
255
255
255
255
255
255
255
255
255
255
255
255
255
255
255
255
255
255
255
255
255
255
255
255
255
255
255
255
255
255
255
255
255
255
255
255
255
255
255
255
255
255
255
255
255
255
255
255
255
255
255
255
255
255
255
255
255
255
255
255
255
255
255
255
255
247
236
253
255
255
255
255
255
255
255
255
255
255
255
255
255
255
255
255
255
255
255
255
255
255
255
255
255
255
255
255
255
255
255
255
255
255
255
255
255
255
255
255
255
255
255
255
255
255
255
255
255
255
255
255
255
255
255
255
255
255
255
255
255
255
255
255
255
255
255
255
255
255
255
255
255
255
255
255
255
255
255
255
255
255
255
255
255
255
255
255
255
255
255
255
255
255
255
255
255
255
255
255
255
255
255
255
255
255
255
255
255
255
255
255
255
255
255
255
255
255
255
255
255
255
255
255
255
255
255
255
255
255
255
255
255
255
255
255
255
255
255
255
255
255
255
255
255
255
255
255
255
255
255
255
255
255
255
255
255
255
255
255
255
255
255
255
255
255
255
255
255
255
255
255
255
255
255
255
255
255
255
255
255
255
255
255
255
255
255
255
255
255
255
255
255
255
255
255
255
255
255
255
255
255
255
255
255
255
255
255
255
255
255
255
255
255
255
255
255
255
255
255
255
255
255
255
255
255
255
255
255
255
255
255
255
255
255
255
255
255
255
255
255
255
255
255
255
255
255
255
255
255
255
255
255
254
246
237
252
255
255
255
255
255
255
255
255
255
255
255
255
255
255
255
255
255
255
255
255
255
255
255
255
255
255
255
255
255
255
255
255
255
255
255
255
255
255
255
255
255
255
255
255
255
255
255
255
255
255
255
255
255
255
255
255
255
255
255
255
255
255
255
255
255
255
255
255
255
255
255
255
255
255
255
255
255
255
255
255
255
255
255
255
255
255
255
255
255
255
255
255
255
255
255
255
255
255
255
255
255
255
255
255
255
255
255
255
255
255
255
255
255
255
255
255
255
255
255
255
255
255
255
255
255
255
255
255
255
255
255
255
255
255
255
255
255
255
255
255
255
255
255
255
255
255
255
255
255
255
255
255
255
255
255
255
255
255
255
255
255
255
255
255
255
255
255
255
255
255
255
255
255
255
255
255
255
255
255
255
255
255
255
255
255
255
255
255
255
255
255
255
255
255
255
255
255
255
255
255
255
255
255
255
255
255
255
255
255
255
255
255
255
255
255
255
255
255
255
255
255
255
255
255
255
255
255
255
255
255
255
255
255
255
255
255
255
255
255
255
255
255
255
255
255
255
255
255
255
255
255
255
255
254
249
237
253
255
255
255
255
255
255
255
255
255
255
255
255
255
255
255
255
255
255
255
255
255
255
255
255
255
255
255
255
255
255
255
255
255
255
255
255
255
255
255
255
255
255
255
255
255
255
255
255
255
255
255
255
255
255
255
255
255
255
255
255
255
255
255
255
255
255
255
255
255
255
255
255
255
255
255
255
255
255
255
255
255
255
255
255
255
255
255
255
255
255
255
255
255
255
255
255
255
255
255
255
255
255
255
255
255
255
255
255
255
255
255
255
255
255
255
255
255
255
255
255
255
255
255
255
255
255
255
255
255
255
255
255
255
255
255
255
255
255
255
255
255
255
255
255
255
255
255
255
255
255
255
255
255
255
255
255
255
255
255
255
255
255
255
255
255
255
255
255
255
255
255
255
255
255
255
255
255
255
255
255
255
255
255
255
255
255
255
255
255
255
255
255
255
255
255
255
255
255
255
255
255
255
255
255
255
255
255
255
255
255
255
255
255
255
255
255
255
255
255
255
255
255
255
255
255
255
255
255
255
255
255
255
255
255
255
255
255
255
255
255
255
255
255
255
255
255
255
255
255
255
255
255
255
255
244
244
254
255
255
255
255
255
255
255
255
255
255
255
255
255
255
255
255
255
255
255
255
255
255
255
255
255
255
255
255
255
255
255
255
255
255
255
255
255
255
255
255
255
255
255
255
255
255
255
255
255
255
255
255
255
255
255
255
255
255
255
255
255
255
255
255
255
255
255
255
255
255
255
255
255
255
255
255
255
255
255
255
255
255
255
255
255
255
255
255
255
255
255
255
255
255
255
255
255
255
255
255
255
255
255
255
255
255
255
255
255
255
255
255
255
255
255
255
255
255
255
255
255
255
255
255
255
255
255
255
255
255
255
255
255
255
255
255
255
255
255
255
255
255
255
255
255
255
255
255
255
255
255
255
255
255
255
255
255
255
255
255
255
255
255
255
255
255
255
255
255
255
255
255
255
255
255
255
255
255
255
255
255
255
255
255
255
255
255
255
255
255
255
255
255
255
255
255
255
255
255
255
255
255
255
255
255
255
255
255
255
255
255
255
255
255
255
255
255
255
255
255
255
255
255
255
255
255
255
255
255
255
255
255
255
255
255
255
255
255
255
255
255
255
255
255
255
255
255
255
255
255
255
255
255
254
241
247
254
255
255
255
255
255
255
255
255
255
255
255
255
255
255
255
255
255
255
255
255
255
255
255
255
255
255
255
255
255
255
255
255
255
255
255
255
255
255
255
255
255
255
255
255
255
255
255
255
255
255
255
255
255
255
255
255
255
255
255
255
255
255
255
255
255
255
255
255
255
255
255
255
255
255
255
255
255
255
255
255
255
255
255
255
255
255
255
255
255
255
255
255
255
255
255
255
255
255
255
255
255
255
255
255
255
255
255
255
255
255
255
255
255
255
255
255
255
255
255
255
255
255
255
255
255
255
255
255
255
255
255
255
255
255
255
255
255
255
255
255
255
255
255
255
255
255
255
255
255
255
255
255
255
255
255
255
255
255
255
255
255
255
255
255
255
255
255
255
255
255
255
255
255
255
255
255
255
255
255
255
255
255
255
255
255
255
255
255
255
255
255
255
255
255
255
255
255
255
255
255
255
255
255
255
255
255
255
255
255
255
255
255
255
255
255
255
255
255
255
255
255
255
255
255
255
255
255
255
255
255
255
255
255
255
255
255
255
255
255
255
255
255
255
255
255
255
255
255
255
255
255
255
255
254
240
248
254
255
255
255
255
255
255
255
255
255
255
255
255
255
255
255
255
255
255
255
255
255
255
255
255
255
255
255
255
255
255
255
255
255
255
255
255
255
255
255
255
255
255
255
255
255
255
255
255
255
255
255
255
255
255
255
255
255
255
255
255
255
255
255
255
255
255
255
255
255
255
255
255
255
255
255
255
255
255
255
255
255
255
255
255
255
255
255
255
255
255
255
255
255
255
255
255
255
255
255
255
255
255
255
255
255
255
255
255
255
255
255
255
255
255
255
255
255
255
255
255
255
255
255
255
255
255
255
255
255
255
255
255
255
255
255
255
255
255
255
255
255
255
255
255
255
255
255
255
255
255
255
255
255
255
255
255
255
255
255
255
255
255
255
255
255
255
255
255
255
255
255
255
255
255
255
255
255
255
255
255
255
255
255
255
255
255
255
255
255
255
255
255
255
255
255
255
255
255
255
255
255
255
255
255
255
255
255
255
255
255
255
255
255
255
255
255
255
255
255
255
255
255
255
255
255
255
255
255
255
255
255
255
255
255
255
255
255
255
255
255
255
255
255
255
255
255
255
255
255
255
255
255
255
252
238
252
255
255
255
255
255
255
255
255
255
255
255
255
255
255
255
255
255
255
255
255
255
255
255
255
255
255
255
255
255
255
255
255
255
255
255
255
255
255
255
255
255
255
255
255
255
255
255
255
255
255
255
255
255
255
255
255
255
255
255
255
255
255
255
255
255
255
255
255
255
255
255
255
255
255
255
255
255
255
255
255
255
255
255
255
255
255
255
255
255
255
255
255
255
255
255
255
255
255
255
255
255
255
255
255
255
255
255
255
255
255
255
255
255
255
255
255
255
255
255
255
255
255
255
255
255
255
255
255
255
255
255
255
255
255
255
255
255
255
255
255
255
255
255
255
255
255
255
255
255
255
255
255
255
255
255
255
255
255
255
255
255
255
255
255
255
255
255
255
255
255
255
255
255
255
255
255
255
255
255
255
255
255
255
255
255
255
255
255
255
255
255
255
255
255
255
255
255
255
255
255
255
255
255
255
255
255
255
255
255
255
255
255
255
255
255
255
255
255
255
255
255
255
255
255
255
255
255
255
255
255
255
255
255
255
255
255
255
255
255
255
255
255
255
255
255
255
255
255
255
255
255
255
255
254
251
241
254
255
255
255
255
255
255
255
255
255
255
255
255
255
255
255
255
255
255
255
255
255
255
255
255
255
255
255
255
255
255
255
255
255
255
255
255
255
255
255
255
255
255
255
255
255
255
255
255
255
255
255
255
255
255
255
255
255
255
255
255
255
255
255
255
255
255
255
255
255
255
255
255
255
255
255
255
255
255
255
255
255
255
255
255
255
255
255
255
255
255
255
255
255
255
255
255
255
255
255
255
255
255
255
255
255
255
255
255
255
255
255
255
255
255
255
255
255
255
255
255
255
255
255
255
255
255
255
255
255
255
255
255
255
255
255
255
255
255
255
255
255
255
255
255
255
255
255
255
255
255
255
255
255
255
255
255
255
255
255
255
255
255
255
255
255
255
255
255
255
255
255
255
255
255
255
255
255
255
255
255
255
255
255
255
255
255
255
255
255
255
255
255
255
255
255
255
255
255
255
255
255
255
255
255
255
255
255
255
255
255
255
255
255
255
255
255
255
255
255
255
255
255
255
255
255
255
255
255
255
255
255
255
255
255
255
255
255
255
255
255
255
255
255
255
255
255
255
255
255
255
255
255
255
255
245
248
255
255
255
255
255
255
255
255
255
255
255
255
255
255
255
255
255
255
255
255
255
255
255
255
255
255
255
255
255
255
255
255
255
255
255
255
255
255
255
255
255
255
255
255
255
255
255
255
255
255
255
255
255
255
255
255
255
255
255
255
255
255
255
255
255
255
255
255
255
255
255
255
255
255
255
255
255
255
255
255
255
255
255
255
255
255
255
255
255
255
255
255
255
255
255
255
255
255
255
255
255
255
255
255
255
255
255
255
255
255
255
255
255
255
255
255
255
255
255
255
255
255
255
255
255
255
255
255
255
255
255
255
255
255
255
255
255
255
255
255
255
255
255
255
255
255
255
255
255
255
255
255
255
255
255
255
255
255
255
255
255
255
255
255
255
255
255
255
255
255
255
255
255
255
255
255
255
255
255
255
255
255
255
255
255
255
255
255
255
255
255
255
255
255
255
255
255
255
255
255
255
255
255
255
255
255
255
255
255
255
255
255
255
255
255
255
255
255
255
255
255
255
255
255
255
255
255
255
255
255
255
255
255
255
255
255
255
255
255
255
255
255
255
255
255
255
255
255
255
255
255
255
255
255
254
242
255
255
255
255
255
255
255
255
255
255
255
255
255
255
255
255
255
255
255
255
255
255
255
255
255
255
255
255
255
255
255
255
255
255
255
255
255
255
255
255
255
255
255
255
255
255
255
255
255
255
255
255
255
255
255
255
255
255
255
255
255
255
255
255
255
255
255
255
255
255
255
255
255
255
255
255
255
255
255
255
255
255
255
255
255
255
255
255
255
255
255
255
255
255
255
255
255
255
255
255
255
255
255
255
255
255
255
255
255
255
255
255
255
255
255
255
255
255
255
255
255
255
255
255
255
255
255
255
255
255
255
255
255
255
255
255
255
255
255
255
255
255
255
255
255
255
255
255
255
255
255
255
255
255
255
255
255
255
255
255
255
255
255
255
255
255
255
255
255
255
255
255
255
255
255
255
255
255
255
255
255
255
255
255
255
255
255
255
255
255
255
255
255
255
255
255
255
255
255
255
255
255
255
255
255
255
255
255
255
255
255
255
255
255
255
255
255
255
255
255
255
255
255
255
255
255
255
255
255
255
255
255
255
255
255
255
255
255
255
255
255
255
255
255
255
255
255
255
255
255
255
255
255
255
255
247
250
254
255
255
255
255
255
255
255
255
255
255
255
255
255
255
255
255
255
255
255
255
255
255
255
255
255
255
255
255
255
255
255
255
255
255
255
255
255
255
255
255
255
255
255
255
255
255
255
255
255
255
255
255
255
255
255
255
255
255
255
255
255
255
255
255
255
255
255
255
255
255
255
255
255
255
255
255
255
255
255
255
255
255
255
255
255
255
255
255
255
255
255
255
255
255
255
255
255
255
255
255
255
255
255
255
255
255
255
255
255
255
255
255
255
255
255
255
255
255
255
255
255
255
255
255
255
255
255
255
255
255
255
255
255
255
255
255
255
255
255
255
255
255
255
255
255
255
255
255
255
255
255
255
255
255
255
255
255
255
255
255
255
255
255
255
255
255
255
255
255
255
255
255
255
255
255
255
255
255
255
255
255
255
255
255
255
255
255
255
255
255
255
255
255
255
255
255
255
255
255
255
255
255
255
255
255
255
255
255
255
255
255
255
255
255
255
255
255
255
255
255
255
255
255
255
255
255
255
255
255
255
255
255
255
255
255
255
255
255
255
255
255
255
255
255
255
255
255
255
255
255
255
255
255
255
246
249
254
255
255
255
255
255
255
255
255
255
255
255
255
255
255
255
255
255
255
255
255
255
255
255
255
255
255
255
255
255
255
255
255
255
255
255
255
255
255
255
255
255
255
255
255
255
255
255
255
255
255
255
255
255
255
255
255
255
255
255
255
255
255
255
255
255
255
255
255
255
255
255
255
255
255
255
255
255
255
255
255
255
255
255
255
255
255
255
255
255
255
255
255
255
255
255
255
255
255
255
255
255
255
255
255
255
255
255
255
255
255
255
255
255
255
255
255
255
255
255
255
255
255
255
255
255
255
255
255
255
255
255
255
255
255
255
255
255
255
255
255
255
255
255
255
255
255
255
255
255
255
255
255
255
255
255
255
255
255
255
255
255
255
255
255
255
255
255
255
255
255
255
255
255
255
255
255
255
255
255
255
255
255
255
255
255
255
255
255
255
255
255
255
255
255
255
255
255
255
255
255
255
255
255
255
255
255
255
255
255
255
255
255
255
255
255
255
255
255
255
255
255
255
255
255
255
255
255
255
255
255
255
255
255
255
255
255
255
255
255
255
255
255
255
255
255
255
255
255
255
255
255
255
255
253
245
249
254
255
255
255
255
255
255
255
255
255
255
255
255
255
255
255
255
255
255
255
255
255
255
255
255
255
255
255
255
255
255
255
255
255
255
255
255
255
255
255
255
255
255
255
255
255
255
255
255
255
255
255
255
255
255
255
255
255
255
255
255
255
255
255
255
255
255
255
255
255
255
255
255
255
255
255
255
255
255
255
255
255
255
255
255
255
255
255
255
255
255
255
255
255
255
255
255
255
255
255
255
255
255
255
255
255
254
254
255
255
255
255
255
255
255
255
255
255
255
255
255
255
255
255
255
255
255
255
255
255
255
255
255
255
255
255
255
255
255
255
255
255
255
255
255
255
255
255
255
255
255
255
255
255
255
255
255
255
255
255
255
255
255
255
255
255
255
255
255
255
255
255
255
255
255
255
255
255
255
255
255
255
255
255
255
255
255
255
255
255
255
255
255
255
255
255
255
255
255
255
255
255
255
255
255
255
255
255
255
255
255
255
255
255
255
255
255
255
255
255
255
255
255
255
255
255
255
255
255
255
255
255
255
255
255
255
255
255
255
255
255
255
255
255
255
255
255
255
255
255
255
255
255
255
254
245
249
254
255
255
255
255
255
255
255
255
255
255
255
255
255
255
255
255
255
255
255
255
255
255
255
255
255
255
255
255
255
255
255
255
255
255
255
255
255
255
255
255
255
255
255
255
255
255
255
255
255
255
255
255
255
255
255
255
255
255
255
255
255
255
255
255
255
255
255
255
255
255
255
255
255
255
255
255
255
255
255
255
255
255
255
255
255
255
255
255
255
255
254
254
244
229
222
233
250
254
254
254
254
253
242
223
217
239
236
241
251
254
255
255
255
255
255
255
255
255
255
255
255
255
255
255
255
255
255
255
255
255
255
255
255
255
255
255
255
255
255
255
255
255
255
255
255
255
255
255
255
255
255
255
255
255
255
255
255
255
255
255
255
255
255
255
255
255
255
255
255
255
255
255
255
255
255
255
255
255
255
255
255
255
255
255
255
255
255
255
255
255
255
255
255
255
255
255
255
255
255
255
255
255
255
255
255
255
255
255
255
255
255
255
255
255
255
255
255
255
255
255
255
255
255
255
255
255
255
255
255
255
255
255
255
255
255
255
255
255
255
255
255
255
255
255
255
255
255
255
255
255
255
255
255
254
247
246
254
255
255
255
255
255
255
255
255
255
255
255
255
255
255
255
255
255
255
255
255
255
255
255
255
255
255
255
255
255
255
255
255
255
255
255
255
255
255
255
255
255
255
255
255
255
255
255
255
255
255
255
255
255
255
255
255
255
255
255
255
255
255
255
255
255
255
255
255
255
255
255
255
255
255
255
255
255
255
255
255
255
255
255
255
255
255
255
255
254
250
232
204
195
178
173
175
194
205
205
215
201
170
173
228
215
185
186
209
227
249
255
255
255
255
255
255
255
255
255
255
255
255
255
255
255
255
255
255
255
255
255
255
255
255
255
255
255
255
255
255
255
255
255
255
255
255
255
255
255
255
255
255
255
255
255
255
255
255
255
255
255
255
255
255
255
255
255
255
255
255
255
255
255
255
255
255
255
255
255
255
255
255
255
255
255
255
255
255
255
255
255
255
255
255
255
255
255
255
255
255
255
255
255
255
255
255
255
255
255
255
255
255
255
255
255
255
255
255
255
255
255
255
255
255
255
255
255
255
255
255
255
255
255
255
255
255
255
255
255
255
255
255
255
255
255
255
255
255
255
255
255
255
255
254
250
244
251
254
255
255
255
255
255
255
255
255
255
255
255
255
255
255
255
255
255
255
255
255
255
255
255
255
255
255
255
255
255
255
255
255
255
255
255
255
255
255
255
255
255
255
255
255
255
255
255
255
255
255
255
255
255
255
255
255
255
255
255
255
255
255
255
255
255
255
255
255
255
255
255
255
255
255
255
255
255
255
255
255
255
255
254
253
253
250
231
200
185
176
170
170
172
173
172
176
183
173
151
153
181
195
168
159
192
244
253
254
255
255
255
255
255
255
255
255
255
255
255
255
255
255
255
255
255
255
255
255
255
255
255
255
255
255
255
255
255
255
255
255
255
255
255
255
255
255
255
255
255
255
255
255
255
255
255
255
255
255
255
255
255
255
255
255
255
255
255
255
255
255
255
255
255
255
255
255
255
255
255
255
255
255
255
255
255
255
255
255
255
255
255
255
255
255
255
255
255
255
255
255
255
255
255
255
255
255
255
255
255
255
255
255
255
255
255
255
255
255
255
255
255
255
255
255
255
255
255
255
255
255
255
255
255
255
255
255
255
255
255
255
255
255
255
255
255
255
255
255
255
255
255
255
255
253
246
246
253
254
255
255
255
255
255
255
255
255
255
255
255
255
255
255
255
255
255
255
255
255
255
255
255
255
255
255
255
255
255
255
255
255
255
255
255
255
255
255
255
255
255
255
255
255
255
255
255
255
255
255
255
255
255
255
255
255
255
255
255
255
255
255
255
255
255
255
255
255
255
255
255
255
255
255
255
255
255
255
255
253
246
225
210
193
180
180
182
169
150
159
165
163
162
164
159
150
141
154
171
179
166
146
181
233
252
254
255
255
255
255
255
255
255
255
255
255
255
255
255
255
255
255
255
255
255
255
255
255
255
255
255
255
255
255
255
255
255
255
255
255
255
255
255
255
255
255
255
255
255
255
255
255
255
255
255
255
255
255
255
255
255
255
255
255
255
255
255
255
255
255
255
255
255
255
255
255
255
255
255
255
255
255
255
255
255
255
255
255
255
255
255
255
255
255
255
255
255
255
255
255
255
255
255
255
255
255
255
255
255
255
255
255
255
255
255
255
255
255
255
255
255
255
255
255
255
255
255
255
255
255
255
255
255
255
255
255
255
255
255
255
255
255
255
255
255
255
255
255
255
255
255
255
254
252
247
246
253
254
255
255
255
255
255
255
255
255
255
255
255
255
255
255
255
255
255
255
255
255
255
255
255
255
255
255
255
255
255
255
255
255
255
255
255
255
255
255
255
255
255
255
255
255
255
255
255
255
255
255
255
255
255
255
255
255
255
255
255
255
255
255
255
255
255
255
255
255
255
255
255
255
255
255
255
254
247
223
195
189
169
168
179
171
165
161
164
165
163
158
158
158
148
128
129
152
169
179
178
178
180
181
199
226
247
253
255
255
255
255
255
255
255
255
255
255
255
255
255
255
255
255
255
255
255
255
255
255
255
255
255
255
255
255
255
255
255
255
255
255
255
255
255
255
255
255
255
255
255
255
255
255
255
255
255
255
255
255
255
255
255
255
255
255
254
255
255
255
255
255
255
255
255
255
255
255
255
255
255
255
255
255
255
255
255
255
255
255
255
255
255
255
255
255
255
255
255
255
255
255
255
255
255
255
255
255
255
255
255
255
255
255
255
255
255
255
255
255
255
255
255
255
255
255
255
255
255
255
255
255
255
255
255
255
255
255
255
255
255
255
255
255
255
255
255
255
255
255
255
255
255
255
255
251
246
248
253
255
255
255
255
255
255
255
255
255
255
255
255
255
255
255
255
255
255
255
255
255
255
255
255
255
255
255
255
255
255
255
255
255
255
255
255
255
255
255
255
255
255
255
255
255
255
255
255
255
255
255
255
255
255
255
255
255
255
255
255
255
255
255
255
255
255
255
255
255
255
255
255
255
249
223
183
174
169
171
172
161
166
153
146
158
154
155
156
138
139
147
125
116
145
162
168
168
175
173
169
171
165
175
194
219
243
254
255
255
255
255
255
255
255
255
255
255
255
255
255
255
255
255
255
255
255
255
255
255
255
255
255
255
255
255
255
255
255
255
255
255
255
255
255
255
255
255
255
255
255
255
255
255
255
255
255
255
255
255
255
254
253
254
254
255
255
255
255
255
255
255
255
255
255
255
255
255
255
255
255
255
255
255
255
255
255
255
255
255
255
255
255
255
255
255
255
255
255
255
255
255
255
255
255
255
255
255
255
255
255
255
255
255
255
255
255
255
255
255
255
255
255
255
255
255
255
255
255
255
255
255
255
255
255
255
255
255
255
255
255
255
255
255
255
255
255
255
255
255
255
255
255
255
255
252
248
253
255
255
255
255
255
255
255
255
255
255
255
255
255
255
255
255
255
255
255
255
255
255
255
255
255
255
255
255
255
255
255
255
255
255
255
255
255
255
255
255
255
255
255
255
255
255
255
255
255
255
255
255
255
255
255
255
255
255
255
255
255
255
255
255
255
255
255
255
254
255
254
252
218
167
161
160
170
165
160
150
139
153
152
140
137
150
132
124
136
107
124
156
163
142
132
141
148
159
163
169
162
159
165
170
204
245
255
255
255
255
255
255
255
255
255
255
255
255
255
255
255
255
255
255
255
255
255
255
255
255
255
255
255
255
255
255
255
255
255
255
255
255
255
255
255
255
255
255
255
255
255
255
255
255
255
255
255
255
254
250
240
254
255
255
255
255
255
255
255
255
255
255
255
255
255
255
255
255
255
255
255
255
255
255
255
255
255
255
255
255
255
255
255
255
255
255
255
255
255
255
255
255
255
255
255
255
255
255
255
255
255
255
255
255
255
255
255
255
255
255
255
255
255
255
255
255
255
255
255
255
255
255
255
255
255
255
255
255
255
255
255
255
255
255
255
255
255
255
255
255
255
255
255
255
254
250
251
254
255
255
255
255
255
255
255
255
255
255
255
255
255
255
255
255
255
255
255
255
255
255
255
255
255
255
255
255
255
255
255
255
255
255
255
255
255
255
255
255
255
255
255
255
255
255
255
255
255
255
255
255
255
255
255
255
255
255
255
255
255
255
255
252
253
251
252
251
242
207
165
166
166
173
170
160
147
145
149
129
126
144
154
135
130
140
97
83
102
100
92
80
88
109
123
129
152
171
167
161
163
164
160
173
223
253
255
255
255
255
255
255
255
255
255
255
255
255
255
255
255
255
255
255
255
255
255
255
255
255
255
255
255
255
255
255
255
255
255
255
255
255
255
255
255
255
255
255
255
255
255
255
255
255
255
254
232
181
220
254
255
255
255
255
255
255
255
255
255
255
255
255
255
255
255
255
255
255
255
255
255
255
255
255
255
255
255
255
255
255
255
255
255
255
255
255
255
255
255
255
255
255
255
255
255
255
255
255
255
255
255
255
255
255
255
255
255
255
255
255
255
255
255
255
255
255
255
255
255
255
255
255
255
255
255
255
255
255
255
255
255
255
255
255
255
255
255
255
255
255
255
255
255
255
253
250
254
255
255
255
255
255
255
255
255
255
255
255
255
255
255
255
255
255
255
255
255
255
255
255
255
255
255
255
255
255
255
255
255
255
255
255
255
255
255
255
255
255
255
255
255
255
255
255
255
255
255
255
255
255
255
255
255
255
255
255
255
255
254
249
235
254
242
230
211
176
177
184
179
171
160
148
137
140
135
125
136
141
123
112
94
87
81
67
59
63
64
67
81
95
100
98
122
135
124
118
125
149
167
191
184
235
254
255
255
255
255
255
255
255
255
255
255
255
255
255
255
255
255
255
255
253
251
252
253
255
255
255
255
255
255
255
255
255
255
255
255
255
255
255
255
255
255
255
255
255
255
255
255
255
255
254
203
195
247
253
255
255
255
255
255
255
255
255
255
255
255
255
255
255
255
255
255
255
255
255
255
255
255
255
255
255
255
255
255
255
255
255
255
255
255
255
255
255
255
255
255
255
255
255
255
255
255
255
255
255
255
255
255
255
255
255
255
255
255
255
255
255
255
255
255
255
255
255
255
255
255
255
255
255
255
255
255
255
255
255
255
255
255
255
255
255
255
255
255
255
255
255
255
255
255
254
250
253
255
255
255
255
255
255
255
255
255
255
255
255
255
255
255
255
255
255
255
255
255
255
255
255
255
255
255
255
255
255
255
255
255
255
255
255
255
255
255
255
255
255
255
255
255
255
255
255
255
255
255
255
255
255
255
255
255
255
255
255
255
254
246
221
237
213
183
178
177
170
164
163
149
130
111
115
109
110
113
111
114
116
130
137
134
128
113
82
62
60
63
61
66
70
74
90
100
95
94
102
120
148
181
209
251
255
255
255
255
255
255
255
255
255
255
255
255
255
255
255
255
255
255
252
188
183
211
253
255
255
255
255
254
255
255
255
255
255
255
255
255
255
255
255
255
255
255
255
255
255
255
255
254
220
180
198
250
254
255
255
255
255
255
255
255
255
255
255
255
255
255
255
255
255
255
255
255
255
255
255
255
255
255
255
255
255
255
255
255
255
255
255
255
255
255
255
255
255
255
255
255
255
255
255
255
255
255
255
255
255
255
255
255
255
255
255
255
255
255
255
255
255
255
255
255
255
255
255
255
255
255
255
255
255
255
255
255
255
255
255
255
255
255
255
255
255
255
255
255
255
255
255
255
255
254
253
252
255
255
255
255
255
255
255
255
255
255
255
255
255
255
255
255
255
255
255
255
255
255
255
255
255
255
255
255
255
255
255
255
255
255
255
255
255
255
255
255
255
255
255
255
255
255
255
255
255
255
255
255
255
255
255
255
255
255
255
255
254
253
234
181
171
165
165
146
129
137
141
125
113
92
87
94
123
152
159
155
147
139
142
152
145
136
109
78
66
61
58
58
58
57
60
72
84
89
102
118
132
154
194
242
254
255
255
255
255
255
255
255
255
255
255
255
255
255
255
255
255
255
244
152
163
181
251
255
254
253
254
255
255
255
255
255
255
255
255
254
254
255
255
255
255
255
255
254
254
255
255
253
205
177
206
252
255
255
255
255
255
255
255
255
255
255
255
255
255
255
255
255
255
255
255
255
255
255
255
255
255
255
255
255
255
255
255
255
255
255
255
255
255
255
255
255
255
255
255
255
255
255
255
255
255
255
255
255
255
255
255
255
255
255
255
255
255
255
255
255
255
255
255
255
255
255
255
255
255
255
255
255
255
255
255
255
255
255
255
255
255
255
255
255
255
255
255
255
255
255
255
255
255
255
255
253
248
254
255
255
255
255
255
255
255
255
255
255
255
255
255
255
255
255
255
255
255
255
255
255
255
255
255
255
255
255
255
255
255
255
255
255
255
255
255
255
255
255
255
255
255
255
255
255
255
255
255
255
255
255
255
255
255
255
251
242
232
217
197
161
162
161
149
115
109
114
135
139
135
132
131
121
123
133
152
150
136
136
141
141
126
118
128
136
131
109
100
88
91
98
79
83
88
95
100
102
112
108
132
174
238
254
255
255
255
255
255
255
255
255
255
255
255
255
255
255
255
255
242
148
150
152
202
248
251
221
252
253
251
245
253
254
255
254
253
223
227
253
255
255
255
255
255
252
241
254
254
254
234
170
224
253
254
255
255
255
255
255
255
255
255
255
255
255
255
255
255
255
255
255
255
255
255
255
255
255
255
255
255
255
255
255
255
255
255
255
255
255
255
255
255
255
255
255
255
255
255
255
255
255
255
255
255
255
255
255
255
255
255
255
255
255
255
255
255
255
255
255
255
255
255
255
255
255
255
255
255
255
255
255
255
255
255
255
255
255
255
255
255
255
255
255
255
255
255
255
255
255
255
255
255
255
253
249
253
255
255
255
255
255
255
255
255
255
255
255
255
255
255
255
255
255
255
255
255
255
255
255
255
255
255
255
255
255
255
255
255
255
255
255
255
255
255
255
255
255
255
255
255
255
255
255
255
255
255
255
255
255
255
255
255
250
235
214
165
160
159
152
108
117
144
139
114
109
135
151
134
110
110
114
128
145
142
124
105
100
102
110
115
117
122
139
145
142
151
148
99
72
84
93
93
99
99
109
103
119
191
252
255
255
255
255
255
255
255
255
255
255
255
255
255
255
255
255
238
157
148
153
151
198
219
181
242
246
201
174
221
253
253
236
206
174
179
243
254
255
255
255
255
253
213
238
253
254
232
172
182
241
253
253
254
255
255
255
255
255
255
255
255
255
255
255
255
255
255
255
255
255
255
255
255
255
255
255
255
255
255
255
255
255
255
255
255
255
255
255
255
255
255
255
255
255
255
255
255
255
255
255
255
255
255
255
255
255
255
255
255
255
255
255
255
255
255
255
255
255
255
255
255
255
255
255
255
255
255
255
255
255
255
255
255
255
255
255
255
255
255
255
255
255
255
255
255
255
255
255
255
255
255
254
247
252
255
255
255
255
255
255
255
255
255
255
255
255
255
255
255
255
255
255
255
255
255
255
255
255
255
255
255
255
255
255
255
255
255
255
255
255
255
255
255
255
255
255
255
255
255
255
255
255
255
255
255
255
255
255
255
252
217
184
174
163
160
164
162
143
128
118
112
118
117
132
141
148
134
130
116
98
86
72
87
124
137
110
93
120
142
125
132
134
112
107
103
100
129
146
134
110
95
83
83
105
156
228
254
255
255
255
255
255
255
255
255
255
255
255
255
255
255
255
252
217
191
157
146
171
168
172
175
167
163
174
181
252
245
178
172
175
172
234
254
255
255
255
255
241
175
174
215
252
219
177
193
243
235
246
255
255
255
255
255
255
255
255
255
255
255
255
255
255
255
255
255
255
255
255
255
255
255
255
255
255
255
255
255
255
255
255
255
255
255
255
255
255
255
255
255
255
255
255
255
255
255
255
255
255
255
255
255
255
255
255
255
255
255
255
255
255
255
255
255
255
255
255
255
255
255
255
255
255
255
255
255
255
255
255
255
255
255
255
255
255
255
255
255
255
255
255
255
255
255
255
255
255
255
255
253
245
252
255
255
255
255
255
255
255
255
255
255
255
255
255
255
255
255
255
255
255
255
255
255
255
255
255
255
255
255
255
255
255
255
255
255
255
255
255
255
255
255
255
255
255
255
255
255
255
255
255
255
255
255
255
254
248
181
177
166
157
143
122
106
130
126
117
119
103
91
95
112
110
120
97
95
110
103
74
59
92
113
106
102
109
96
87
88
89
101
110
123
132
122
120
139
129
111
118
95
82
122
168
228
254
255
255
255
255
255
253
253
254
255
255
255
255
255
254
253
252
252
192
152
161
159
163
157
158
162
167
187
252
230
163
172
173
175
217
254
255
255
255
253
212
168
173
173
203
201
178
245
209
205
253
255
255
255
255
255
255
255
255
255
255
254
254
254
254
254
255
255
255
255
255
255
255
255
255
255
255
255
255
255
255
255
255
255
255
255
255
255
255
255
255
255
255
255
255
255
255
255
255
255
255
255
255
255
255
255
255
255
255
255
255
255
255
255
255
255
255
255
255
255
255
255
255
255
255
255
255
255
255
255
255
255
255
255
255
255
255
255
255
255
255
255
255
255
255
255
255
255
255
255
255
255
253
245
253
255
255
255
255
255
255
255
255
255
255
255
255
255
255
255
255
255
255
255
255
255
255
255
255
255
255
255
255
255
255
255
255
255
255
255
255
255
255
255
255
255
255
255
255
255
255
255
255
255
255
255
255
253
212
174
151
136
113
118
98
84
112
116
103
92
90
91
94
108
112
114
98
86
80
81
97
102
112
116
93
71
64
74
80
59
53
59
82
86
79
75
92
112
126
96
83
95
83
82
108
165
237
254
255
255
255
255
252
226
250
254
255
255
255
255
251
199
194
207
188
154
162
172
158
154
152
156
169
174
250
251
181
169
169
170
221
254
255
255
254
253
206
171
176
175
174
170
167
220
217
252
254
255
255
255
255
255
255
255
254
254
254
254
255
254
255
255
255
255
255
255
255
255
255
255
255
255
255
255
255
255
255
255
255
255
255
255
255
255
255
255
255
255
255
255
255
255
255
255
255
255
255
255
255
255
255
255
255
255
255
255
255
255
255
255
255
255
255
255
255
255
255
255
255
255
255
255
255
255
255
255
255
255
255
255
255
255
255
255
255
255
255
255
255
255
255
255
255
255
255
255
255
255
255
253
246
252
255
255
255
255
255
255
255
255
255
255
255
255
255
255
255
255
255
255
255
255
255
255
255
255
255
255
255
255
255
255
255
255
255
255
255
255
255
255
255
255
255
255
255
255
255
255
255
255
255
255
255
245
178
163
162
129
107
101
94
112
128
120
108
100
92
92
108
122
119
103
91
98
101
91
102
123
107
99
114
92
81
65
68
68
68
63
54
55
63
72
79
89
97
101
95
90
78
91
95
134
219
254
255
255
255
253
230
167
177
206
250
255
255
255
253
182
146
148
233
160
145
204
183
180
178
156
155
170
246
249
180
167
168
162
248
254
254
253
253
253
213
170
171
176
177
187
172
166
242
254
255
255
255
255
255
255
255
253
250
252
249
253
245
221
248
255
255
255
255
255
255
255
255
255
255
255
255
255
255
255
255
255
255
255
255
255
255
255
255
255
255
255
255
255
255
255
255
255
255
255
255
255
255
255
255
255
255
255
255
255
255
255
255
255
255
255
255
255
255
255
255
255
255
255
255
255
255
255
255
255
255
255
255
255
255
255
255
255
255
255
255
255
255
255
255
255
255
255
255
255
255
255
255
255
253
246
252
255
255
255
255
255
255
255
255
255
255
255
255
255
255
255
255
255
255
255
255
255
255
255
255
255
255
255
255
255
255
255
255
255
255
255
255
255
255
255
255
255
255
255
255
255
255
255
255
255
254
230
160
162
159
132
106
105
112
101
90
96
107
101
101
97
96
93
100
109
96
81
102
110
117
113
92
79
86
86
83
65
61
76
86
78
60
62
62
64
62
65
64
75
93
94
112
112
108
137
198
253
255
255
254
243
180
173
174
177
213
254
255
255
254
240
161
149
204
219
175
187
176
185
187
177
150
155
169
188
207
158
166
168
245
253
228
207
192
224
206
174
166
173
171
179
210
196
252
255
255
255
253
246
254
255
254
242
239
241
245
251
216
235
252
252
254
255
255
255
255
255
255
255
255
255
255
255
255
255
255
255
255
255
255
255
255
255
255
255
255
255
255
255
255
255
255
255
255
255
255
255
255
255
255
255
255
255
255
255
255
255
255
255
255
255
255
255
255
255
255
255
255
255
255
255
255
255
255
255
255
255
255
255
255
255
255
255
255
255
255
255
255
255
255
255
255
255
255
255
255
255
255
255
255
254
244
253
255
255
255
255
255
255
255
255
255
255
255
255
255
255
255
255
255
255
255
255
255
255
255
255
255
255
255
255
255
255
255
255
255
255
255
255
255
255
255
255
255
255
255
255
255
255
255
255
254
209
163
165
161
137
94
89
110
115
105
96
105
110
98
75
68
87
99
103
104
98
87
73
59
57
70
85
89
88
73
68
64
70
74
75
62
67
69
91
97
87
79
71
62
70
86
124
153
138
219
254
255
254
225
172
172
170
171
175
179
240
239
253
250
243
161
150
143
162
178
188
176
179
179
158
144
187
166
167
241
181
156
188
211
211
199
200
196
195
198
195
161
172
178
198
189
189
231
252
249
253
234
244
252
243
249
196
202
219
235
190
240
250
245
246
254
255
255
255
255
255
255
255
255
255
255
255
255
255
255
255
255
255
255
255
255
255
255
255
255
255
255
255
255
255
255
255
255
255
255
255
255
255
255
255
255
255
255
255
255
255
255
255
255
255
255
255
255
255
255
255
255
255
255
255
255
255
255
255
255
255
255
255
255
255
255
255
255
255
255
255
255
255
255
255
255
255
255
255
255
255
255
255
255
255
252
246
255
255
255
255
255
255
255
255
255
255
255
255
255
255
255
255
255
255
255
255
255
255
255
255
255
255
255
255
255
255
255
255
255
255
255
255
255
255
255
255
255
255
255
255
255
255
255
255
250
175
161
143
123
129
92
90
107
106
99
100
100
111
103
82
76
83
90
89
91
83
79
87
87
87
79
73
78
85
71
68
71
79
81
109
115
86
86
83
88
74
73
93
81
64
62
74
111
141
222
255
255
254
216
171
168
165
169
168
172
207
224
227
179
193
243
227
164
144
174
186
175
176
176
163
183
246
233
152
183
186
192
230
166
200
202
196
196
193
194
206
168
169
194
189
186
191
184
240
205
204
183
197
204
210
206
188
204
225
212
240
230
220
239
254
255
255
255
255
255
255
255
255
255
255
255
255
255
255
255
255
255
255
255
255
255
255
255
255
255
255
255
255
255
255
255
255
255
255
255
255
255
255
255
255
255
255
255
255
255
255
255
255
255
255
255
255
255
255
255
255
255
255
255
255
255
255
255
255
255
255
255
255
255
255
255
255
255
255
255
255
255
255
255
255
255
255
255
255
255
255
255
255
255
255
254
246
251
255
255
255
255
255
255
255
255
255
255
255
255
255
255
255
255
255
255
255
255
255
255
255
255
255
255
255
255
255
255
255
255
255
255
255
255
255
255
255
255
255
255
255
255
255
255
254
236
152
139
121
108
104
85
90
109
117
122
118
110
107
115
126
105
81
72
83
79
71
79
85
74
56
64
69
63
58
65
77
76
84
80
84
118
104
74
75
75
75
72
77
115
126
97
68
94
128
208
243
238
239
220
171
166
163
166
165
165
164
160
164
211
177
246
243
225
171
143
180
178
170
176
176
200
199
216
219
189
191
241
194
235
250
207
192
187
188
192
214
189
159
180
193
184
191
184
228
188
181
185
192
197
197
191
194
221
242
252
251
220
231
252
254
255
255
255
255
255
255
255
255
255
255
255
255
255
255
255
255
255
255
255
255
255
255
255
255
255
255
255
255
255
255
255
255
255
255
255
255
255
255
255
255
255
255
255
255
255
255
255
255
255
255
255
255
255
255
255
255
255
255
255
255
255
255
255
255
255
255
255
255
255
255
255
255
255
255
255
255
255
255
255
255
255
255
255
255
255
255
255
255
255
255
255
253
244
254
255
255
255
255
255
255
255
255
255
255
255
255
255
255
255
255
255
255
255
255
255
255
255
255
255
255
255
255
255
255
255
255
255
255
255
255
255
255
255
255
255
255
255
255
255
254
218
126
126
102
99
92
80
97
128
159
168
173
161
128
129
142
118
104
85
65
64
63
63
59
53
52
54
57
59
57
76
86
75
89
96
95
94
89
71
67
66
66
71
80
77
106
147
87
101
139
225
253
253
215
217
171
168
164
163
170
160
139
132
138
172
178
213
154
226
213
189
177
176
170
174
171
178
187
189
187
190
193
191
168
252
254
245
188
186
186
192
204
208
193
194
188
182
188
192
213
183
177
184
188
189
205
202
211
231
251
248
212
189
196
240
241
249
254
255
255
255
255
255
255
255
255
255
255
255
255
255
255
255
255
255
255
255
255
255
255
255
255
255
255
255
255
255
255
255
255
255
255
255
255
255
255
255
255
255
255
255
255
255
255
255
255
255
255
255
255
255
255
255
255
255
255
255
255
255
255
255
255
255
255
255
255
255
255
255
255
255
255
255
255
255
255
255
255
255
255
255
255
255
255
255
255
255
255
251
247
255
255
255
255
255
255
255
255
255
255
255
255
255
255
255
255
255
255
255
255
255
255
255
255
255
255
255
255
255
255
255
255
255
255
255
255
255
255
255
255
255
255
255
255
255
255
213
126
122
129
105
91
78
112
162
180
183
181
179
162
129
138
106
101
89
73
61
60
59
59
56
57
55
53
61
60
68
81
87
93
88
94
88
76
65
55
58
59
59
64
69
77
99
116
119
147
233
255
254
227
179
164
166
167
165
164
153
145
113
136
143
158
166
126
148
165
175
175
167
163
173
163
175
186
178
188
188
193
188
208
244
252
248
205
187
185
188
203
189
191
198
200
181
187
189
192
182
177
183
183
191
186
189
224
199
239
198
186
222
225
187
194
227
252
254
254
255
255
255
255
255
255
255
255
255
255
255
255
255
255
255
255
255
255
255
255
255
255
255
255
255
255
255
255
255
255
255
255
255
255
255
255
255
255
255
255
255
255
255
255
255
255
255
255
255
255
255
255
255
255
255
255
255
255
255
255
255
255
255
255
255
255
255
255
255
255
255
255
255
255
255
255
255
255
255
255
255
255
255
255
255
255
255
255
255
245
254
255
255
255
255
255
255
255
255
255
255
255
255
255
255
255
255
255
255
255
255
255
255
255
255
255
255
255
255
255
255
255
255
255
255
255
255
255
255
255
255
255
255
255
255
255
216
116
135
120
85
71
93
155
185
191
189
184
180
176
163
130
111
103
94
89
69
65
66
70
66
67
62
51
60
63
62
67
82
82
77
92
91
84
66
53
52
55
54
54
60
62
70
111
129
155
237
255
254
249
196
154
159
162
158
146
151
226
178
123
140
146
139
151
154
144
130
165
172
163
165
161
173
187
172
189
185
191
194
227
187
186
202
223
185
182
184
192
190
193
205
204
183
183
197
222
183
172
182
182
186
188
203
248
199
178
190
181
231
184
195
242
249
233
245
247
251
254
255
255
255
255
255
255
255
255
255
255
255
255
255
255
255
255
255
255
255
255
255
255
255
255
255
255
255
255
255
255
255
255
255
255
255
255
255
255
255
255
255
255
255
255
255
255
255
255
255
255
255
255
255
255
255
255
255
255
255
255
255
255
255
255
255
255
255
255
255
255
255
255
255
255
255
255
255
255
255
255
255
255
255
255
255
255
255
249
249
255
255
255
255
255
255
255
255
255
255
255
255
255
255
255
255
255
255
255
255
255
255
255
255
255
255
255
255
255
255
255
255
255
255
255
255
255
255
255
255
255
255
255
255
255
223
116
120
106
69
89
136
184
195
196
192
184
178
176
171
159
134
117
90
87
82
77
79
82
77
69
67
56
53
55
57
62
63
70
80
89
108
111
90
64
52
53
51
51
51
52
65
87
95
148
248
255
254
250
187
154
155
154
154
140
135
165
147
115
133
138
142
156
133
135
127
124
145
164
163
169
172
183
186
187
184
191
191
158
173
184
182
206
186
178
187
191
189
190
191
194
191
180
189
192
183
160
173
173
187
189
183
227
219
179
193
201
197
192
185
207
219
202
195
188
210
252
254
255
255
255
255
255
255
255
255
255
255
255
255
255
255
255
255
255
255
255
255
255
255
255
255
255
255
255
255
255
255
255
255
255
255
255
255
255
255
255
255
255
255
255
255
255
255
255
255
255
255
255
255
255
255
255
255
255
255
255
255
255
255
255
255
255
255
255
255
255
255
255
255
255
255
255
255
255
255
255
255
255
255
255
255
255
255
254
243
254
255
255
255
255
255
255
255
255
255
255
255
255
255
255
255
255
255
255
255
255
255
255
255
255
255
255
255
255
255
255
255
255
255
255
255
255
255
255
255
255
255
255
255
255
242
140
120
102
74
108
177
193
197
196
192
186
179
172
166
162
153
136
117
107
108
109
94
94
91
78
71
62
56
54
55
58
65
82
103
93
135
155
140
106
67
55
54
53
53
54
61
75
97
182
252
255
254
253
194
144
154
151
146
141
126
124
131
121
133
136
143
160
138
126
124
119
130
157
164
176
173
173
188
186
182
194
165
143
152
178
176
185
191
172
190
188
191
185
188
179
216
180
189
187
190
149
154
178
192
187
187
184
176
179
189
209
226
235
245
252
253
252
250
241
230
236
254
255
255
255
255
255
255
255
255
255
255
255
255
255
255
255
255
255
255
255
255
255
255
255
255
255
255
255
255
255
255
255
255
255
255
255
255
255
255
255
255
255
255
255
255
255
255
255
255
255
255
255
255
255
255
255
255
255
255
255
255
255
255
255
255
255
255
255
255
255
255
255
255
255
255
255
255
255
255
255
255
255
255
255
255
255
255
255
250
248
254
255
255
255
255
255
255
255
255
255
255
255
255
255
255
255
255
255
255
255
255
255
255
255
255
255
255
255
255
255
255
255
255
255
255
255
255
255
255
255
255
255
255
255
251
167
109
81
88
134
184
195
196
195
191
187
181
175
172
167
160
148
137
129
128
126
106
92
90
94
90
73
68
59
52
54
67
86
90
118
148
166
162
153
131
101
71
57
54
56
62
91
129
206
254
254
247
252
251
192
131
153
161
132
127
93
90
121
125
133
128
182
130
118
125
142
152
199
146
157
175
156
160
187
183
178
119
126
128
180
180
176
178
132
186
188
180
189
184
183
195
220
189
188
185
212
184
193
194
175
173
174
176
176
216
253
254
254
254
254
253
237
190
200
242
236
253
254
255
255
255
255
255
255
255
255
255
255
255
255
255
255
255
255
255
255
255
255
255
255
255
255
255
255
255
255
255
255
255
255
255
255
255
255
255
255
255
255
255
255
255
255
255
255
255
255
255
255
255
255
255
255
255
255
255
255
255
255
255
255
255
255
255
255
255
255
255
255
255
255
255
255
255
255
255
255
255
255
255
255
255
255
255
255
255
245
254
255
255
255
255
255
255
255
255
255
255
255
255
255
255
255
255
255
255
255
255
255
255
255
255
255
255
255
255
255
255
255
255
255
255
255
255
255
255
255
255
255
255
255
253
184
103
79
108
142
187
195
195
194
191
188
185
180
177
173
166
158
149
143
139
136
126
121
121
116
112
99
75
65
69
75
102
126
133
135
164
169
170
171
164
148
108
66
57
61
70
110
115
220
253
251
201
186
224
239
131
126
142
124
116
101
88
101
122
122
120
144
133
130
165
116
168
237
195
145
156
194
167
186
183
127
100
93
110
160
169
180
177
164
187
185
187
198
193
194
195
194
183
190
222
200
185
182
173
175
185
180
174
184
211
253
255
255
254
254
253
189
172
180
183
178
230
253
255
255
255
255
255
255
255
255
255
255
255
255
255
255
255
255
255
255
255
255
255
255
255
255
255
255
255
255
255
255
255
255
255
255
255
255
255
255
255
255
255
255
255
255
255
255
255
255
255
255
255
255
255
255
255
255
255
255
255
255
255
255
255
255
255
255
255
255
255
255
255
255
255
255
255
255
255
255
255
255
255
255
255
255
255
255
255
250
253
255
255
255
255
255
255
255
255
255
255
255
255
255
255
255
255
255
255
255
255
255
255
255
255
255
255
255
255
255
255
255
255
255
255
255
255
255
255
255
255
255
255
255
254
195
94
87
131
165
194
196
196
195
193
190
188
185
183
178
173
165
159
154
146
141
140
138
137
134
130
121
114
111
108
114
116
129
140
160
170
172
172
175
176
172
130
79
64
73
80
96
135
237
252
189
161
167
156
227
239
124
131
132
148
92
88
106
115
120
124
155
149
110
129
105
191
235
203
159
147
165
173
184
160
98
181
168
175
176
191
172
177
185
181
187
183
180
188
164
168
167
201
187
183
173
155
174
168
174
183
175
208
223
233
253
255
254
254
246
247
228
199
180
176
166
221
253
255
255
255
255
255
255
255
255
255
255
255
255
255
255
255
255
255
255
255
255
255
255
255
255
255
255
255
255
255
255
255
255
255
255
255
255
255
255
255
255
255
255
255
255
255
255
255
255
255
255
255
255
255
255
255
255
255
255
255
255
255
255
255
255
255
255
255
255
255
255
255
255
255
255
255
255
255
255
255
255
255
255
255
255
255
255
255
255
253
255
255
255
255
255
255
255
255
255
255
255
255
255
255
255
255
255
255
255
255
255
255
255
255
255
255
255
255
255
255
255
255
255
255
255
255
255
255
255
255
255
255
255
255
206
108
130
156
179
195
198
197
197
194
194
192
188
186
184
179
173
167
160
155
152
149
148
146
143
139
134
129
128
128
130
143
155
161
165
170
172
173
175
180
177
153
93
69
68
78
104
156
251
250
164
162
150
157
164
240
157
95
107
147
160
135
116
106
113
120
150
192
138
105
108
119
183
170
162
166
158
163
181
103
151
185
158
176
175
176
156
168
173
184
174
181
190
186
163
155
167
190
195
185
131
148
180
170
174
209
192
232
237
250
253
255
254
255
251
217
169
152
134
142
174
233
252
254
254
255
255
255
255
254
254
255
255
255
255
254
247
252
254
255
255
255
255
255
255
254
254
254
254
252
251
255
255
255
255
255
255
255
255
255
255
255
255
255
255
255
255
255
255
255
255
255
255
255
255
255
255
255
255
255
255
255
255
255
255
255
255
255
255
255
255
255
255
255
255
255
255
255
255
255
255
255
255
255
255
255
255
255
255
255
255
254
255
255
255
255
255
255
255
255
255
255
255
255
255
255
255
255
255
255
255
255
255
255
255
255
255
255
255
255
255
255
255
255
255
255
255
255
255
255
255
255
255
255
255
255
211
112
134
178
193
199
202
204
203
202
200
198
193
189
185
180
175
170
165
161
159
156
156
155
151
149
147
142
139
141
146
156
162
164
167
171
173
175
177
180
180
158
103
70
67
66
94
179
253
252
165
162
151
158
149
215
191
113
95
92
91
106
98
128
92
114
146
155
98
130
105
110
125
126
209
164
128
156
170
154
182
164
162
166
169
175
151
158
177
160
167
178
186
183
184
173
162
167
179
161
125
181
170
165
167
163
223
222
249
243
253
255
255
254
254
206
170
121
120
128
150
189
224
248
251
254
254
255
254
253
247
253
255
255
255
254
233
203
248
254
255
255
255
255
254
248
233
239
240
224
190
255
255
255
255
255
255
255
255
255
255
255
255
255
255
255
255
255
255
255
255
255
255
255
255
255
255
255
255
255
255
255
255
255
255
255
255
255
255
255
255
255
255
255
255
255
255
255
255
255
255
255
255
255
255
255
255
255
255
255
255
255
255
255
255
255
255
255
255
255
255
255
255
255
255
255
255
255
255
255
255
255
255
255
255
255
255
255
255
255
255
255
255
255
255
255
255
255
255
255
255
255
255
255
255
255
216
111
135
186
202
203
208
210
209
202
199
195
193
189
184
180
177
174
169
166
164
162
161
160
159
159
160
157
156
157
160
166
169
169
171
173
173
175
177
179
180
163
101
78
69
67
101
209
253
233
164
162
156
151
145
173
131
127
91
90
96
98
97
120
89
114
139
120
104
113
108
104
135
144
176
211
130
162
140
169
191
175
157
154
169
177
175
159
163
177
190
186
183
181
193
169
136
182
185
127
162
166
155
159
152
161
203
219
250
229
239
253
254
247
248
198
158
114
116
123
129
134
158
227
219
230
254
254
239
199
164
215
252
253
254
247
182
144
206
252
255
255
255
255
253
236
142
144
138
134
142
255
255
255
255
255
255
255
255
255
255
255
255
255
255
255
255
255
255
255
255
255
255
255
255
255
255
255
255
255
255
255
255
255
255
255
255
255
255
255
255
255
255
255
255
255
255
255
255
255
255
255
255
255
255
255
255
255
255
255
255
255
255
255
255
255
255
255
255
255
255
255
255
255
255
255
255
255
255
255
255
255
255
255
255
255
255
255
255
255
255
255
255
255
255
255
255
255
255
255
255
255
255
255
255
255
220
127
144
206
214
211
217
219
211
205
196
190
186
185
180
176
173
172
170
168
167
165
164
163
163
164
165
165
165
166
167
169
172
174
175
175
176
176
178
180
180
172
112
83
80
70
125
245
254
237
163
159
149
149
154
174
117
127
113
81
71
76
102
109
137
126
130
117
117
146
99
90
147
116
110
129
139
124
124
194
171
158
146
143
164
192
171
165
158
141
188
186
190
183
174
168
194
166
196
151
170
175
144
159
190
232
224
223
250
222
203
238
236
239
213
201
121
114
115
120
122
127
135
199
208
228
253
253
212
145
137
141
181
208
252
234
127
133
144
219
251
253
254
253
241
182
126
127
129
133
145
255
255
255
255
255
255
255
255
255
255
255
255
255
255
255
255
255
255
255
255
255
255
255
255
255
255
255
255
255
255
255
255
255
255
255
255
255
255
255
255
255
255
255
255
255
255
255
255
255
255
255
255
255
255
255
255
255
255
255
255
255
255
255
255
255
255
255
255
255
255
255
255
255
255
255
255
255
255
255
255
255
255
255
255
255
255
255
255
255
255
255
255
255
255
255
255
255
255
255
255
255
255
255
254
254
221
152
160
223
218
219
226
214
193
189
186
182
178
171
169
168
168
168
169
168
167
166
164
165
165
165
166
167
167
167
167
169
171
173
175
176
176
176
178
180
180
173
128
90
90
80
190
253
253
239
213
152
147
145
139
132
138
118
126
94
74
68
100
103
178
117
124
132
128
221
177
157
218
218
213
77
91
151
164
194
164
126
134
150
146
147
118
156
165
140
174
189
175
171
176
175
195
176
168
149
147
185
141
124
192
217
199
231
251
207
205
197
186
189
196
192
122
114
115
121
121
125
145
210
208
233
253
235
173
135
131
130
140
167
242
180
127
129
134
151
207
243
196
199
232
177
124
129
130
155
202
255
255
255
255
255
255
255
255
255
255
255
255
255
255
255
255
255
255
255
255
255
255
255
255
255
255
255
255
255
255
255
255
255
255
255
255
255
255
255
255
255
255
255
255
255
255
255
255
255
255
255
255
255
255
255
255
255
255
255
255
255
255
255
255
255
255
255
255
255
255
255
255
255
255
255
255
255
255
255
255
255
255
255
255
255
255
255
255
255
255
255
255
255
255
255
255
255
255
255
255
255
254
250
249
246
227
138
190
225
221
222
205
173
148
146
143
144
151
157
157
157
158
159
161
163
163
163
163
163
164
164
165
165
165
165
166
168
170
174
177
179
179
179
179
179
178
175
139
91
99
120
243
237
236
209
248
227
164
141
176
147
168
119
130
128
110
113
87
91
145
111
123
162
157
189
224
211
252
250
175
130
71
71
162
194
199
125
125
137
104
102
99
156
167
144
162
168
153
153
166
182
204
163
162
161
197
236
203
177
113
135
146
202
205
194
194
203
162
154
180
207
175
110
113
119
121
124
134
210
187
245
254
210
142
135
134
127
132
146
226
130
124
127
131
140
201
230
144
153
203
122
125
127
191
250
248
255
255
255
255
255
255
255
255
255
255
255
255
255
255
255
255
255
255
255
255
255
255
255
255
255
255
255
255
255
255
255
255
255
255
255
255
255
255
255
255
255
255
255
255
255
255
255
255
255
255
255
255
255
255
255
255
255
255
255
255
255
255
255
255
255
255
255
255
255
255
255
255
255
255
255
255
255
255
255
255
255
255
255
255
255
255
255
255
255
255
255
255
255
255
255
255
255
255
255
255
255
246
210
220
219
203
138
203
226
222
215
180
153
130
105
89
70
67
73
91
118
128
135
146
152
154
157
160
159
159
158
157
156
158
159
162
164
167
173
176
179
180
183
183
182
180
176
153
102
106
177
249
248
203
189
190
204
217
145
187
151
154
142
114
111
100
80
78
74
116
113
140
113
96
106
145
211
233
180
111
130
88
76
158
196
144
113
106
160
103
101
95
135
158
168
146
156
190
152
166
179
196
125
161
150
171
236
227
127
93
92
99
187
195
210
236
176
155
172
171
207
200
105
109
115
119
119
155
198
218
252
251
168
129
128
133
126
127
133
198
118
122
124
127
130
201
186
179
202
125
122
120
123
203
210
206
247
254
255
255
255
255
255
255
255
255
255
255
255
255
255
255
255
255
255
255
255
255
255
255
255
255
255
255
255
255
255
255
255
255
255
255
255
255
255
255
255
255
255
255
255
255
255
255
255
255
255
255
255
255
255
255
255
255
255
255
255
255
255
255
255
255
255
255
255
255
255
255
255
255
255
255
255
255
255
255
255
255
255
255
255
255
255
255
255
255
255
255
255
255
255
255
255
255
255
255
254
216
147
165
195
188
148
219
228
228
202
167
149
126
116
110
100
81
71
65
70
87
105
119
133
141
145
146
148
145
144
140
143
141
138
144
152
157
160
166
169
177
187
188
185
183
180
168
108
102
194
238
217
210
203
152
162
184
180
163
124
158
123
109
107
106
94
77
87
114
118
113
97
97
107
107
151
172
131
149
137
121
136
168
177
122
116
127
172
111
119
121
137
139
151
146
169
154
157
133
149
163
137
135
143
226
212
231
119
97
91
89
179
173
185
252
200
174
134
115
154
180
110
108
113
120
119
215
231
242
241
245
160
123
124
127
122
123
118
130
125
123
125
125
126
178
224
123
121
127
122
163
199
246
247
252
252
246
252
255
255
255
255
255
255
255
255
255
255
255
255
255
255
255
255
255
255
255
255
255
255
255
255
255
255
255
255
255
255
255
255
255
255
255
255
255
255
255
255
255
255
255
255
255
255
255
255
255
255
255
255
255
255
255
255
255
255
255
255
255
255
255
255
255
255
255
255
255
255
255
255
255
255
255
255
255
255
255
255
255
255
255
255
255
255
255
255
255
255
255
255
255
255
255
255
255
254
195
146
148
175
183
159
233
229
223
179
157
130
118
114
106
102
94
87
83
80
81
91
105
116
125
130
132
134
132
128
119
105
87
79
75
80
88
93
104
118
131
172
194
187
185
184
173
107
94
185
208
204
198
186
160
144
146
157
123
149
152
202
99
153
95
135
134
86
104
113
95
91
121
167
162
170
117
102
123
124
101
142
188
149
82
104
160
142
137
145
130
143
128
124
146
166
155
159
130
149
132
141
148
147
190
171
177
184
108
91
99
147
139
148
243
210
159
121
93
134
91
103
107
115
121
147
212
149
165
182
173
171
114
125
125
123
120
120
132
120
119
124
123
125
132
163
116
129
142
136
197
238
244
228
250
255
254
247
248
254
255
255
255
255
255
255
255
255
255
255
255
255
255
255
255
255
255
255
255
255
255
255
255
255
255
255
255
255
255
255
255
255
255
255
255
255
255
255
255
255
255
255
255
255
255
255
255
255
255
255
255
255
255
255
255
255
255
255
255
255
255
255
255
255
255
255
255
255
255
255
255
255
255
255
255
255
255
255
255
255
255
255
255
255
255
255
255
255
255
255
255
255
255
255
255
255
201
145
183
169
182
179
236
231
202
155
129
116
87
65
55
49
48
48
58
67
84
93
104
110
115
117
119
119
119
116
105
89
76
68
59
59
60
70
79
81
86
131
176
189
187
188
178
99
108
184
186
195
173
186
141
139
142
143
125
180
175
175
114
171
125
135
106
111
99
97
85
80
164
168
108
100
98
98
98
99
100
106
197
135
98
187
184
138
129
131
128
133
123
118
125
152
154
166
171
144
130
126
134
154
112
149
189
140
99
89
94
95
153
163
219
249
214
162
212
120
108
119
110
140
128
212
192
140
153
171
178
207
117
118
125
119
119
121
116
141
115
122
123
125
131
130
152
176
180
195
226
212
217
233
229
255
255
254
249
245
254
255
255
255
255
255
255
255
255
255
255
255
255
255
255
255
255
255
255
255
255
255
255
255
255
255
255
255
255
255
255
255
255
255
255
255
255
255
255
255
255
255
255
255
255
255
255
255
255
255
255
255
255
255
255
255
255
255
255
255
255
255
255
255
255
255
255
255
255
255
255
255
255
255
255
255
255
255
255
255
255
255
255
255
255
255
255
255
255
255
255
255
255
255
255
254
207
171
198
185
173
196
235
228
187
131
104
78
62
65
73
45
46
53
83
65
66
70
88
104
109
113
114
113
112
110
101
94
89
83
85
96
104
100
96
90
90
112
150
188
191
193
177
104
127
192
194
187
190
198
126
131
134
123
164
153
207
195
95
152
200
116
134
137
99
94
103
118
191
147
100
98
95
98
95
95
94
137
186
147
192
201
104
123
151
130
126
129
126
120
145
153
128
103
141
113
133
113
105
135
121
132
166
227
101
89
91
106
116
148
160
242
239
162
243
174
90
104
106
107
139
206
182
142
167
154
137
162
138
125
119
119
118
136
97
149
115
117
121
120
139
156
158
132
160
136
166
218
218
239
251
255
255
255
255
251
244
253
255
255
255
255
255
255
255
255
255
255
255
255
255
255
255
255
255
255
255
255
255
255
255
255
255
255
255
255
255
255
255
255
255
255
255
255
255
255
255
255
255
255
255
255
255
255
255
255
255
255
255
255
255
255
255
255
255
255
255
255
255
255
255
255
255
255
255
255
255
255
255
255
255
255
255
255
255
255
255
255
255
255
255
255
255
255
255
255
255
255
255
255
255
254
208
195
162
158
159
216
233
223
195
165
137
120
113
118
107
106
100
92
86
76
73
71
76
98
115
123
121
117
109
96
81
71
61
59
48
50
70
91
107
112
117
123
151
188
194
197
178
104
151
207
207
198
174
246
171
139
133
120
126
194
167
161
126
143
112
138
152
150
94
90
155
195
189
146
101
97
94
94
95
95
93
128
162
166
189
132
105
118
118
122
116
117
119
144
130
124
112
127
122
142
124
107
116
148
120
112
128
138
203
96
91
198
202
138
111
123
146
190
218
97
136
86
75
105
209
230
163
174
183
155
166
139
122
124
119
116
109
102
118
219
134
116
121
116
123
161
128
207
220
161
237
253
248
252
255
255
255
255
255
254
253
244
248
254
255
255
255
255
255
255
255
255
255
255
255
255
255
255
255
255
255
255
255
255
255
255
255
255
255
255
255
255
255
255
255
255
255
255
255
255
255
255
255
255
255
255
255
255
255
255
255
255
255
255
255
255
255
255
255
255
255
255
255
255
255
255
255
255
255
255
255
255
255
255
255
255
255
255
255
255
255
255
255
255
255
255
255
255
255
255
255
255
255
255
255
253
202
176
149
139
150
231
232
220
207
195
187
177
151
121
114
111
110
106
93
84
83
84
81
108
144
158
153
133
104
80
69
65
76
82
44
48
46
63
64
94
117
126
149
185
196
199
178
94
157
181
201
197
117
174
178
132
124
126
128
142
142
148
162
139
98
99
119
149
157
157
144
172
182
182
95
97
96
93
95
94
91
89
149
137
172
113
193
176
106
118
110
110
153
142
119
142
134
147
120
119
120
108
133
106
107
207
195
204
246
185
91
221
248
130
97
119
168
193
185
194
141
104
82
109
152
186
157
113
146
136
125
132
122
110
113
110
100
93
175
206
145
115
119
122
187
152
187
217
199
237
250
248
252
255
255
255
255
255
255
255
255
255
247
245
252
254
255
255
255
255
255
255
255
255
255
255
255
255
255
255
255
255
255
255
255
255
255
255
255
255
255
255
255
255
255
255
255
255
255
255
255
255
255
255
255
255
255
255
255
255
255
255
255
255
255
255
255
255
255
255
255
255
255
255
255
255
255
255
255
255
255
255
255
255
255
255
255
255
255
255
255
255
255
255
255
255
255
255
255
255
255
255
255
255
255
247
196
166
149
147
168
233
229
219
213
207
195
183
167
134
115
111
109
102
93
89
87
83
101
142
173
179
174
155
106
79
84
81
81
84
76
65
73
94
60
67
91
111
134
171
197
202
174
116
167
156
152
177
111
145
184
130
108
111
132
117
102
138
131
120
93
94
97
125
110
87
115
127
171
172
106
97
93
91
100
94
89
89
122
112
158
131
175
146
122
112
106
110
137
126
93
113
136
146
133
117
117
118
124
103
131
190
190
204
246
226
85
181
212
128
85
137
210
185
182
129
71
80
121
116
139
140
105
108
109
115
136
139
118
101
104
104
98
105
185
139
165
114
119
163
146
167
205
206
202
243
247
252
255
255
255
255
255
255
255
255
255
255
255
253
245
247
249
253
254
255
255
255
255
255
255
255
255
255
255
255
255
255
255
255
255
255
255
255
255
255
255
255
255
255
255
255
255
255
255
255
255
255
255
255
255
255
255
255
255
255
255
255
255
255
255
255
255
255
255
255
255
255
255
255
255
255
255
255
255
255
255
255
255
255
255
255
255
255
255
255
255
255
255
255
255
255
255
255
255
255
255
255
255
255
255
240
196
163
151
152
176
232
225
218
216
214
205
192
178
157
132
118
111
107
105
106
109
124
147
174
185
186
182
170
130
84
77
82
89
99
103
105
107
106
110
84
82
97
116
163
195
203
166
147
152
118
122
168
100
138
150
149
106
107
116
110
91
126
128
135
93
93
95
95
95
91
91
127
140
166
95
96
93
89
92
91
90
81
163
123
107
157
157
99
113
112
111
110
135
114
159
137
157
136
121
127
118
119
140
123
97
210
174
128
183
235
166
137
84
83
83
126
180
170
132
103
85
71
81
175
192
105
104
105
123
103
143
128
109
99
105
98
101
175
173
161
201
160
156
124
106
166
207
208
249
251
250
254
255
255
255
255
255
255
255
255
255
255
255
255
254
254
252
248
246
249
253
254
255
255
255
255
255
255
255
255
255
255
255
255
255
255
255
255
255
255
255
255
255
255
255
255
255
255
255
255
255
255
255
255
255
255
255
255
255
255
255
255
255
255
255
255
255
255
255
255
255
255
255
255
255
255
255
255
255
255
255
255
255
255
255
255
255
255
255
255
255
255
255
255
255
255
255
255
255
255
255
255
255
255
255
238
196
177
160
159
192
229
222
218
217
217
216
205
192
184
174
163
154
148
146
150
156
164
174
186
190
188
185
180
157
118
92
87
89
100
111
115
118
123
129
140
140
132
142
171
195
203
158
148
170
131
125
170
107
125
142
120
108
109
115
171
133
122
142
165
115
91
93
103
96
97
82
117
134
114
97
94
96
90
89
92
88
103
137
85
120
187
183
92
113
109
150
132
118
93
106
114
108
119
123
120
133
125
132
141
129
160
118
93
158
242
236
160
81
77
90
163
161
139
77
101
82
70
80
166
177
106
130
116
111
154
152
129
133
116
105
100
95
109
122
169
172
164
140
108
123
201
224
252
253
250
254
255
255
255
255
255
255
255
255
255
255
255
255
255
255
255
255
255
254
250
245
244
251
254
255
255
255
255
255
255
255
255
255
255
255
255
255
255
255
255
255
255
255
255
255
255
255
255
255
255
255
255
255
255
255
255
255
255
255
255
255
255
255
255
255
255
255
255
255
255
255
255
255
253
254
255
255
255
255
255
255
255
255
255
255
255
255
255
255
255
255
255
255
255
255
255
255
255
255
255
255
255
255
255
255
240
192
182
227
193
196
226
220
217
215
214
213
210
203
196
191
185
180
177
178
178
178
181
189
195
196
192
188
184
171
149
140
121
104
98
103
110
119
129
147
161
169
171
173
180
194
202
153
166
185
151
128
170
112
90
126
92
118
112
118
146
104
106
148
155
136
90
91
90
89
94
93
131
168
93
88
104
96
92
94
96
96
111
102
87
109
184
80
100
110
162
146
126
113
100
127
81
160
163
141
148
105
117
117
120
136
134
112
100
148
240
248
157
74
75
97
154
96
117
116
84
79
74
73
87
101
89
137
171
104
92
123
99
137
164
95
90
90
96
114
127
125
131
125
131
186
242
253
253
250
253
255
255
255
255
255
255
255
255
255
255
255
255
255
255
255
255
255
255
254
254
254
254
247
246
248
250
253
255
255
255
255
255
255
255
255
255
255
255
255
255
255
255
255
255
255
255
255
255
255
255
255
255
255
255
255
255
255
255
255
255
255
255
255
255
255
255
255
255
255
255
255
255
255
255
251
255
255
255
255
255
255
255
255
255
255
255
255
255
255
255
255
255
255
255
255
255
255
255
255
254
244
254
255
255
254
245
215
203
222
203
201
223
219
217
214
213
214
213
211
205
201
199
196
191
189
187
187
192
198
199
199
196
191
185
177
167
165
163
151
138
129
126
133
144
156
166
174
178
181
186
194
202
151
134
167
173
131
171
99
90
105
121
95
139
149
156
117
130
135
139
129
101
88
93
85
92
109
99
131
99
97
94
119
90
90
96
89
148
87
89
121
140
72
89
108
118
114
126
114
105
174
175
162
122
153
114
103
99
116
117
139
139
142
84
118
145
137
136
127
165
151
77
66
66
76
72
67
70
73
76
77
86
126
105
94
121
126
97
105
134
93
89
109
127
109
114
110
114
151
207
234
254
254
253
254
255
255
255
255
255
255
255
255
255
255
255
255
255
255
255
255
255
255
255
255
255
255
255
255
254
254
253
249
248
250
251
253
252
253
254
254
254
253
253
251
250
251
251
251
252
253
254
255
254
253
252
251
252
252
252
253
254
254
255
255
255
255
255
255
255
255
255
255
255
255
255
255
255
255
255
253
251
255
255
255
255
255
255
255
255
255
255
255
255
255
255
255
255
255
255
255
255
255
255
255
254
216
254
255
255
254
249
231
231
192
175
202
222
219
215
213
213
214
214
213
208
201
197
196
190
183
182
184
194
200
202
202
198
192
186
179
173
172
172
172
169
166
165
165
167
171
175
178
180
183
187
194
203
144
109
137
172
135
166
88
89
90
160
106
153
169
136
125
189
150
143
150
133
112
131
145
88
100
94
78
114
105
88
144
97
89
102
80
151
87
96
177
78
73
87
142
93
122
102
136
182
180
160
132
146
109
107
123
117
106
110
129
119
97
99
86
93
78
128
128
136
211
159
60
66
68
79
65
79
69
68
62
74
90
90
93
111
152
106
125
120
93
149
169
127
108
100
107
173
231
231
254
254
254
255
255
255
255
255
255
255
255
255
255
255
255
255
255
255
255
255
255
255
255
255
255
255
255
255
255
255
255
255
255
255
254
253
252
252
251
251
252
253
254
254
254
254
254
254
254
254
253
253
255
255
255
255
254
254
254
254
254
253
253
251
252
254
255
255
255
255
255
255
255
255
255
255
255
255
255
255
255
251
253
255
255
255
255
255
255
255
255
255
255
255
255
255
255
255
255
255
255
255
255
255
255
254
209
253
255
255
254
242
225
233
234
213
201
220
216
213
212
212
209
206
206
197
190
186
179
174
165
160
184
197
203
202
201
196
191
185
179
172
173
174
176
178
177
176
176
177
177
179
180
181
183
186
192
198
132
115
131
170
154
159
83
88
87
127
111
111
145
126
84
135
168
169
146
82
154
107
101
63
89
99
80
93
100
84
98
112
86
96
95
114
86
110
90
62
66
77
94
84
101
117
92
114
107
79
115
99
77
85
112
119
82
107
92
88
98
122
79
84
77
95
124
126
234
238
98
71
84
77
78
116
79
63
64
84
87
92
104
115
152
88
163
149
117
171
112
101
82
155
206
211
214
251
253
254
255
255
255
255
255
255
255
255
255
255
255
255
255
255
255
255
255
255
255
255
255
255
255
255
255
255
255
255
255
255
255
255
255
255
255
255
255
255
255
255
255
255
255
255
255
255
255
255
255
255
255
255
255
255
255
255
255
255
255
255
255
255
255
254
255
255
255
255
255
255
255
255
255
255
255
255
252
255
255
254
249
253
255
255
255
255
255
255
255
255
255
255
255
255
255
255
255
255
255
255
255
255
255
254
206
248
255
255
255
248
212
222
224
192
197
218
211
208
203
199
194
196
190
182
178
174
167
156
147
188
201
205
207
203
196
190
189
184
179
172
161
165
172
177
180
181
182
182
181
181
181
184
184
186
190
192
131
124
128
170
170
126
84
82
68
72
84
65
106
134
106
89
71
83
80
94
160
64
62
62
69
100
89
85
76
80
85
94
107
118
127
101
83
78
86
111
206
133
114
90
122
98
88
85
84
119
111
112
76
74
110
86
94
91
81
125
124
132
93
82
85
129
115
131
156
167
103
68
70
66
70
67
87
79
72
88
91
102
147
125
169
135
87
117
92
124
88
76
122
193
224
208
247
254
255
255
255
255
255
255
255
255
255
255
255
255
255
254
255
255
254
254
254
255
255
255
255
255
255
255
255
255
255
255
255
255
255
255
255
255
255
255
255
255
255
255
255
255
255
255
255
255
255
255
255
255
255
255
255
255
255
255
255
255
255
255
255
255
255
255
255
255
255
255
255
255
255
255
255
255
255
255
254
254
255
255
253
247
253
255
255
255
255
255
255
255
255
255
255
255
255
255
255
255
255
255
255
255
255
253
199
249
254
255
255
255
237
191
170
150
195
219
206
197
187
182
180
176
172
172
168
162
156
143
182
211
207
205
202
197
191
188
189
187
185
179
149
149
164
172
175
180
181
183
183
183
183
185
185
185
188
181
125
140
147
168
179
99
85
83
47
45
54
59
78
118
78
72
73
75
79
102
114
89
100
61
59
64
105
90
79
84
75
80
99
93
98
97
82
90
129
229
233
185
188
220
124
87
94
97
84
92
81
108
123
117
107
113
109
102
100
87
82
136
131
125
147
138
100
101
71
67
65
66
67
64
62
67
64
64
72
79
84
97
148
146
155
183
87
131
124
137
95
82
162
210
228
249
254
255
255
255
255
255
255
255
255
255
255
255
255
213
216
220
225
228
233
236
240
243
246
248
249
252
253
254
254
254
254
254
254
254
254
255
255
255
255
255
255
255
255
255
255
255
255
255
255
255
255
255
255
255
255
255
255
255
255
255
255
255
255
255
255
255
255
255
255
255
255
255
255
255
255
255
255
255
255
255
255
255
255
255
255
254
246
253
255
255
255
255
255
255
255
255
255
255
255
255
255
255
255
255
255
255
255
251
195
245
250
255
255
255
255
252
228
204
191
218
196
184
179
174
167
163
162
161
158
151
139
135
182
192
189
181
175
178
178
177
179
186
189
187
180
139
153
164
170
176
179
181
182
183
184
185
185
186
189
173
147
182
164
167
179
87
93
94
50
46
47
55
60
77
121
68
72
73
76
84
121
94
115
82
87
76
107
87
86
90
84
89
94
87
104
86
87
140
113
142
137
150
137
147
82
96
86
73
72
80
124
102
105
102
82
102
95
104
104
89
116
109
104
112
116
99
117
71
64
63
64
88
78
77
59
72
116
170
76
77
84
146
188
155
163
179
100
102
126
119
169
197
219
254
255
255
255
255
255
255
255
255
255
255
255
255
255
255
255
182
183
180
183
175
170
178
177
174
167
177
178
180
200
221
238
242
244
246
247
249
250
251
252
253
253
254
255
255
254
255
255
255
255
255
255
255
255
255
255
255
255
255
255
255
255
255
255
255
255
255
255
255
255
255
255
255
255
255
255
255
255
255
255
255
255
255
255
255
255
255
255
255
254
253
254
255
255
255
255
255
255
255
255
255
255
255
255
255
255
255
255
255
254
238
195
240
231
254
255
255
255
255
254
241
192
211
189
179
169
158
152
153
151
150
142
136
133
131
147
150
150
136
129
144
152
150
156
165
172
179
188
156
141
155
164
171
175
177
178
180
183
185
185
186
189
151
176
190
165
178
169
83
89
87
56
47
47
48
59
129
191
74
91
93
83
77
82
157
101
84
89
128
96
88
86
90
89
79
85
90
93
81
97
124
93
144
98
105
83
82
78
71
64
68
65
73
85
126
121
89
105
100
83
102
90
111
142
126
75
89
124
77
77
64
63
63
81
84
146
214
67
77
191
205
69
78
71
112
163
145
149
195
112
127
101
220
211
233
252
254
255
255
255
255
255
255
255
255
255
255
255
255
255
255
255
169
174
171
171
177
183
182
173
166
185
179
184
185
177
176
171
173
178
176
170
170
168
167
173
180
182
188
193
196
200
203
216
224
219
215
207
208
210
214
218
222
225
229
233
237
241
245
248
247
250
252
254
254
254
255
255
255
254
254
254
254
255
255
255
255
255
255
255
255
255
255
255
255
255
255
255
255
255
255
255
255
255
255
255
255
255
255
255
255
255
255
255
254
249
225
205
250
245
247
254
255
255
254
254
247
191
200
184
175
157
145
139
138
138
139
136
135
133
132
138
105
71
72
85
106
118
125
131
129
141
157
168
144
133
141
153
163
168
169
171
175
179
181
184
186
188
120
169
185
185
195
146
75
83
86
50
50
51
53
59
122
123
88
86
83
80
74
64
57
65
78
100
100
89
87
86
81
94
90
93
86
91
90
158
150
80
113
96
98
83
82
66
67
67
64
60
93
115
113
91
78
92
91
84
87
113
125
119
123
51
55
56
66
71
61
63
84
73
62
62
133
91
61
133
84
65
72
79
77
78
113
209
184
91
125
159
186
232
253
255
255
255
255
255
255
255
255
255
255
255
255
255
255
255
255
255
154
144
165
162
168
166
160
162
174
176
179
175
173
160
168
176
175
180
170
182
176
183
199
180
151
162
141
136
136
150
159
129
126
164
151
179
177
163
154
168
181
176
173
174
179
187
182
170
163
169
175
174
171
184
199
212
223
230
233
233
233
241
241
247
249
248
250
252
254
253
254
253
252
253
253
254
254
254
255
255
255
255
255
255
255
255
255
255
255
255
255
255
255
252
200
212
249
253
253
254
253
253
253
248
223
189
197
183
172
157
149
146
142
140
138
135
134
134
142
151
145
101
88
87
90
96
102
101
83
81
100
130
131
131
134
144
153
159
161
162
166
174
176
180
187
173
138
198
192
194
196
95
71
84
83
59
55
53
57
57
99
105
86
71
69
74
72
55
56
56
58
81
79
85
117
83
79
83
94
94
89
74
84
108
109
66
78
118
91
77
106
82
68
79
69
53
89
98
82
93
108
98
77
98
72
85
99
115
114
56
51
52
50
53
59
62
92
73
67
100
160
72
96
128
65
66
76
77
78
76
117
186
220
105
180
197
208
244
255
255
255
255
255
255
255
255
255
255
255
255
255
255
255
255
255
255
161
167
160
170
139
153
168
167
177
179
177
180
166
165
166
169
168
175
165
151
166
142
144
159
163
143
160
188
163
146
121
122
126
152
135
119
146
131
147
152
149
132
149
153
137
137
130
158
140
150
138
141
141
146
171
170
168
170
171
174
172
177
168
171
160
171
179
181
187
179
175
177
160
181
190
198
206
212
221
227
226
230
237
243
250
253
253
251
244
247
249
241
238
224
184
168
185
191
189
186
198
207
215
222
213
176
196
183
172
159
152
154
152
145
137
133
124
134
157
156
148
115
91
90
92
90
89
90
95
106
127
134
134
136
137
139
144
148
151
153
155
165
170
176
186
160
138
178
194
195
168
88
85
83
81
69
69
71
56
61
62
64
68
65
140
178
140
131
108
69
52
70
93
81
83
73
76
75
86
89
70
78
63
59
58
60
61
67
89
108
128
80
66
102
58
82
78
159
177
45
90
153
107
86
102
91
88
90
79
63
47
49
47
47
56
61
69
98
81
65
81
68
111
148
66
69
70
66
76
78
186
249
210
158
211
220
252
254
255
255
255
255
255
255
255
255
255
255
255
255
255
255
255
255
255
255
155
145
159
150
166
167
154
170
177
173
173
132
150
130
118
137
129
139
157
131
118
119
121
138
140
120
101
100
142
140
123
118
99
124
130
130
119
128
128
117
134
136
157
122
174
143
148
160
127
152
141
139
153
108
111
144
159
144
152
148
146
141
157
145
137
126
128
136
145
152
165
160
148
133
162
161
163
167
166
157
154
174
175
179
172
168
167
165
154
160
171
164
157
126
159
104
116
123
113
107
168
160
119
99
103
163
191
177
171
161
157
155
153
151
136
112
89
129
165
156
137
107
89
83
83
89
85
84
101
122
130
133
140
135
139
142
143
143
143
147
153
163
168
176
183
137
129
142
173
121
75
138
70
87
80
74
73
100
67
67
66
62
61
92
204
206
137
67
101
119
142
174
110
73
70
78
74
69
76
92
72
76
60
58
58
59
62
63
63
61
68
129
119
86
82
104
56
121
151
43
63
98
116
96
100
86
129
103
94
43
46
50
48
47
53
88
78
107
65
58
64
79
129
66
64
84
76
63
62
69
126
112
164
178
186
248
253
255
255
255
255
255
255
255
255
255
255
255
255
255
255
255
255
255
255
255
88
114
139
168
134
150
155
129
131
140
116
119
110
106
111
120
129
115
115
147
146
139
152
159
158
141
148
128
117
145
114
109
101
136
116
148
160
165
158
137
157
154
130
137
138
137
144
111
152
135
119
103
141
112
130
128
134
131
150
147
145
139
138
133
121
123
106
112
111
105
110
111
149
142
141
141
138
150
165
171
173
169
186
180
173
168
147
148
145
148
149
130
127
142
137
94
91
92
60
77
129
90
121
107
96
147
188
178
168
161
159
156
152
146
103
63
60
100
133
141
125
98
92
85
82
83
81
78
85
99
112
134
141
131
129
140
143
143
143
145
152
161
169
177
174
104
193
107
77
54
53
64
68
101
99
80
73
71
80
69
67
63
61
85
124
185
65
120
127
92
72
67
98
107
95
97
67
63
65
69
67
73
60
57
56
81
68
63
71
78
72
64
75
91
98
118
108
81
95
50
52
69
95
83
99
109
91
67
109
93
77
114
44
44
48
77
71
58
69
156
105
70
61
59
63
62
62
62
84
57
82
118
174
207
206
230
248
255
255
255
255
255
255
255
255
255
255
255
255
255
255
255
255
255
255
255
114
110
124
120
139
143
135
117
106
107
143
129
105
95
110
125
118
119
142
142
136
143
131
135
144
116
138
157
137
114
99
99
109
79
105
155
146
159
163
138
127
104
142
155
145
137
140
158
152
134
147
125
126
129
134
153
158
137
148
146
165
167
156
158
128
111
104
105
107
113
113
105
117
173
155
146
143
149
160
146
149
169
183
177
177
169
168
150
121
133
139
117
130
140
117
98
85
67
59
62
86
69
105
91
90
110
174
170
160
158
158
157
150
128
80
58
55
76
120
121
116
122
115
124
116
111
108
87
80
79
102
125
132
118
103
135
143
145
144
143
151
162
168
176
154
123
144
113
96
44
51
65
70
63
135
66
80
63
86
79
67
68
67
67
72
127
82
54
53
54
54
55
52
71
73
65
61
82
81
68
93
75
70
196
130
204
198
74
102
86
63
56
63
95
94
102
97
83
94
73
59
52
80
61
70
58
67
112
103
83
48
120
77
59
48
89
119
60
174
139
97
71
61
64
53
57
64
203
138
46
78
171
174
170
169
217
253
255
255
255
255
255
255
252
254
255
255
255
255
255
255
255
255
255
255
255
129
127
103
114
126
152
140
143
119
99
97
143
125
106
107
87
99
134
149
182
160
159
148
136
145
136
143
113
121
107
105
119
114
134
132
112
129
133
119
127
111
143
131
121
140
120
116
111
112
110
121
110
101
120
107
114
161
170
141
125
122
155
150
161
122
161
180
174
153
133
130
139
133
125
151
146
146
139
144
102
100
141
181
178
186
176
176
169
161
138
131
110
107
128
105
70
62
70
65
65
75
111
103
110
93
98
152
162
151
153
152
152
149
124
87
71
75
64
70
78
86
92
97
117
138
144
138
121
110
83
112
101
95
75
76
117
141
144
143
142
151
161
168
165
132
104
93
81
58
47
84
60
61
65
69
87
109
113
134
103
71
76
73
74
66
126
57
54
54
53
54
50
43
53
63
64
63
65
62
76
99
75
108
134
102
70
92
112
100
85
64
59
73
89
99
118
153
66
86
69
63
71
73
69
77
105
81
78
57
47
48
58
107
85
54
105
171
93
62
81
65
58
51
58
63
52
102
151
50
49
73
179
209
236
239
252
254
255
255
255
255
255
253
225
254
255
255
255
255
255
255
255
255
255
255
255
146
143
149
127
141
140
154
137
118
127
120
97
121
94
128
122
122
120
140
103
133
142
152
163
137
112
130
134
123
133
114
105
114
118
118
136
145
138
130
132
145
150
156
159
159
137
139
153
146
139
164
145
123
90
109
101
89
104
108
125
113
128
127
133
129
144
160
164
167
172
149
131
114
110
125
141
155
157
124
147
137
157
165
158
161
148
165
147
162
159
127
105
135
144
100
86
93
82
97
76
109
115
147
100
110
106
129
163
145
139
142
148
145
130
110
94
102
112
104
101
116
102
85
78
88
101
100
97
95
97
110
100
78
56
59
98
137
146
146
146
155
162
164
147
108
115
108
93
91
64
115
101
79
82
65
53
51
53
85
102
77
65
80
73
59
89
55
53
52
53
53
48
48
50
57
62
60
57
69
67
72
111
103
72
83
79
105
92
91
83
113
107
50
94
130
115
142
151
123
89
72
69
63
53
52
78
54
49
52
44
59
62
59
63
70
89
94
87
78
71
48
62
60
71
154
118
147
63
50
96
121
180
214
251
253
254
255
255
255
255
255
254
246
224
254
255
255
255
255
255
255
255
255
255
255
254
154
155
152
145
117
99
109
155
146
103
88
107
93
83
94
79
94
139
166
166
141
147
140
144
131
135
101
138
128
131
136
109
130
126
144
159
137
138
149
129
125
141
121
135
152
163
167
161
169
175
156
165
169
145
166
128
128
100
97
96
142
131
135
144
136
154
154
132
140
156
154
143
130
128
106
95
112
134
132
129
137
151
153
136
148
138
152
143
142
146
153
171
146
130
101
131
112
150
128
113
86
113
119
105
110
134
126
144
135
127
129
133
137
130
117
117
129
141
153
142
136
168
167
140
115
109
111
110
115
100
82
61
65
60
61
91
134
149
151
150
155
159
157
115
94
90
88
121
98
63
89
75
65
81
69
66
64
80
74
72
60
111
61
57
60
100
61
47
83
50
47
47
49
57
54
61
55
56
62
69
77
73
91
61
61
60
90
80
90
92
120
60
74
117
144
87
103
100
100
90
99
98
71
60
93
49
51
55
56
59
54
69
60
60
78
117
100
72
85
64
59
111
88
115
138
107
116
141
109
72
67
116
107
148
227
254
253
254
255
255
254
253
225
248
254
254
253
245
254
255
255
255
255
254
252
245
145
113
155
127
120
135
163
148
116
93
101
136
149
135
124
149
161
136
109
158
141
148
143
117
109
125
126
109
128
112
126
130
128
119
145
121
143
141
128
122
142
157
159
153
152
172
159
146
160
133
136
153
137
137
126
149
113
133
132
156
146
125
149
125
136
163
143
127
128
122
124
153
157
158
107
104
98
105
103
128
124
147
152
131
139
136
127
155
139
145
160
123
150
166
171
166
96
94
98
105
113
124
95
97
110
124
130
108
119
119
124
124
128
128
118
127
146
156
159
161
154
121
130
143
148
150
149
152
146
121
119
122
108
85
79
102
135
149
152
151
153
148
146
108
100
84
113
110
69
63
64
76
91
86
64
86
83
75
63
67
67
79
60
62
87
131
113
97
75
51
45
60
48
51
60
55
49
53
55
57
77
74
71
58
57
58
65
61
64
57
81
66
88
60
102
129
78
92
70
89
83
57
63
64
67
54
56
60
57
62
51
57
81
63
85
104
83
89
69
60
62
89
96
112
128
114
133
75
56
86
131
89
83
173
177
194
172
174
171
172
174
156
108
175
186
197
188
185
202
201
207
212
223
252
162
103
156
168
129
131
141
124
118
142
155
163
156
107
140
150
129
160
153
163
172
178
147
131
144
159
134
122
134
120
119
128
143
130
104
152
151
124
134
126
146
169
170
158
156
147
133
88
107
139
117
100
120
146
102
112
109
126
140
164
163
157
113
109
131
160
153
127
151
153
128
130
129
150
145
139
158
160
129
128
107
90
130
161
158
154
138
137
142
158
146
159
135
136
169
164
162
120
152
145
164
164
153
128
124
119
113
86
122
99
91
109
115
118
120
120
116
126
147
157
159
152
149
142
122
123
123
119
116
114
131
145
152
151
133
108
102
116
140
147
146
145
145
137
122
105
89
80
104
74
76
86
77
71
68
65
63
62
53
64
86
49
51
68
80
77
55
58
87
52
60
60
62
61
49
49
45
58
57
52
56
53
52
70
71
58
59
57
54
57
58
55
58
54
94
65
83
75
75
88
65
66
61
60
107
64
58
66
65
75
61
50
64
69
87
62
79
89
83
82
65
62
64
95
95
113
122
157
87
45
51
82
165
196
114
118
143
120
113
122
107
116
108
95
104
131
123
135
149
154
138
157
150
144
138
180
89
96
124
120
165
148
126
136
115
142
163
140
142
147
133
125
116
145
134
150
166
222
173
164
160
136
143
121
124
132
114
132
124
122
136
137
148
156
171
169
152
164
134
139
137
120
123
136
144
146
129
148
121
116
147
143
111
122
128
120
129
138
132
121
120
144
161
133
158
127
132
108
118
115
126
129
146
151
171
140
153
130
179
160
151
141
143
139
158
153
162
159
164
140
135
145
152
151
157
126
142
152
144
130
154
135
124
150
108
97
91
95
108
109
116
116
113
124
143
156
158
150
126
116
104
108
120
115
119
138
149
149
152
151
143
119
114
126
137
137
134
134
131
115
87
100
123
84
77
76
72
77
74
62
63
62
59
56
63
70
102
74
48
58
69
52
51
52
51
49
46
48
54
57
54
56
54
57
61
51
53
54
53
51
53
56
66
56
55
75
48
55
65
88
77
57
66
49
70
59
51
86
88
103
68
66
51
63
71
82
60
70
106
70
89
87
86
74
59
58
70
110
92
103
109
125
116
94
59
56
63
146
177
120
90
92
113
84
73
81
80
79
99
94
103
97
93
103
100
99
90
99
127
133
131
102
106
101
113
105
113
113
135
119
130
115
112
103
154
139
103
97
146
138
126
149
188
201
202
173
177
177
165
145
150
164
171
172
142
128
145
171
128
157
154
159
157
132
138
162
166
163
159
133
114
124
151
164
133
103
143
98
126
160
168
152
132
160
165
160
134
97
128
178
141
154
117
122
134
142
95
120
110
103
130
135
122
107
140
151
140
141
129
138
147
162
169
150
170
148
132
103
114
153
165
126
133
138
124
117
94
103
104
115
130
112
176
83
90
98
113
116
116
128
143
153
155
150
128
108
99
86
87
96
110
114
133
146
148
149
142
121
121
128
132
124
116
128
117
96
137
126
140
95
77
72
63
109
91
61
60
60
65
70
61
57
54
51
85
57
57
51
52
53
53
47
46
52
53
55
53
55
68
55
50
49
54
53
54
53
64
63
61
57
52
57
64
49
60
71
80
49
50
50
72
68
84
67
90
71
50
47
49
65
97
94
86
69
78
74
88
87
79
90
58
69
78
90
65
62
61
60
56
72
63
90
67
69
110
76
70
69
72
76
65
74
86
117
112
106
83
86
84
83
94
79
84
114
153
79
76
117
139
100
95
100
103
102
107
130
127
102
104
101
130
93
86
62
75
123
135
190
185
190
184
166
167
165
157
161
159
159
156
151
164
159
139
145
141
133
103
123
118
118
117
131
150
163
162
146
129
159
144
108
141
160
124
144
173
126
161
150
141
130
160
180
169
115
119
153
168
156
143
134
120
145
121
125
98
108
125
134
156
157
94
105
118
131
153
138
156
162
151
172
147
122
112
114
110
107
110
137
150
151
126
114
119
127
125
116
118
132
210
125
77
86
103
117
129
133
145
157
159
152
136
120
104
88
83
105
109
123
139
146
147
148
131
115
119
126
120
107
107
105
96
81
103
96
97
49
56
64
64
102
77
71
78
84
76
76
58
54
52
49
52
64
54
59
50
60
59
55
49
46
54
53
56
64
45
49
64
102
81
54
83
72
61
55
55
57
55
58
60
50
52
59
53
50
53
55
107
79
64
53
54
66
67
78
72
79
94
62
61
60
55
64
83
80
73
56
79
66
85
91
55
54
56
58
60
73
75
111
66
58
60
63
65
66
78
94
83
76
76
73
79
79
80
80
77
75
75
81
83
137
117
85
158
182
175
118
128
151
139
118
121
160
152
142
120
95
122
71
99
112
118
144
171
146
130
143
158
166
164
166
191
176
161
150
156
154
170
163
150
124
193
170
93
102
114
90
99
115
141
155
162
149
105
109
125
117
108
134
174
162
146
141
138
153
146
125
158
162
118
113
127
145
172
159
151
145
113
115
134
113
97
92
91
134
114
177
115
118
132
146
165
143
118
113
165
155
140
141
118
124
144
140
116
138
134
127
117
125
119
140
141
113
115
141
215
173
81
75
81
114
129
143
156
168
171
167
159
149
125
112
108
118
121
132
141
145
147
144
118
111
116
118
108
96
91
80
85
109
92
120
52
47
52
56
52
50
61
49
54
64
67
67
53
55
52
49
52
91
63
51
49
64
56
58
51
45
47
46
47
67
64
88
56
58
70
78
69
102
70
61
59
57
57
71
68
53
57
50
48
53
61
76
88
79
71
110
111
102
112
155
106
84
63
83
66
57
56
58
60
74
71
83
64
78
78
88
71
55
56
58
57
49
110
103
50
57
60
63
64
70
78
69
71
71
70
73
77
77
78
78
63
67
68
80
98
74
108
132
168
164
142
130
165
160
161
144
142
99
100
99
101
115
83
82
56
58
128
138
133
128
144
167
165
178
172
179
194
183
161
181
178
168
129
117
92
109
121
161
162
162
125
131
152
138
123
116
157
151
154
150
142
135
138
129
125
106
137
134
118
101
111
111
115
133
113
135
134
126
125
106
148
133
135
155
150
104
114
147
156
148
163
179
144
125
145
156
144
155
139
138
157
165
172
167
159
159
143
157
160
132
135
115
135
148
128
133
124
127
143
165
212
179
113
69
68
76
115
133
152
166
170
173
174
174
171
157
149
152
151
151
151
148
145
132
110
113
119
107
97
84
70
59
145
114
149
59
60
58
49
63
70
77
118
97
66
47
48
52
49
54
53
50
54
64
57
62
55
61
57
64
75
88
66
48
49
54
86
118
100
61
55
66
64
80
59
66
141
135
91
50
126
62
47
88
45
46
52
61
66
94
113
89
65
98
98
106
70
77
66
80
76
56
56
60
65
65
59
80
85
73
89
160
154
53
56
62
60
66
121
89
49
57
59
63
63
76
68
71
84
67
75
99
90
75
78
77
68
61
64
94
92
159
194
85
88
83
88
111
110
125
134
148
110
130
136
146
131
113
90
105
105
112
147
158
118
137
150
156
141
163
160
151
122
107
83
115
105
104
101
80
91
115
136
112
159
139
137
156
169
166
165
157
144
126
140
122
143
133
141
171
116
105
117
145
127
112
134
135
116
101
86
128
132
126
123
109
140
146
158
178
156
142
122
154
142
150
147
142
88
79
88
122
150
144
164
172
148
162
151
131
155
138
156
155
146
127
101
121
124
127
151
137
138
133
167
146
214
182
149
83
64
61
84
109
130
143
158
166
170
171
170
166
159
159
158
161
157
148
142
119
114
118
117
96
83
66
52
140
155
53
99
96
63
58
52
46
62
70
96
62
51
63
69
77
81
73
54
53
51
52
53
53
59
56
49
49
56
72
45
83
83
57
64
130
99
96
54
65
85
86
55
53
94
104
104
54
117
60
82
136
70
45
63
68
67
64
67
53
74
92
105
58
54
53
44
86
67
55
57
57
50
57
82
64
113
117
53
82
157
75
133
63
66
65
56
59
84
64
58
60
86
79
65
70
80
68
67
74
86
80
85
88
84
62
78
176
100
132
136
118
95
93
79
109
142
158
121
117
115
129
119
131
123
148
116
132
110
130
135
122
124
106
85
115
68
149
160
163
146
177
101
82
106
101
99
92
88
110
119
132
119
126
123
126
119
138
138
148
180
168
169
145
135
132
136
125
142
145
139
130
147
163
148
138
152
155
136
160
123
106
108
110
102
111
153
164
143
123
153
112
83
113
120
160
91
68
77
93
139
158
159
138
116
112
133
140
142
154
130
141
160
158
99
132
157
165
141
134
127
143
160
141
211
183
166
113
61
60
67
83
99
105
118
134
153
151
151
151
149
150
147
145
142
140
118
115
114
117
98
71
61
50
128
182
140
40
65
108
76
85
93
83
54
62
67
61
79
84
81
63
56
64
54
52
53
54
52
48
57
59
52
49
51
52
39
43
54
60
70
84
68
81
102
92
64
112
75
119
56
48
52
55
67
68
89
114
68
63
75
63
55
72
59
72
63
81
94
73
98
101
78
85
66
67
58
59
50
50
91
105
158
163
114
55
101
139
145
91
54
65
56
56
65
56
56
57
58
60
65
67
64
60
64
67
71
76
85
141
92
108
172
113
119
151
141
103
92
92
91
100
129
114
123
117
134
128
120
88
117
101
76
84
95
102
104
126
115
90
99
110
117
138
173
173
167
138
109
81
90
107
84
101
99
129
130
128
117
117
111
106
122
145
165
173
175
173
148
130
130
151
160
153
152
125
140
147
168
173
160
177
173
143
131
117
154
140
116
117
112
145
120
111
146
153
94
81
83
98
109
136
124
116
117
95
122
157
136
136
132
131
120
115
112
119
134
140
166
152
122
130
159
154
143
140
143
172
141
143
206
184
173
132
93
55
54
55
67
77
89
101
112
121
120
128
126
127
122
115
114
103
100
99
98
87
74
58
49
110
172
179
122
32
62
85
135
181
119
116
91
131
78
52
92
69
61
54
51
46
47
59
53
58
54
50
58
57
60
58
58
51
46
51
59
43
49
55
61
63
74
133
105
95
118
157
147
87
48
65
58
146
131
117
81
67
60
54
50
59
57
64
54
57
60
57
63
94
83
56
58
88
74
68
69
72
85
79
116
120
118
90
55
117
99
53
60
64
57
56
54
57
55
55
56
58
61
60
122
146
61
66
72
74
112
156
126
127
125
130
99
116
138
163
107
95
99
98
143
164
159
129
91
99
108
136
101
84
107
128
136
144
141
154
154
160
185
189
185
168
155
160
155
94
119
82
88
91
84
106
105
113
117
93
107
109
113
123
147
151
153
153
142
125
127
135
149
119
122
147
142
103
152
182
176
169
155
151
153
164
137
126
155
147
136
137
149
121
98
92
96
112
118
88
111
113
109
109
112
126
118
128
106
97
126
144
145
142
128
138
135
127
138
132
124
158
161
135
155
154
129
148
180
135
125
141
205
185
176
158
115
82
52
50
45
56
60
62
78
91
93
104
100
100
87
88
87
76
73
72
73
66
59
56
97
157
173
182
119
34
60
74
105
91
87
104
120
73
65
60
69
72
55
52
53
48
57
76
73
60
73
56
54
56
55
63
57
69
92
118
125
92
52
58
69
79
143
72
64
54
113
134
122
104
99
54
99
157
117
68
57
58
52
69
62
56
56
53
54
58
56
65
93
79
43
44
59
64
69
61
95
97
119
115
116
136
127
177
101
126
71
104
83
54
55
58
88
65
49
55
58
61
61
63
74
81
85
118
124
125
127
121
133
114
155
156
149
127
135
147
124
95
112
124
158
162
163
138
155
152
124
101
122
122
107
138
148
160
179
164
137
140
156
158
160
149
146
130
150
141
128
108
121
104
122
118
136
148
154
128
136
113
123
137
149
157
141
140
135
116
110
87
106
139
131
96
100
125
115
94
102
107
128
107
85
97
106
112
108
138
124
144
130
110
94
111
92
81
106
111
98
118
98
99
123
125
134
115
123
124
118
123
136
121
99
107
118
138
127
126
123
163
137
162
135
129
133
152
179
108
109
112
200
185
177
165
141
105
73
54
40
42
47
50
60
71
77
78
78
68
63
60
55
52
50
63
65
58
56
105
155
165
171
183
117
32
63
75
78
105
115
91
64
83
99
56
56
57
53
50
67
57
73
80
86
92
112
70
58
65
98
75
56
57
144
84
132
114
151
142
73
77
159
77
58
49
49
57
70
128
122
92
85
105
60
55
57
64
42
55
61
53
52
49
50
55
56
67
74
63
86
52
61
56
91
76
54
73
83
93
79
115
156
166
118
61
88
63
53
56
53
41
45
64
55
51
51
56
71
74
92
77
84
134
159
152
144
149
170
193
164
140
137
142
115
134
117
117
121
131
101
135
118
122
133
116
122
108
106
114
103
135
104
130
202
206
193
184
174
180
189
179
154
142
127
145
134
127
113
147
138
124
151
144
120
120
122
132
129
136
148
151
157
168
167
156
143
169
119
111
96
93
121
106
97
104
123
109
94
99
131
112
142
123
117
150
154
138
112
105
109
94
106
89
97
88
117
117
111
125
88
102
106
132
129
108
134
149
148
138
122
124
153
169
158
157
146
127
140
128
133
147
175
197
152
97
90
90
181
188
179
167
153
125
107
78
43
38
38
43
50
53
58
57
56
48
48
46
45
46
50
55
55
59
103
143
162
167
172
183
117
31
54
86
92
113
103
70
66
63
58
56
56
56
53
54
102
72
50
66
126
119
129
88
99
99
71
64
53
54
191
94
46
117
151
134
146
86
61
60
57
73
72
81
105
97
72
62
83
94
92
78
58
70
40
51
49
52
52
78
58
60
97
152
131
85
69
82
77
54
86
98
89
72
62
66
64
51
53
81
77
151
100
134
51
64
65
53
70
46
52
67
79
124
163
94
59
56
65
85
89
89
130
96
117
109
88
87
127
188
192
140
125
121
129
118
127
142
121
143
150
136
145
132
103
105
94
76
118
146
199
221
224
214
192
177
176
175
178
170
149
131
121
116
133
132
132
109
122
131
133
129
144
118
128
129
147
144
154
167
162
160
159
148
140
119
130
147
133
127
136
130
115
104
118
120
119
126
85
119
105
125
135
104
126
134
127
112
92
108
108
132
111
116
117
119
111
103
88
109
112
142
145
118
117
120
118
135
125
145
156
161
168
161
168
160
160
174
177
179
141
84
74
88
129
190
179
167
155
132
114
105
85
52
38
38
40
42
49
43
41
38
38
38
40
40
43
46
74
110
144
147
143
167
172
183
119
28
50
81
90
116
129
75
77
73
55
58
57
56
54
82
97
128
113
100
121
136
114
107
113
109
87
86
55
51
50
46
92
75
192
205
112
84
65
44
68
85
67
74
87
55
54
57
55
73
99
87
59
63
55
59
62
64
76
53
59
76
73
60
89
78
56
60
82
70
82
87
94
82
76
65
57
50
77
119
76
83
93
114
57
59
51
114
95
68
111
117
127
97
97
55
58
59
57
67
71
79
120
97
98
74
76
81
128
149
130
120
118
109
108
140
133
158
144
136
123
151
148
181
164
115
121
126
118
152
183
215
195
205
213
200
183
177
179
179
125
176
149
113
121
141
130
125
137
131
134
122
119
147
137
142
148
155
141
144
158
131
107
139
139
146
150
146
151
152
157
138
116
113
100
122
110
97
129
133
113
99
90
126
115
109
115
110
111
113
107
115
105
100
117
92
100
100
95
79
86
129
133
128
119
124
139
162
151
148
141
139
137
139
138
98
149
151
173
167
144
69
65
72
84
176
178
167
155
142
126
113
102
89
58
40
38
40
43
42
39
38
38
37
36
38
58
95
123
137
146
148
157
167
170
178
151
114
48
69
84
100
163
96
108
130
110
60
60
89
116
139
105
105
97
142
137
110
124
101
141
123
76
98
51
55
52
115
187
99
87
137
108
75
87
127
121
78
110
112
114
69
72
56
56
58
62
65
69
58
60
74
80
59
89
66
87
114
89
110
155
144
88
54
60
55
53
58
60
53
69
84
79
73
92
103
109
73
72
81
50
53
75
162
192
117
132
115
78
95
69
66
79
75
85
83
87
65
71
75
76
82
89
132
93
133
138
111
92
114
122
100
135
147
123
129
132
123
126
161
163
121
122
126
128
127
173
164
191
213
226
185
205
186
180
143
126
151
134
179
167
142
118
125
99
130
147
143
146
125
141
153
150
166
169
173
145
170
143
130
124
152
146
144
134
133
143
129
140
134
127
119
123
133
122
151
136
130
87
87
97
130
132
135
123
117
95
101
127
117
97
94
119
102
112
110
128
124
159
142
144
128
105
80
110
153
163
141
104
130
127
134
148
147
168
156
141
85
61
63
77
109
181
168
158
151
136
123
111
104
97
89
79
69
55
43
41
39
42
47
63
90
116
127
130
138
146
153
163
168
171
171
124
148
103
64
75
78
152
151
52
97
140
105
119
141
78
59
57
91
106
103
100
103
168
145
96
71
72
88
81
96
57
141
187
148
96
55
149
157
134
140
45
67
74
87
98
82
56
56
54
53
53
65
60
62
57
62
49
66
95
125
88
98
131
115
99
90
61
69
58
67
60
83
110
111
142
124
136
149
162
160
139
145
160
142
125
129
99
107
99
165
173
100
72
107
72
108
83
60
79
68
99
78
79
76
81
108
177
155
163
150
141
112
99
92
100
93
143
158
168
141
131
131
163
143
129
138
135
123
110
130
92
137
200
192
199
157
166
164
143
180
163
145
128
116
130
124
165
132
109
115
113
122
130
159
171
163
160
164
171
156
169
154
114
142
144
138
128
118
132
144
122
130
132
134
137
132
123
116
118
132
126
134
136
140
136
120
87
125
151
143
146
116
138
145
136
130
132
100
126
148
142
163
148
132
124
109
91
104
148
154
118
88
93
138
126
132
133
133
162
153
135
117
62
62
65
76
143
169
163
154
141
126
119
112
105
100
98
99
102
106
102
103
102
108
109
117
128
131
136
144
150
157
164
168
168
167
109
72
69
62
64
73
136
168
136
65
76
73
116
110
124
105
92
77
103
148
88
74
87
96
74
70
70
67
117
81
75
91
68
54
55
135
169
144
157
149
52
75
106
85
82
60
82
64
52
52
55
85
75
69
97
75
69
65
93
98
75
121
145
160
158
146
126
70
81
68
87
153
152
173
120
117
141
128
125
129
157
145
153
144
124
89
114
92
79
57
89
81
62
87
85
60
81
82
138
116
130
85
83
93
123
152
135
116
134
125
129
103
96
104
125
118
139
154
153
142
164
152
126
113
148
144
114
127
159
174
151
221
208
184
209
223
219
139
170
174
173
135
142
152
159
167
141
109
109
137
155
159
150
155
115
114
127
151
143
157
158
166
155
134
141
131
146
123
137
158
127
143
144
139
127
132
132
122
115
102
116
144
142
149
138
141
140
110
123
147
125
124
150
144
125
145
158
158
154
155
153
140
123
111
97
88
102
139
156
138
94
76
97
139
121
129
124
125
159
151
143
131
86
61
63
67
76
161
163
155
146
130
123
116
111
107
109
108
111
115
115
115
116
119
121
125
131
137
143
149
153
158
163
166
163
150
91
73
54
64
62
81
128
148
141
162
121
71
79
78
126
113
115
102
73
90
69
55
88
111
72
69
68
69
69
68
99
161
142
111
152
107
77
70
92
85
72
86
83
69
60
58
58
57
79
48
56
65
65
65
100
66
60
80
116
120
129
133
150
154
164
160
130
75
98
109
143
113
141
114
129
134
116
97
123
161
154
126
122
119
126
141
131
126
95
84
74
103
105
112
143
110
122
101
144
113
126
84
70
122
162
90
90
128
105
129
117
78
94
79
111
93
160
134
153
162
125
148
163
163
165
156
172
154
114
131
185
199
201
193
216
209
173
176
144
136
143
139
116
133
130
135
135
131
166
157
155
147
156
135
130
164
137
148
169
169
171
184
154
143
179
130
129
135
114
123
127
129
136
136
140
139
141
132
125
104
99
89
132
135
145
127
122
144
137
113
121
151
157
168
166
162
154
151
150
140
128
117
92
88
93
105
134
143
150
124
74
91
119
136
120
124
127
123
152
150
144
136
127
68
69
64
69
102
159
153
146
137
126
123
118
114
115
115
118
121
123
124
126
128
128
130
135
141
146
150
154
159
161
162
158
125
76
60
54
58
65
102
119
136
109
120
143
154
131
100
137
147
118
126
161
176
162
120
148
143
112
78
77
73
69
114
106
147
160
78
77
64
91
97
83
72
71
86
54
71
58
59
72
58
75
55
51
55
59
92
80
89
86
163
156
151
159
168
161
157
169
161
168
114
71
142
130
127
132
109
104
119
116
139
140
151
113
148
165
143
125
140
129
113
107
117
116
94
84
118
94
98
87
99
152
142
81
84
115
109
116
123
122
116
109
98
110
136
115
96
65
87
146
147
150
114
155
159
146
138
163
155
174
139
154
127
137
161
173
176
205
194
168
145
131
129
159
129
128
137
131
166
149
173
141
149
141
151
167
139
156
160
120
157
150
168
164
131
150
164
150
150
142
148
141
122
123
143
130
123
159
186
182
162
157
140
130
143
113
128
141
125
158
135
161
166
170
164
157
150
131
126
117
127
135
126
115
88
76
88
103
126
130
145
148
99
57
119
127
134
138
117
122
119
142
154
147
143
137
110
68
60
63
59
121
146
141
136
132
129
125
119
120
119
121
123
124
127
130
131
133
137
140
143
148
151
154
158
158
155
137
103
63
50
52
60
69
117
125
130
96
99
106
128
148
167
157
161
133
119
113
98
112
116
114
138
146
126
123
63
70
71
81
87
74
73
70
60
60
60
75
62
78
62
57
54
60
98
123
87
112
106
58
62
58
112
97
99
86
113
140
145
156
149
139
140
144
122
135
147
115
135
170
165
141
150
167
163
142
124
124
116
128
165
146
134
148
136
132
126
124
122
153
145
132
79
89
114
102
111
151
163
103
122
139
141
127
100
116
122
132
120
142
120
120
139
120
101
159
174
152
151
156
156
170
134
116
143
193
139
156
115
120
147
151
107
128
194
174
127
136
160
146
143
142
141
109
97
121
121
135
147
143
143
122
143
138
124
160
152
156
157
164
166
159
153
139
143
151
164
155
153
147
152
144
152
144
182
162
170
142
159
152
155
144
142
118
157
168
163
161
149
143
125
121
128
116
110
125
131
130
116
93
76
78
94
119
125
129
135
125
61
73
121
138
130
142
117
117
122
127
155
152
148
143
129
67
53
51
54
62
131
134
134
132
132
131
129
127
125
125
126
127
131
134
138
141
142
143
146
149
150
150
150
148
139
115
82
47
47
50
57
89
120
124
127
81
89
97
83
92
88
126
151
166
163
147
115
116
123
139
137
114
125
144
90
67
90
116
100
73
71
93
117
117
50
69
101
109
63
60
54
85
135
140
152
118
79
58
61
54
65
68
50
44
94
149
153
163
166
124
155
156
139
144
131
116
126
114
109
145
139
176
132
123
134
139
130
141
135
143
151
138
128
127
141
153
163
156
136
145
142
154
150
150
124
109
94
127
136
160
142
112
106
109
122
117
117
119
138
147
126
140
143
124
168
140
173
166
165
154
173
151
167
151
158
163
161
151
160
159
147
141
163
161
161
152
147
161
147
135
132
143
133
118
136
159
126
117
117
124
143
138
129
135
145
151
154
146
150
167
167
173
170
154
172
163
141
147
152
147
150
154
124
138
129
150
168
154
135
152
172
174
158
140
138
142
130
115
112
116
105
101
115
118
122
110
96
78
68
86
111
120
118
124
128
109
55
95
112
121
124
122
136
110
119
107
140
151
149
141
130
96
52
49
46
46
70
128
130
131
131
132
132
131
131
132
133
134
136
140
143
144
144
144
146
148
147
144
141
136
120
94
51
45
47
52
54
106
120
120
118
77
81
90
102
97
66
66
80
89
118
144
165
163
153
141
143
161
134
100
117
112
99
88
102
69
90
100
164
143
60
71
70
99
71
79
68
132
165
139
137
148
63
58
64
59
41
52
42
47
156
168
169
168
171
168
181
153
168
149
121
133
122
126
125
131
136
130
136
120
137
147
160
165
160
157
141
149
166
152
112
103
125
109
127
122
131
152
176
163
154
141
167
146
140
123
146
130
136
121
103
119
134
126
155
124
152
147
136
132
148
150
141
157
157
157
169
171
162
158
173
170
181
179
178
175
155
129
121
164
158
130
163
122
116
142
159
147
143
124
135
128
138
134
128
143
145
128
136
130
150
156
146
142
161
169
166
158
174
156
157
152
161
163
165
169
145
130
125
139
129
111
123
127
162
159
132
130
129
129
132
128
115
111
107
107
102
101
112
118
116
98
80
68
74
99
109
110
113
118
122
94
55
87
87
118
136
106
119
113
101
109
107
142
142
137
124
116
77
51
45
43
46
81
127
129
131
132
132
132
134
137
138
140
141
143
144
144
144
143
144
145
142
138
133
119
101
65
43
44
46
48
80
106
116
116
102
79
77
76
94
96
102
83
94
110
92
65
77
102
132
154
160
140
128
130
128
133
149
147
134
109
92
73
103
61
55
49
117
114
155
121
83
67
79
87
85
127
69
59
63
54
37
38
38
104
142
136
163
158
163
167
163
154
151
167
154
162
163
141
150
139
139
120
123
147
147
129
143
149
165
153
152
147
135
123
155
156
150
156
135
137
150
150
142
118
142
164
149
151
115
124
127
129
144
143
151
123
131
123
102
117
137
146
143
131
161
134
139
148
148
144
139
125
160
167
164
167
167
157
171
150
148
144
136
152
207
120
137
119
136
137
138
143
137
147
127
134
134
127
101
133
134
118
123
149
142
144
154
159
174
173
181
175
175
169
168
163
159
159
146
134
141
134
120
127
112
137
163
162
146
129
118
127
124
125
127
116
107
98
100
95
89
98
113
115
103
83
68
70
89
103
106
108
106
109
123
88
59
74
92
128
137
120
100
108
111
102
98
123
141
137
132
120
110
63
51
46
47
49
95
125
129
132
134
135
138
140
141
144
145
144
144
145
145
143
143
141
138
130
119
103
78
42
45
45
47
55
97
108
114
119
86
72
75
68
89
80
93
83
83
88
98
94
81
84
89
71
70
99
133
157
165
171
161
150
145
148
126
85
76
53
51
58
124
140
85
119
154
150
103
77
110
173
55
57
41
38
39
38
86
123
168
186
165
161
172
170
175
164
164
176
151
162
136
140
134
127
134
128
115
129
110
148
133
141
158
168
135
148
146
148
164
160
159
138
152
154
136
150
145
167
151
140
148
164
134
154
146
119
129
117
102
130
138
138
154
128
97
118
149
123
123
126
155
159
161
166
151
159
162
162
163
162
148
171
170
170
163
172
162
140
147
146
158
161
150
124
121
123
139
151
141
122
138
134
146
166
152
147
148
151
173
154
158
121
158
163
154
145
166
170
172
158
166
158
133
140
144
145
144
132
143
141
129
126
115
104
115
114
121
124
121
101
90
89
91
88
78
100
111
111
90
76
69
72
85
98
105
101
106
107
120
89
56
70
99
118
89
98
116
86
104
107
88
97
135
140
133
127
122
100
55
53
50
48
48
114
126
132
137
138
141
143
144
146
147
149
149
149
148
144
140
138
132
120
108
92
50
46
49
49
48
84
105
110
113
115
68
72
68
76
80
77
82
75
79
82
82
93
91
75
78
85
83
81
80
71
93
139
148
147
166
168
158
165
109
63
113
151
157
168
143
149
160
161
142
150
127
92
48
59
37
36
37
113
155
135
152
135
166
159
162
164
164
136
124
156
170
160
139
131
143
113
113
103
114
121
144
139
155
159
172
150
130
132
141
109
119
142
160
149
149
138
153
154
148
171
142
132
148
142
140
153
167
126
128
167
131
144
169
154
120
128
125
129
135
145
140
130
151
157
164
168
178
168
179
175
172
167
160
176
174
166
179
157
149
152
149
145
163
161
156
155
140
147
155
155
149
157
155
160
151
134
138
156
143
167
167
150
145
151
153
143
147
148
154
154
155
158
141
128
131
127
142
145
127
148
121
74
131
118
103
108
113
118
125
121
109
96
80
78
80
78
89
106
110
99
79
69
68
78
88
99
102
101
104
106
109
86
53
83
106
101
71
92
113
108
77
89
110
94
103
141
136
138
129
121
92
60
51
49
49
71
126
131
139
143
145
147
150
149
151
152
152
151
150
148
142
134
125
113
102
67
45
49
50
57
70
102
103
111
112
102
71
70
70
76
72
74
77
69
78
79
79
79
86
85
73
75
78
78
78
85
94
93
90
120
158
173
162
167
138
151
177
145
163
148
163
152
157
160
152
164
161
101
59
60
39
42
103
147
169
163
169
157
133
161
184
173
173
173
170
146
136
158
155
159
143
141
119
137
134
113
128
140
133
141
148
129
115
128
111
120
126
135
130
135
135
128
142
145
157
141
130
127
124
134
157
151
127
129
114
110
111
148
141
133
148
164
140
136
138
154
163
161
133
108
145
170
147
165
179
163
165
168
168
173
166
172
161
154
160
150
153
135
170
155
152
165
171
148
144
169
150
157
153
140
175
159
104
104
115
159
138
144
162
171
161
141
165
168
169
164
145
135
129
168
161
162
142
135
141
125
62
103
130
113
103
109
113
116
118
105
89
73
73
78
78
78
90
107
103
87
71
69
69
78
92
96
98
98
101
104
109
83
48
81
91
90
66
76
96
106
116
77
76
101
106
126
136
135
131
123
110
71
53
48
49
46
137
140
136
144
149
152
154
155
155
153
153
153
152
150
142
133
125
114
96
41
47
47
51
63
99
113
113
115
116
84
67
67
81
76
72
76
74
63
68
75
74
72
74
78
73
71
72
73
77
84
92
94
93
106
97
121
163
166
140
145
140
164
156
162
147
155
163
155
153
155
147
127
51
59
45
49
152
167
134
148
139
154
171
178
153
165
172
167
164
147
136
150
158
161
160
163
156
151
148
149
168
159
171
160
164
132
118
134
122
155
142
146
143
146
130
108
126
144
131
134
124
146
142
134
141
165
137
142
127
109
128
152
123
124
151
147
154
149
143
120
139
142
152
148
139
125
150
126
140
143
145
167
134
141
153
176
185
157
150
163
163
177
164
159
152
139
131
150
171
151
156
166
134
143
149
158
156
174
169
154
174
165
156
168
161
164
161
172
162
143
160
135
136
140
155
141
143
145
138
76
49
116
116
103
101
109
111
111
107
87
71
61
63
73
77
81
97
103
91
75
73
74
70
82
92
97
99
100
100
103
106
79
53
81
82
77
62
65
71
80
107
100
81
69
74
86
109
109
113
110
108
88
48
49
47
48
105
210
199
187
173
162
157
155
155
154
155
154
154
152
143
135
126
127
51
44
45
46
49
71
106
113
114
117
109
65
68
62
69
66
73
76
66
62
65
74
73
71
69
71
72
69
70
69
76
83
81
90
90
91
100
111
93
131
175
166
165
161
144
160
158
160
141
141
134
124
139
136
52
84
52
81
177
154
168
157
150
165
176
172
176
180
177
162
137
154
157
153
142
143
153
163
170
164
154
160
140
138
137
128
139
151
121
111
122
132
143
145
138
142
138
129
110
112
123
114
141
131
136
142
141
149
161
143
133
149
135
134
143
153
155
164
163
139
157
148
146
151
123
121
135
138
147
160
128
140
153
156
114
155
147
130
156
156
143
153
141
142
144
134
132
129
142
144
130
140
150
126
124
116
109
113
141
140
142
147
146
158
157
164
159
169
162
149
161
168
168
155
139
139
134
123
135
154
101
56
51
126
107
104
106
109
109
106
86
69
61
56
64
71
78
84
101
101
89
74
68
66
70
81
91
98
98
97
95
99
101
82
53
76
75
70
61
64
65
71
77
87
100
110
104
73
58
58
70
86
86
88
86
87
82
70
67
197
204
208
213
214
214
213
210
206
202
196
188
183
182
183
186
88
47
45
47
46
62
91
98
101
108
109
80
60
56
62
62
58
70
85
66
61
61
67
69
70
65
67
71
69
68
70
71
71
82
86
88
87
93
100
108
107
119
162
166
163
173
157
160
156
140
135
145
131
121
138
53
66
52
87
143
168
164
171
159
163
172
173
168
169
146
143
147
162
142
142
149
148
161
167
163
162
153
153
147
138
143
165
147
145
114
127
103
109
106
135
119
128
128
139
132
134
153
145
150
145
134
129
123
114
134
128
129
163
150
147
133
173
147
158
155
137
127
122
143
149
156
144
134
158
139
123
134
133
135
120
148
145
148
113
132
133
129
140
127
146
122
96
140
126
103
114
111
118
113
118
139
147
137
153
154
170
152
132
132
147
167
155
163
169
157
153
167
163
167
173
167
155
164
165
171
117
64
50
72
115
105
106
104
105
100
89
71
59
54
55
63
68
74
92
100
94
84
74
69
68
71
80
90
94
101
98
95
94
93
77
55
74
72
66
61
63
61
68
72
72
72
74
79
83
80
89
87
77
76
71
69
70
62
65
57
181
205
210
211
213
213
213
213
213
212
211
211
208
205
202
127
49
44
48
47
48
88
94
98
97
98
96
54
55
57
59
53
55
55
67
73
60
58
62
66
68
65
62
67
69
65
66
69
73
81
79
76
75
82
91
97
99
111
123
158
166
146
162
168
158
154
139
140
148
165
143
56
80
62
118
166
162
149
138
161
169
165
166
173
167
163
160
149
136
154
158
146
149
160
162
157
164
154
145
138
139
153
158
141
135
130
133
116
132
113
134
144
139
137
137
133
158
145
134
151
139
144
142
130
125
122
149
148
135
162
144
155
145
162
162
151
167
165
155
159
177
171
161
147
136
137
146
144
106
111
103
134
159
146
154
159
128
136
132
128
136
136
110
127
116
112
110
111
108
130
103
106
135
121
136
162
152
121
148
143
155
158
155
151
155
149
158
165
151
163
154
130
153
166
158
145
86
60
48
86
110
102
99
101
101
85
73
61
53
50
55
63
70
81
95
95
86
80
75
67
67
76
83
88
92
95
97
97
93
91
77
58
68
70
69
64
63
63
62
62
65
72
71
63
56
58
70
82
98
98
88
90
83
67
66
58
166
205
212
214
216
216
216
216
216
213
212
210
206
203
164
44
46
45
46
47
84
97
98
99
97
97
67
50
54
56
52
52
52
45
57
80
59
57
60
67
66
63
61
63
64
61
59
67
77
77
73
72
69
72
77
82
84
86
107
133
145
156
147
154
151
146
138
128
124
154
117
45
49
56
101
166
167
166
151
158
166
169
177
179
174
179
174
158
152
151
157
163
162
157
163
166
164
170
167
180
170
163
165
161
159
152
155
154
146
156
139
133
138
140
144
155
155
124
151
138
159
160
156
146
150
155
169
161
150
148
163
165
159
171
168
167
167
168
159
150
133
129
143
145
147
133
133
126
141
122
147
159
113
115
160
170
169
140
125
139
151
152
156
112
111
116
111
113
118
104
136
131
132
155
162
156
122
123
157
187
164
162
143
135
145
158
141
125
110
126
107
128
114
147
145
105
77
58
49
87
102
96
95
96
85
75
63
52
49
49
59
71
78
83
90
92
84
77
75
71
76
82
84
89
90
90
95
92
91
93
79
58
60
66
70
68
65
64
57
55
54
61
67
65
62
64
65
62
58
47
73
56
66
66
65
50
181
209
215
217
218
218
219
219
219
218
216
211
206
200
75
48
47
48
51
75
101
100
103
98
96
79
50
52
52
48
49
53
50
43
49
76
64
55
59
64
66
63
59
60
59
57
57
70
74
73
70
67
64
68
67
76
76
75
83
110
139
147
152
141
154
160
144
134
134
137
98
52
53
54
102
172
170
178
163
170
170
191
174
166
171
169
160
132
157
161
163
165
160
168
155
156
159
161
165
175
177
174
163
165
146
150
156
122
121
134
139
131
152
139
133
145
150
137
145
164
144
162
151
149
165
158
151
157
149
148
159
167
175
174
166
168
171
154
164
166
173
162
164
179
164
147
116
127
146
131
168
171
160
142
149
179
203
159
162
167
161
170
168
149
140
134
139
141
148
162
118
144
126
132
146
142
146
152
139
141
142
156
151
134
149
150
170
142
154
163
142
134
132
155
108
93
71
58
49
83
100
93
90
84
78
65
57
51
46
49
66
71
81
90
88
85
81
77
73
76
81
88
90
92
92
88
90
89
93
87
77
60
59
62
64
67
69
65
59
50
47
48
51
55
58
68
70
68
60
185
212
193
68
63
63
52
188
203
218
227
228
229
229
228
228
226
220
213
209
152
47
48
49
48
66
93
94
98
97
92
82
60
58
52
49
48
51
52
47
42
50
72
69
53
57
60
63
62
59
59
57
55
56
62
67
64
65
61
61
60
59
70
75
65
71
81
100
136
135
156
135
151
130
127
126
123
99
51
50
51
93
152
113
120
157
176
163
162
171
171
168
171
153
179
143
146
170
152
133
139
158
160
164
163
160
157
163
172
172
167
144
143
135
117
119
143
151
168
172
170
164
181
160
159
168
158
163
159
161
163
169
169
184
149
155
155
172
170
181
172
173
162
170
171
179
155
160
174
178
174
173
159
157
159
157
166
173
178
173
158
175
172
179
171
174
169
163
166
166
175
156
150
146
152
163
147
151
146
156
149
146
154
172
166
169
174
169
171
159
167
132
159
146
152
130
152
145
137
145
125
93
83
68
57
49
85
88
83
82
78
66
59
54
48
46
52
65
75
85
85
88
84
81
78
74
79
83
88
95
95
91
89
89
90
90
91
79
61
59
62
61
68
70
73
68
60
49
43
44
45
47
56
62
65
80
187
97
181
72
61
62
65
193
195
210
223
226
231
232
233
232
228
218
214
211
82
53
52
51
53
52
53
53
55
61
57
58
55
52
51
52
46
49
48
45
43
49
64
66
54
57
60
62
63
60
59
56
53
52
55
59
61
60
58
56
56
54
67
75
65
66
70
80
105
130
152
153
138
128
106
103
126
112
44
45
51
72
116
150
135
159
174
159
180
169
180
179
161
172
139
169
172
165
152
171
157
165
164
160
152
161
165
172
176
173
176
178
126
108
121
122
146
164
163
168
157
169
129
138
160
167
173
173
168
163
166
163
160
144
156
128
155
161
168
167
167
173
178
178
173
171
187
182
186
180
180
175
181
169
153
146
160
172
166
175
171
157
155
160
160
151
166
167
172
167
130
143
148
161
145
146
153
161
150
161
164
163
172
169
166
173
175
175
173
170
161
144
152
165
150
114
132
157
135
131
114
82
79
76
63
59
85
81
80
80
72
59
56
49
45
48
59
71
81
88
85
88
86
82
78
77
81
89
98
101
98
96
87
89
90
91
88
80
60
59
60
61
61
66
72
80
77
66
52
45
44
44
48
52
60
69
153
147
83
65
65
67
108
212
209
216
226
233
236
236
235
231
225
220
205
98
50
48
45
43
42
42
42
43
45
49
48
50
53
54
49
45
41
46
47
44
42
50
61
66
56
55
59
61
61
58
56
55
52
51
52
53
58
57
54
52
50
54
63
68
63
65
67
76
81
111
119
140
133
154
113
128
127
114
45
46
51
119
150
148
135
125
142
176
168
176
176
173
163
158
160
149
154
146
144
160
172
168
166
159
155
153
155
174
184
177
161
124
131
133
107
143
151
154
157
149
158
160
180
177
174
170
168
177
172
168
160
148
133
123
131
128
164
171
178
167
161
174
176
170
176
163
155
173
166
156
157
162
136
167
120
146
174
163
177
165
171
173
159
156
162
163
149
172
161
161
157
142
121
141
141
139
143
150
166
166
169
163
167
166
173
173
170
173
171
170
171
181
176
156
144
140
148
137
158
142
99
84
76
72
66
63
76
73
74
70
61
57
53
48
45
48
65
75
79
80
83
87
86
81
79
78
86
96
102
102
101
96
87
92
90
92
88
83
64
57
62
64
63
62
69
79
80
76
72
69
54
51
51
49
53
64
74
81
74
71
67
65
136
204
217
224
232
236
238
237
233
229
225
224
133
50
47
45
42
42
40
41
43
44
47
50
53
52
46
40
40
42
47
48
46
43
44
49
59
64
56
55
57
59
60
58
56
53
51
51
51
53
54
54
53
49
48
54
64
66
63
61
64
67
79
97
118
116
120
122
117
137
124
109
45
45
51
98
136
147
160
160
167
162
160
173
171
169
134
105
134
145
142
150
150
134
139
155
152
155
160
158
167
159
162
170
155
163
150
129
139
160
160
158
179
166
153
155
167
166
162
173
174
166
168
167
171
159
155
147
171
169
172
172
174
178
168
158
138
160
174
187
171
165
177
168
188
149
139
124
139
132
139
148
141
151
152
161
160
162
171
182
171
150
158
164
158
145
153
137
147
139
139
148
150
157
146
162
158
154
156
154
168
159
158
159
163
152
159
149
149
154
138
137
148
170
85
83
73
70
68
63
74
70
71
70
58
51
47
45
46
55
67
73
77
80
82
81
83
80
76
78
86
94
101
102
101
100
94
89
88
86
88
80
63
57
61
67
65
64
69
75
75
81
82
79
75
75
79
78
79
79
78
74
70
68
70
63
150
200
217
226
232
236
237
234
228
224
221
217
107
48
45
45
40
39
35
36
38
40
43
43
42
39
40
42
47
49
48
45
44
44
45
50
58
64
57
57
54
57
59
57
57
52
51
50
51
52
53
53
53
48
47
54
59
62
66
57
59
67
74
86
92
105
133
110
112
99
102
114
45
45
49
99
119
122
133
165
183
144
170
164
174
177
143
114
130
137
125
113
131
132
130
137
148
147
151
167
164
160
153
158
155
150
158
153
141
130
152
176
170
170
156
169
162
168
172
172
167
172
181
180
170
167
180
160
164
175
175
178
167
149
171
180
164
169
158
164
159
181
146
170
146
171
143
170
124
144
173
171
147
183
184
183
168
172
173
160
143
143
132
135
140
153
143
164
148
147
144
155
153
146
168
159
150
165
165
171
174
174
176
170
145
130
171
173
153
172
162
132
151
178
118
78
70
58
64
62
73
66
72
62
53
47
44
43
47
57
69
73
75
78
81
81
82
80
75
80
89
94
97
100
98
96
94
89
89
89
86
82
69
55
61
67
66
65
68
73
75
75
89
73
72
76
82
83
88
84
78
68
66
62
71
61
168
198
216
227
232
236
236
232
227
223
218
207
84
48
43
44
58
88
99
73
36
40
42
42
43
43
45
46
49
48
47
45
44
45
47
51
56
61
58
56
54
56
59
58
57
53
49
49
49
49
51
53
51
46
49
57
58
59
59
58
59
65
72
73
68
93
105
134
131
116
123
130
48
45
49
89
100
93
120
122
148
133
147
139
155
125
113
126
134
142
134
132
135
141
125
129
141
154
164
171
152
159
172
163
161
156
141
136
157
143
134
142
142
156
171
153
156
164
161
144
166
171
167
170
153
149
141
151
166
146
165
139
160
173
176
168
169
174
175
188
164
180
177
170
157
160
172
139
120
153
131
172
174
151
147
168
178
174
178
153
161
168
174
167
157
151
131
117
122
120
127
137
151
149
163
161
160
183
179
180
176
175
178
172
166
155
156
150
170
143
149
150
164
170
161
68
58
51
55
62
71
70
72
56
49
45
42
44
52
71
72
74
74
79
80
81
82
77
77
80
86
91
95
92
90
92
92
90
90
84
84
82
66
56
61
66
67
68
72
73
72
72
68
65
63
68
73
73
76
76
72
65
58
58
70
59
179
196
212
225
232
236
235
231
227
224
216
195
67
48
43
45
95
106
133
143
52
41
42
43
46
46
48
48
47
46
45
45
46
47
48
51
57
63
60
55
53
56
58
58
54
52
50
49
48
48
50
52
51
44
48
53
56
57
57
58
60
64
68
67
60
47
91
124
102
119
123
132
55
44
49
89
139
131
136
115
102
116
151
151
147
155
150
157
159
148
153
148
142
136
132
126
130
129
119
114
139
127
142
152
136
108
109
102
110
110
142
126
128
124
112
129
113
127
130
146
153
159
146
110
133
150
180
149
151
179
156
176
173
172
156
159
150
168
164
163
178
170
173
177
181
170
138
120
147
145
151
149
158
158
157
152
165
158
169
174
170
171
165
159
159
162
143
142
140
134
133
137
139
156
163
163
176
177
174
167
163
159
150
173
169
170
148
127
133
151
151
179
156
158
177
85
54
51
52
58
68
68
65
52
48
43
41
46
55
74
78
76
75
74
74
78
79
76
76
82
85
88
90
89
89
92
97
92
86
83
83
81
68
57
60
65
67
68
72
73
72
73
68
62
61
64
66
68
67
56
59
58
55
57
66
70
186
195
207
222
231
236
235
232
229
223
207
168
55
48
45
44
47
112
145
140
51
42
44
43
43
42
44
44
44
45
45
45
46
47
50
51
57
60
60
56
53
53
57
58
55
52
50
48
49
49
49
51
48
44
47
52
53
54
55
57
60
61
61
61
58
40
79
77
141
123
142
158
54
43
46
71
127
136
137
147
152
142
161
173
175
172
166
168
169
155
147
153
127
145
140
142
140
128
134
141
114
130
164
156
147
135
119
123
110
123
124
132
132
133
131
119
122
122
112
128
118
123
137
146
162
155
179
177
176
160
159
121
96
105
124
123
138
161
149
176
181
171
168
160
147
147
146
140
131
137
152
156
168
165
165
179
171
163
147
159
172
144
169
157
146
151
145
142
139
143
142
145
146
165
170
176
166
155
155
160
170
171
175
171
179
174
169
166
164
164
148
179
131
143
169
126
52
50
46
56
71
72
64
49
44
40
43
55
70
80
80
77
78
74
72
76
75
77
81
85
85
86
87
91
89
93
96
93
87
82
82
79
70
58
59
64
66
67
69
71
72
71
68
65
64
64
66
61
43
38
48
55
55
61
64
92
188
197
207
217
229
236
235
233
228
217
188
149
53
49
45
45
46
47
46
45
46
46
48
45
44
43
44
44
45
46
46
46
47
47
49
52
56
58
60
57
55
55
57
58
55
52
50
49
48
49
49
50
48
44
46
58
51
54
55
56
58
59
59
60
63
39
70
63
106
137
158
116
55
43
44
57
117
132
159
154
159
158
155
166
169
161
154
157
149
157
148
153
141
121
137
157
146
146
139
133
122
143
149
157
149
143
138
158
115
122
126
133
149
157
147
126
116
126
113
123
143
156
157
136
147
173
167
160
159
177
168
149
128
131
119
130
122
116
144
168
187
177
179
177
167
145
137
139
111
132
150
150
159
156
144
130
141
120
138
168
165
161
154
151
159
141
152
143
141
147
156
149
145
147
159
159
182
183
171
172
166
165
174
143
153
153
153
178
168
157
171
157
123
130
156
128
50
43
45
51
74
71
59
47
41
40
48
66
78
80
79
77
78
75
71
71
72
78
83
84
85
84
86
88
88
91
93
89
83
80
81
79
70
57
58
63
65
66
70
71
70
70
73
67
64
65
66
52
108
152
96
53
53
60
61
117
187
198
209
218
229
236
235
232
223
202
170
151
62
51
48
45
45
46
48
49
49
47
48
47
46
46
46
45
46
46
46
47
46
47
48
51
54
57
60
57
55
54
55
58
55
53
51
49
49
49
52
49
50
43
44
45
48
52
56
56
57
58
58
58
62
39
56
74
74
140
130
141
81
46
46
52
125
149
159
162
171
175
172
172
176
169
169
164
160
159
158
161
154
143
133
122
139
161
160
181
148
149
124
133
150
148
155
158
146
135
141
136
168
164
145
156
142
134
136
163
150
166
169
173
156
180
162
160
165
152
148
157
164
164
159
146
145
109
100
181
194
182
165
177
184
170
141
144
172
161
148
159
143
151
147
149
145
141
152
171
159
161
152
152
153
147
137
142
124
125
123
131
141
149
155
157
166
172
166
171
170
176
173
188
173
158
160
122
141
163
179
150
113
118
134
110
66
42
43
49
75
70
54
43
40
42
64
77
82
81
79
79
78
74
69
70
72
76
82
84
86
86
85
88
90
93
94
85
81
78
78
80
71
58
57
62
59
65
71
71
69
69
71
68
64
66
65
81
191
183
180
59
54
64
62
132
188
202
212
222
232
236
234
227
211
185
170
177
102
53
51
47
46
46
47
48
48
46
47
46
46
46
46
46
47
47
47
46
46
47
50
51
53
56
57
56
55
53
56
59
54
53
51
50
49
48
50
50
46
43
43
44
46
50
54
56
53
55
56
56
63
37
50
74
69
108
158
176
83
48
51
54
159
163
152
159
160
164
167
170
162
158
161
178
168
164
158
147
155
143
161
163
164
167
157
160
161
145
160
160
145
163
184
154
150
174
157
152
133
138
135
131
143
131
144
151
162
191
174
173
172
162
172
153
164
158
163
165
173
173
155
142
167
146
121
164
191
186
175
169
138
154
143
143
145
155
142
145
159
146
127
113
124
155
146
120
142
147
142
132
132
145
148
136
134
121
134
133
152
163
155
146
167
169
165
172
170
145
155
168
169
153
172
180
169
170
177
151
106
110
119
101
76
45
42
50
84
66
51
42
42
54
72
82
72
70
72
78
78
71
70
67
69
74
82
83
84
86
86
87
90
96
93
86
78
73
77
80
69
60
58
59
57
66
72
70
70
70
67
62
61
64
64
86
167
124
134
67
57
69
66
140
188
204
213
224
233
237
233
218
198
182
185
189
132
52
52
48
48
49
48
50
50
49
50
48
47
47
47
47
47
47
48
47
47
47
51
52
53
55
55
55
53
53
53
56
55
53
52
50
49
48
48
49
46
43
43
44
45
47
52
56
53
52
55
56
68
39
46
68
71
84
140
157
79
52
53
71
175
152
156
165
159
163
176
180
155
167
161
167
174
167
175
180
175
162
154
149
154
146
157
147
145
173
179
175
181
177
165
171
167
153
142
148
167
152
153
159
149
167
167
170
165
146
162
165
166
171
166
150
153
175
167
180
177
176
174
172
157
176
177
176
169
165
175
169
172
149
162
144
140
119
137
130
151
155
135
145
154
153
139
127
127
123
145
139
148
122
133
141
136
140
138
137
137
150
157
161
168
161
161
151
168
171
160
159
138
131
132
144
125
179
181
139
100
105
116
106
97
60
41
55
80
58
51
43
47
68
74
106
117
117
118
116
111
105
99
90
89
85
83
78
80
85
87
86
85
89
86
81
75
71
73
73
68
60
57
58
56
69
72
71
70
68
68
63
61
63
68
70
106
94
71
63
59
75
66
153
188
205
215
226
234
237
230
211
195
193
196
194
158
51
52
47
48
47
47
48
51
51
51
50
49
48
48
49
48
48
48
50
50
49
50
51
53
54
55
56
54
52
52
55
55
55
54
50
50
50
50
50
46
42
44
44
43
44
50
56
55
51
52
54
66
64
64
66
71
80
102
156
81
53
55
87
177
166
159
158
154
142
160
147
157
164
168
167
167
167
170
172
167
162
155
154
159
147
131
137
151
166
172
180
175
173
172
170
140
164
145
173
134
126
135
136
147
136
151
173
169
176
172
182
178
172
167
176
182
170
176
165
183
185
163
168
141
154
147
178
192
176
165
175
175
169
166
160
150
117
156
176
140
163
171
175
166
172
159
133
146
160
160
162
161
145
135
139
144
120
134
134
138
145
144
152
163
172
147
184
164
160
151
153
158
154
152
139
143
186
186
141
96
104
116
108
83
56
42
57
80
57
50
45
59
69
66
143
175
189
166
154
152
161
171
146
147
166
146
150
163
146
154
148
149
141
138
137
141
127
71
72
68
60
55
55
57
70
72
71
68
69
65
58
58
65
67
67
69
72
70
63
65
76
62
166
188
205
215
227
234
238
225
205
197
204
205
204
181
50
53
48
48
44
43
44
48
51
51
50
51
50
50
50
48
48
48
48
48
48
50
51
51
53
53
54
54
53
52
55
55
55
54
50
49
49
50
50
46
42
42
41
41
43
48
55
57
51
51
52
57
56
56
77
62
76
85
105
116
51
55
113
152
164
160
174
160
155
159
175
181
138
165
146
193
193
179
173
179
186
180
179
162
180
178
174
171
173
174
178
172
169
168
158
153
156
169
166
174
174
168
178
183
166
162
179
177
163
165
173
173
171
182
166
159
173
167
170
155
142
162
146
149
119
139
169
157
182
176
166
167
171
155
167
164
172
154
150
162
171
170
175
176
171
160
156
151
144
139
141
150
162
146
154
148
128
140
148
144
146
146
152
160
177
171
150
161
160
150
148
151
143
158
128
156
180
181
136
91
104
114
86
51
49
47
65
69
57
51
51
64
64
58
135
159
179
176
194
204
200
180
151
238
218
228
240
234
221
241
229
238
229
229
229
229
152
73
71
70
61
55
52
57
70
70
70
70
68
64
61
58
62
65
66
67
71
70
60
67
75
66
181
190
206
217
229
236
237
217
205
203
211
210
210
199
50
52
49
48
76
84
77
60
49
50
50
50
49
50
49
49
49
48
48
48
49
50
51
52
52
53
53
54
53
52
55
55
55
54
52
50
48
48
48
46
43
42
42
41
42
43
48
52
53
52
52
57
58
44
55
64
76
75
79
116
76
56
132
155
170
148
174
177
142
154
165
135
103
108
111
117
141
170
167
163
175
164
164
136
142
174
176
173
185
179
176
168
168
166
177
162
171
178
163
178
167
165
165
157
145
156
146
163
164
178
167
164
173
170
169
176
174
163
170
165
162
160
158
142
141
151
194
177
173
173
171
162
154
154
144
151
154
152
160
161
140
138
155
147
159
169
167
154
153
136
135
143
131
130
142
117
127
149
144
141
145
129
117
125
114
140
157
158
166
178
180
165
158
135
117
163
174
174
130
89
95
102
70
37
46
56
63
64
55
51
54
61
116
139
151
181
155
193
161
197
202
169
164
242
230
233
244
237
217
240
237
238
234
245
193
234
156
75
73
67
59
55
54
57
70
70
70
69
65
61
60
59
63
64
65
67
70
68
58
68
71
93
188
192
208
220
229
237
233
214
207
207
213
213
218
217
53
53
50
60
122
84
84
115
45
51
52
51
50
50
50
49
50
50
50
48
48
49
50
52
51
51
53
54
53
51
53
54
54
55
52
49
47
46
47
46
43
42
42
41
42
43
46
51
52
50
50
57
59
44
55
67
70
72
64
69
81
55
117
143
155
151
173
144
171
166
149
104
107
108
110
109
149
186
183
148
136
142
177
172
170
155
156
179
158
148
143
161
175
175
159
170
165
177
176
155
166
164
141
137
143
163
168
169
169
165
177
175
175
170
178
175
175
175
173
172
160
152
163
157
150
136
226
206
181
156
167
160
132
114
110
127
134
132
136
133
139
136
145
135
156
139
137
149
141
161
159
169
162
143
112
121
139
119
138
143
149
155
144
167
174
166
160
140
138
145
167
162
151
152
151
118
158
168
125
81
89
95
59
32
48
59
71
60
52
51
54
55
133
192
227
215
194
190
178
201
224
199
148
211
206
203
189
217
202
217
210
215
210
221
228
198
110
72
73
69
61
55
54
58
67
68
68
67
67
61
58
58
63
64
65
66
71
65
56
70
68
126
187
194
209
219
232
238
230
214
208
211
217
225
228
228
66
54
51
51
106
120
119
126
49
54
53
52
52
50
50
50
50
50
50
49
48
50
49
51
52
51
53
54
54
52
59
51
54
56
48
48
48
47
47
47
43
43
43
42
42
43
46
49
53
52
51
52
60
38
56
70
67
67
65
63
158
60
128
117
128
150
149
154
162
174
120
106
108
108
104
162
191
182
146
142
141
122
145
162
171
162
148
144
133
166
169
180
172
151
132
167
182
150
162
171
182
176
169
166
160
149
166
165
174
177
173
177
176
175
174
168
171
169
167
161
170
170
157
151
153
153
202
176
139
133
147
129
129
123
129
125
123
130
158
142
131
133
145
140
130
135
141
145
137
117
144
147
142
136
130
128
125
153
147
148
143
146
150
152
148
138
156
146
160
150
155
133
153
158
112
79
140
152
117
75
84
90
47
32
50
57
75
59
54
52
54
56
105
161
245
156
229
211
238
228
240
191
195
172
197
163
190
184
215
212
212
208
202
164
144
95
70
71
70
68
61
53
54
56
66
67
67
66
65
61
61
59
68
65
68
68
69
62
57
69
67
153
190
198
210
220
233
238
227
214
209
218
228
232
231
231
80
56
54
53
51
61
76
49
54
54
51
49
49
49
49
50
50
50
50
50
48
49
51
52
50
60
124
143
121
172
224
163
50
191
207
105
47
100
77
47
45
45
42
43
42
42
44
47
49
52
52
50
63
34
48
59
59
65
68
81
162
122
137
106
103
121
156
150
162
182
118
104
107
107
105
183
169
147
153
181
176
158
145
165
152
163
147
163
150
156
118
138
167
181
175
155
146
146
182
176
170
161
158
160
142
144
172
167
175
164
171
180
180
179
174
169
156
155
166
163
150
143
149
146
134
147
148
90
116
136
118
143
166
152
146
150
146
146
134
138
153
133
134
152
156
150
149
141
145
154
127
113
120
123
154
135
155
134
126
154
145
139
139
148
156
152
141
146
147
156
149
146
148
138
66
65
114
137
104
72
83
87
44
31
50
55
72
57
55
53
56
57
113
174
221
137
241
174
245
229
230
171
202
186
208
157
205
171
231
222
175
213
168
88
76
69
68
70
68
68
62
55
53
54
66
66
66
66
65
64
62
64
68
70
69
71
67
61
58
74
63
173
194
202
210
221
235
238
227
214
216
230
231
234
233
231
111
56
55
53
54
55
55
56
54
49
49
48
49
48
49
50
50
50
50
50
48
49
50
53
164
163
226
174
194
150
198
214
55
182
195
166
48
165
135
47
53
41
42
43
42
42
44
46
50
52
54
50
59
36
41
48
54
60
67
96
161
162
139
143
95
101
157
154
167
155
134
101
104
105
141
181
169
169
126
122
111
121
175
178
161
146
164
166
114
114
140
186
187
182
178
130
150
175
176
171
169
174
177
155
164
171
149
166
164
175
184
168
167
177
180
165
166
169
152
157
165
163
158
141
159
157
152
148
146
151
165
168
165
174
162
133
155
159
161
163
158
131
150
149
149
150
147
157
170
165
146
126
146
163
158
148
138
128
140
125
130
147
155
152
157
153
159
152
152
164
152
159
163
138
70
59
98
116
100
70
79
89
42
28
50
52
73
56
55
54
54
55
68
137
143
149
163
169
191
184
193
173
209
215
214
209
214
211
205
195
198
200
130
72
66
66
67
70
69
69
62
55
54
57
65
65
66
66
66
64
61
64
68
68
68
72
68
61
60
73
64
195
199
204
211
221
235
238
227
215
220
228
231
234
233
226
136
58
55
54
53
55
54
48
51
50
50
49
48
49
49
50
51
51
50
50
48
50
50
54
96
225
182
210
214
80
218
206
111
154
189
192
48
174
127
46
179
176
51
43
43
43
43
45
48
51
52
51
54
42
39
46
50
57
64
98
143
177
105
166
96
95
182
155
118
107
115
101
101
115
149
129
100
119
145
104
111
159
174
157
138
130
138
140
113
141
184
176
174
141
123
125
182
180
176
169
151
147
154
166
163
161
154
163
165
165
169
174
180
167
162
171
171
172
168
167
172
170
149
140
130
133
168
171
173
167
168
173
179
176
166
169
171
171
171
160
163
165
150
164
158
135
145
170
170
167
165
170
168
158
158
169
159
160
164
149
169
147
164
165
159
160
162
158
150
165
179
156
165
128
95
60
84
95
88
71
73
85
39
27
46
54
71
58
57
53
53
53
53
56
58
62
67
71
77
86
85
91
102
105
107
104
108
106
107
113
121
106
68
68
68
66
67
69
70
66
62
56
52
57
65
64
65
65
65
64
62
64
67
67
68
72
68
59
61
71
89
209
203
206
213
222
236
240
226
216
222
227
232
234
234
220
154
60
54
50
50
46
48
51
51
53
52
50
48
49
49
49
51
51
50
49
49
50
50
53
55
154
199
217
205
142
191
190
172
123
216
198
49
180
115
48
193
199
109
58
128
60
41
42
45
49
52
51
54
44
39
44
47
53
63
101
128
167
141
153
108
95
155
137
86
90
104
96
139
127
111
110
174
115
101
118
127
159
172
115
138
153
108
109
168
161
157
154
142
127
128
143
156
164
155
153
174
159
159
164
149
154
148
162
168
169
168
176
173
176
176
176
183
173
174
166
167
166
136
150
152
151
141
156
161
167
176
176
173
179
177
176
169
173
163
169
174
165
176
159
157
156
163
169
156
164
168
166
160
151
159
162
155
153
157
143
162
168
163
148
147
151
158
149
167
161
163
168
163
136
121
67
73
91
83
67
69
85
40
27
42
57
66
58
55
52
52
52
52
53
56
58
62
63
65
67
67
73
80
80
80
83
83
81
82
80
75
69
66
66
66
66
66
69
72
68
65
55
52
56
64
66
66
66
63
61
60
61
66
65
69
73
65
58
67
70
125
213
208
209
215
222
236
240
224
217
224
229
234
235
232
216
167
61
51
44
48
50
52
52
52
52
51
50
49
50
50
51
52
50
49
48
49
49
50
52
53
57
208
200
200
194
138
199
204
84
206
207
56
183
97
63
201
192
76
167
218
218
64
42
44
48
52
51
55
46
39
43
45
52
74
106
129
157
144
95
169
93
155
147
106
93
100
126
186
114
128
185
178
100
100
176
167
201
100
106
112
111
142
154
155
163
173
145
136
153
161
172
168
168
178
179
179
176
163
157
152
147
139
159
163
163
164
159
168
177
174
169
168
163
155
153
151
161
163
155
142
151
101
166
172
151
168
172
159
153
158
166
175
167
175
176
172
161
160
159
171
165
167
159
173
168
176
165
158
168
154
150
167
144
146
153
156
156
142
163
163
170
163
162
183
180
179
172
167
146
135
81
68
85
80
63
65
82
45
24
34
59
67
58
55
52
50
51
51
55
56
59
61
62
63
65
65
67
69
73
76
76
74
74
72
70
68
66
66
66
65
65
65
66
70
68
67
55
52
57
62
65
65
62
62
60
57
61
65
62
68
71
64
56
70
66
160
217
212
212
216
223
238
240
222
218
224
231
236
237
232
214
175
55
51
47
53
53
53
53
53
53
52
51
50
51
51
51
52
50
49
48
49
50
51
53
52
53
136
218
190
224
86
216
207
78
202
202
93
186
90
97
188
199
52
213
168
232
59
45
45
47
50
51
56
51
38
42
45
50
77
105
130
141
140
133
119
132
146
145
108
91
100
106
98
122
165
178
98
96
114
146
183
161
96
106
103
119
112
137
169
184
158
128
120
164
174
165
171
159
168
156
153
164
155
142
169
148
159
152
152
157
162
169
151
130
127
132
130
162
169
161
164
165
161
164
134
146
75
124
134
180
173
181
181
191
188
177
186
191
181
181
178
174
169
159
160
149
153
166
130
144
167
170
163
147
166
148
127
155
172
163
160
159
161
161
167
163
149
160
166
159
150
163
147
171
169
110
69
81
81
61
60
76
57
23
27
59
67
58
55
52
50
51
54
57
58
60
63
63
63
63
64
65
66
70
73
71
72
71
70
69
67
66
66
66
66
65
64
68
69
67
67
58
53
58
61
68
63
61
61
58
57
59
64
62
67
65
62
56
68
60
182
219
217
215
218
224
239
238
223
221
225
233
237
236
231
212
184
55
51
45
52
53
54
54
53
55
53
53
50
51
52
52
52
52
51
51
51
51
51
51
50
52
58
215
185
229
132
212
200
132
198
193
130
187
84
137
178
189
59
234
143
137
43
46
47
48
47
48
54
52
39
41
44
51
87
107
120
127
142
126
171
117
133
98
106
93
101
108
121
97
137
113
102
126
173
148
180
101
101
99
127
125
120
134
176
203
123
114
164
172
163
165
143
151
174
173
162
170
157
146
132
142
157
171
175
178
173
165
166
181
171
170
173
169
162
164
161
145
137
120
116
133
69
121
154
105
156
166
164
184
176
172
173
167
183
176
169
174
168
167
158
156
171
159
164
169
167
168
156
156
165
159
173
166
168
179
173
174
169
152
161
155
159
158
160
135
145
169
150
182
180
127
70
77
80
60
55
72
63
24
25
59
63
58
54
52
50
52
55
57
59
60
63
64
64
65
65
65
64
68
69
70
73
71
70
67
67
65
65
66
67
65
66
66
66
68
67
58
54
56
61
62
60
60
60
58
57
58
62
61
67
66
62
57
69
61
201
223
222
219
219
224
239
236
222
221
227
234
236
235
229
215
205
62
53
46
49
52
54
53
59
55
54
54
49
50
51
51
52
52
52
52
51
52
52
51
52
53
51
158
211
190
174
147
198
96
162
162
136
192
144
164
170
166
47
174
214
49
45
45
47
48
48
48
52
52
39
40
42
60
88
97
97
105
135
130
128
114
95
94
121
152
103
141
116
123
131
129
99
103
112
108
124
104
113
94
143
107
112
160
186
149
152
121
147
151
154
136
163
147
135
156
166
139
141
136
140
130
144
168
172
167
171
171
173
172
168
170
172
166
169
166
144
127
136
128
137
132
69
112
88
88
138
118
141
149
147
180
176
174
177
180
179
168
171
168
163
155
156
160
164
162
169
169
166
161
170
156
169
172
176
174
174
165
167
170
155
154
147
141
161
155
173
154
146
180
169
129
73
71
77
60
53
68
68
27
24
61
61
58
54
51
51
54
56
59
59
60
64
62
64
65
64
64
64
66
69
69
68
69
68
68
67
66
66
65
65
66
64
65
66
66
62
58
55
55
59
62
61
63
61
59
57
60
63
62
68
67
61
60
67
69
210
224
227
222
220
225
239
237
223
222
228
233
235
234
228
216
219
83
58
51
52
53
54
54
53
54
55
55
51
52
52
52
52
52
51
52
51
51
53
52
51
51
51
79
184
94
89
53
49
48
46
45
48
109
145
188
186
136
151
139
233
65
45
47
48
49
48
48
49
53
37
40
42
64
70
68
71
82
114
151
110
122
102
94
149
132
88
101
111
162
158
98
104
106
107
107
106
111
112
114
136
110
112
127
121
173
133
122
129
113
162
148
144
130
143
141
139
122
124
146
142
131
131
155
143
151
176
176
166
176
161
161
166
148
148
154
145
135
148
151
146
130
63
74
74
115
168
167
146
147
144
148
160
178
176
179
173
175
173
139
153
161
156
144
170
168
166
144
156
163
155
173
184
167
159
163
173
175
180
146
150
156
162
145
131
151
176
161
146
178
151
127
77
69
74
60
52
63
73
29
23
66
60
58
53
52
53
55
58
59
59
60
64
62
62
64
65
65
65
66
67
66
68
68
69
69
66
67
66
65
65
63
63
65
66
66
62
59
56
54
60
61
62
61
61
59
59
61
61
63
70
68
60
64
68
89
212
227
230
226
223
226
238
237
225
224
228
232
235
234
228
221
228
105
58
52
54
56
54
54
53
54
56
54
53
52
53
53
53
52
51
51
50
51
51
51
51
50
50
51
48
51
51
51
53
48
46
46
45
47
47
124
191
95
223
170
198
40
44
46
47
48
48
48
48
54
37
41
43
65
62
62
71
88
106
144
114
101
102
96
90
78
93
106
103
125
126
99
103
108
104
105
115
100
123
98
104
122
174
118
138
131
100
136
131
139
128
118
144
110
107
125
99
113
140
157
126
134
143
129
144
155
149
147
143
175
171
130
121
148
139
137
150
151
136
142
140
137
51
107
110
155
112
72
56
132
143
145
183
172
173
172
175
163
165
166
157
136
160
168
156
161
163
161
156
150
162
154
153
162
156
167
167
165
165
176
159
163
149
168
176
165
160
154
146
172
123
125
80
67
72
59
51
59
75
41
21
70
64
59
56
56
55
56
60
60
60
60
62
63
63
64
63
63
64
64
66
67
69
68
68
69
66
66
65
63
64
64
64
66
66
67
63
60
56
55
60
62
61
61
61
61
59
60
60
65
70
69
60
64
67
111
210
227
232
229
226
227
238
237
226
225
230
233
237
236
230
228
235
133
59
53
54
55
55
54
53
54
56
55
55
52
53
53
53
53
51
51
50
50
50
50
50
49
49
50
52
50
54
51
51
51
47
45
45
48
46
44
42
86
222
213
155
42
43
45
46
47
47
48
48
54
36
40
56
62
59
62
74
95
114
136
122
101
95
99
97
87
100
104
95
87
96
99
104
105
104
113
158
156
151
101
108
166
133
112
116
104
113
133
135
143
122
112
149
156
168
159
131
129
132
129
129
136
144
146
163
155
145
156
170
135
131
143
146
150
165
156
142
146
141
142
146
165
127
122
117
105
46
78
138
103
56
123
161
170
186
172
170
183
182
167
171
162
158
165
178
172
179
176
167
167
157
154
179
166
165
164
165
171
138
146
134
134
142
131
150
165
146
147
148
168
120
117
81
66
68
58
51
56
71
55
23
74
63
60
56
56
57
59
60
60
61
62
63
63
63
64
63
65
65
63
65
67
71
68
68
67
66
66
65
62
63
61
64
63
65
66
63
60
58
54
59
61
60
59
58
58
58
59
57
69
71
69
61
65
63
136
206
225
233
231
230
229
238
237
226
226
230
235
240
238
233
236
241
160
58
54
53
54
54
53
52
54
55
54
55
52
53
54
52
52
50
50
49
49
49
49
49
49
49
49
85
144
91
117
110
64
47
45
43
45
47
46
45
45
74
128
53
42
42
44
45
46
47
47
47
51
37
40
64
62
59
61
72
88
107
134
134
97
90
124
119
94
99
98
84
100
102
108
102
103
115
170
131
119
106
102
116
103
124
136
148
183
146
165
155
156
126
145
166
131
151
130
151
161
151
144
133
167
165
167
152
154
158
151
151
140
130
158
169
164
161
156
155
149
166
167
156
139
124
145
93
96
90
92
72
64
101
132
132
160
148
178
172
155
149
148
156
171
159
158
157
169
173
180
177
164
146
149
137
134
158
153
147
143
122
130
136
147
154
142
157
167
181
166
168
164
109
120
104
61
64
56
50
53
68
62
26
76
62
59
56
57
57
58
59
60
60
61
61
62
63
63
64
64
64
65
65
66
69
66
65
65
64
64
61
61
63
62
62
63
65
64
63
59
58
56
57
59
60
59
59
58
58
58
57
67
68
66
56
65
63
154
206
223
234
233
232
231
237
239
228
226
231
237
241
240
239
240
240
173
60
55
53
54
53
52
53
55
55
54
53
52
53
53
52
51
50
49
48
48
48
49
49
49
49
51
170
147
177
148
126
171
107
123
45
45
69
46
46
45
44
43
42
42
42
42
43
45
44
45
46
50
38
48
66
59
53
52
55
66
87
117
133
136
89
132
123
98
106
97
120
98
107
120
103
103
111
128
110
96
110
102
114
175
109
124
138
165
157
162
142
123
141
154
145
167
140
137
144
140
155
137
148
172
167
154
150
151
156
159
140
138
156
167
168
163
142
152
153
146
148
155
163
160
178
103
92
107
105
107
90
76
104
146
135
154
183
170
175
175
171
173
166
156
150
155
165
158
144
171
170
169
164
176
177
183
167
172
169
171
169
157
155
143
157
164
173
177
174
182
177
140
94
119
98
57
61
54
49
51
64
66
37
77
61
58
57
59
59
60
60
60
60
61
61
62
61
62
63
64
65
65
65
67
67
67
65
65
64
64
62
63
64
62
62
63
63
63
64
61
59
56
57
59
59
59
58
57
58
59
59
70
66
65
56
68
60
167
205
223
234
235
233
233
237
239
228
226
231
238
242
242
242
242
239
187
61
56
53
54
53
53
53
54
55
55
54
52
53
53
52
50
50
49
49
48
48
49
48
47
48
45
145
81
112
66
171
127
171
184
158
87
209
211
121
189
165
51
41
42
42
41
42
44
44
45
45
50
39
57
58
49
44
41
42
45
53
79
124
116
92
82
115
100
99
97
115
110
133
161
127
122
102
137
99
102
116
152
169
154
110
158
166
159
159
162
162
148
134
161
153
130
162
162
167
151
152
160
156
146
148
141
167
166
161
156
160
160
163
169
162
170
165
162
175
165
151
151
140
146
157
120
138
114
140
162
121
90
107
133
119
152
145
155
182
164
172
147
147
153
147
132
148
143
144
127
134
161
171
163
158
148
180
175
173
172
161
167
160
171
169
161
165
169
177
136
162
117
86
119
97
54
58
54
49
50
61
69
53
76
63
59
60
60
60
60
60
60
61
61
62
63
61
62
62
64
65
64
66
67
67
63
62
62
63
62
62
63
63
63
64
64
63
63
62
61
60
55
55
58
59
59
58
57
57
56
61
68
65
61
55
67
59
180
206
222
234
236
235
234
236
237
228
227
232
239
242
242
242
242
238
195
63
57
53
54
54
53
53
53
55
56
53
51
52
52
52
50
49
49
50
49
47
48
47
47
48
47
146
45
103
131
121
142
88
115
161
110
197
204
181
195
228
133
43
43
42
42
42
43
44
44
45
49
44
57
48
42
38
37
38
38
40
51
88
125
85
86
104
122
93
95
98
118
122
129
127
146
140
124
107
103
128
180
183
137
129
175
160
174
172
161
166
153
118
142
135
157
152
158
164
154
162
167
180
170
165
180
175
162
161
168
167
166
171
166
170
169
160
168
144
136
145
160
166
153
145
194
162
169
194
143
172
193
199
150
144
186
148
165
160
153
156
162
145
122
145
160
152
151
160
170
161
158
168
164
175
184
180
172
173
168
165
151
156
149
148
159
160
155
138
37
153
123
84
107
101
53
55
53
49
49
58
67
61
73
63
60
60
59
57
59
59
59
60
60
61
61
60
62
63
63
64
65
65
65
64
60
60
61
63
61
61
61
63
63
64
65
63
64
62
60
58
54
55
57
58
56
55
53
56
54
62
67
66
62
56
67
60
194
207
221
233
237
236
234
236
237
228
227
233
241
242
242
242
241
236
201
66
58
55
56
56
57
55
55
56
56
54
52
53
53
52
50
49
48
49
48
48
47
47
47
47
47
140
52
55
141
191
142
92
67
147
106
200
193
186
189
207
148
43
42
42
42
42
43
44
42
44
47
50
49
41
38
37
37
37
39
40
50
74
108
91
92
91
123
118
79
113
119
101
101
109
137
137
134
96
164
124
157
160
122
141
159
155
161
166
156
146
151
172
169
171
174
161
173
148
167
170
170
161
158
160
171
153
154
170
163
173
163
160
162
168
169
173
147
153
138
140
151
159
159
75
96
155
192
148
141
107
109
150
81
138
192
196
171
157
177
147
149
147
153
138
154
151
155
165
172
174
160
155
171
179
172
167
164
171
175
164
166
156
143
157
159
175
169
114
51
136
136
79
92
109
58
52
49
47
49
57
65
65
66
61
60
59
58
57
58
58
58
60
60
61
62
62
63
65
64
64
67
66
65
60
59
60
61
62
63
62
64
64
64
62
63
63
62
62
60
57
54
54
55
56
55
55
52
52
53
62
66
64
60
56
68
71
198
207
219
233
236
237
235
236
237
228
227
234
242
242
242
242
242
233
212
62
60
56
57
58
58
58
57
57
57
54
52
52
53
52
50
49
49
48
48
49
47
46
47
48
48
105
116
100
198
134
154
111
49
146
57
145
188
129
177
206
156
44
42
42
42
42
41
42
42
43
47
50
43
39
37
37
37
39
43
51
64
77
94
130
89
98
90
109
111
90
120
107
112
143
144
173
149
140
164
143
172
177
182
175
159
171
157
153
139
139
138
146
155
143
147
144
144
128
147
163
171
167
163
166
150
138
154
163
148
136
143
166
169
164
160
143
145
154
146
159
164
146
162
186
160
123
106
92
121
104
145
163
112
128
152
134
105
159
188
118
138
144
121
153
161
174
112
179
173
161
164
170
180
166
164
164
173
154
172
179
178
182
174
159
165
166
165
61
63
118
148
74
75
110
68
47
46
46
49
55
64
67
66
61
58
58
58
57
57
59
59
59
59
60
62
64
63
63
64
65
66
65
63
59
58
59
60
60
61
62
61
63
62
63
63
62
62
60
60
56
55
55
54
54
55
53
53
50
51
60
63
62
56
57
66
88
204
207
219
233
235
236
236
236
237
228
227
233
241
241
240
242
241
232
216
68
60
56
56
54
55
55
55
56
57
53
54
54
52
52
51
49
49
49
48
48
48
47
46
47
48
49
156
193
207
200
161
156
103
124
50
55
198
68
67
205
162
44
43
42
42
42
43
42
43
44
46
49
39
37
36
37
38
43
52
67
79
85
103
180
128
100
134
106
98
118
115
141
123
140
138
176
165
150
151
168
175
172
178
184
186
170
156
128
154
142
134
124
158
148
132
162
168
171
172
180
159
177
153
159
169
151
147
154
161
156
154
172
159
169
169
154
161
154
165
156
143
154
161
116
52
54
119
165
186
118
81
99
84
79
117
105
131
130
127
151
141
116
79
101
148
99
79
170
165
165
145
175
169
174
180
172
180
181
159
168
163
162
146
163
170
165
143
29
72
103
148
76
57
107
77
47
47
47
49
55
63
71
66
62
58
58
57
57
57
58
58
58
58
60
63
62
61
62
64
65
66
63
61
57
57
58
59
60
62
64
64
63
62
65
63
63
61
60
58
56
55
54
55
56
56
53
52
50
52
62
64
62
54
58
64
110
204
207
218
232
235
236
236
237
237
228
227
233
240
240
241
242
241
232
214
86
62
58
57
56
56
56
57
57
59
57
55
53
52
51
50
49
49
49
48
48
47
45
45
47
48
48
177
167
147
157
171
165
163
65
49
108
192
47
186
239
124
45
43
42
42
42
42
42
42
43
46
48
38
36
36
38
41
50
63
76
87
89
104
120
140
154
178
128
103
164
155
103
142
169
160
155
140
141
164
171
156
157
148
165
153
152
147
158
150
143
123
124
155
155
158
153
151
168
148
138
167
159
161
162
169
156
158
156
149
160
145
168
173
131
158
154
157
161
158
152
161
161
166
58
58
99
216
210
189
131
102
125
90
92
98
132
131
116
116
167
171
116
79
91
119
69
75
149
155
94
113
170
168
160
173
156
153
151
175
156
145
135
135
140
136
154
144
33
82
104
140
79
47
109
82
51
48
48
48
53
60
77
63
62
59
57
57
57
57
57
58
58
58
59
60
61
62
62
63
65
66
62
57
55
56
59
59
61
62
62
64
63
62
63
61
62
61
59
56
56
55
54
55
56
55
52
51
51
54
63
63
61
52
62
62
127
205
207
218
232
235
235
236
238
236
227
227
233
240
241
242
243
241
231
213
106
63
58
59
59
56
56
57
58
59
57
55
52
52
50
48
48
49
48
48
48
47
45
46
46
46
73
146
77
158
115
129
135
158
53
48
150
166
61
84
207
171
43
44
42
42
42
42
42
42
42
45
49
37
37
39
42
49
59
74
88
97
91
92
100
129
118
131
114
148
136
120
160
174
170
174
160
142
155
185
182
165
147
154
165
164
157
161
136
160
151
145
126
118
150
165
145
139
150
156
172
133
133
163
164
152
163
159
145
149
142
137
150
173
165
163
185
177
155
157
162
167
156
144
72
67
167
212
146
176
183
161
166
57
133
146
141
112
128
103
143
168
163
77
61
117
72
110
135
90
86
102
158
155
140
173
149
136
133
121
128
113
140
154
150
151
143
96
40
92
103
137
90
43
110
84
53
48
47
46
48
55
77
62
59
58
57
56
56
58
58
57
57
58
59
59
60
62
62
64
64
63
60
56
54
56
59
59
61
63
63
64
62
63
64
64
63
62
59
56
54
54
54
54
54
54
52
50
49
55
64
60
60
53
63
62
145
203
208
217
231
234
233
236
238
236
228
227
234
240
244
245
244
240
229
205
122
61
58
59
59
56
56
56
59
60
59
56
51
51
49
48
49
49
48
47
47
47
46
46
46
46
70
146
144
164
85
140
153
147
64
47
186
126
155
154
190
175
43
44
42
41
40
40
41
43
42
45
50
38
39
42
49
58
68
82
95
99
91
89
136
135
117
98
127
116
103
102
170
158
152
159
135
174
181
172
158
129
172
157
157
166
169
170
169
140
112
134
123
152
156
141
138
157
148
160
172
145
170
162
169
164
162
154
161
154
161
157
132
120
149
148
141
159
152
169
144
152
165
161
75
74
126
123
95
111
112
104
74
80
169
158
134
118
142
133
110
142
157
76
53
134
73
117
128
82
96
169
133
121
169
183
155
163
161
165
148
158
134
141
150
158
141
51
65
93
106
130
95
42
108
85
53
47
43
43
47
60
77
62
58
57
56
57
57
58
57
57
58
58
59
59
59
61
63
65
65
62
60
56
56
55
57
59
60
63
63
63
61
62
64
64
62
60
59
57
54
52
52
52
53
53
52
50
49
56
63
59
59
51
60
60
161
204
208
216
230
233
232
235
240
238
227
228
233
240
246
246
246
240
224
199
140
61
58
58
57
57
57
58
61
60
59
55
50
50
49
48
49
49
48
47
47
46
46
47
47
47
47
111
90
88
199
114
146
110
87
80
207
75
160
197
190
171
43
43
42
41
40
40
41
41
43
44
48
40
41
44
54
66
78
86
98
103
93
90
107
144
173
121
105
146
163
157
141
134
154
152
169
163
170
179
158
155
156
164
169
162
156
146
131
146
145
135
148
165
161
154
160
180
178
179
177
172
170
167
168
168
166
159
147
157
161
158
169
150
167
167
180
153
168
162
167
163
139
161
100
82
73
73
76
65
122
69
84
68
67
54
72
125
122
150
150
189
181
172
149
180
125
128
139
92
103
133
88
144
178
165
158
177
175
158
158
168
162
168
161
154
155
23
91
113
113
124
99
42
105
96
51
44
42
44
49
65
75
62
58
57
58
58
56
57
56
56
56
57
58
58
59
61
64
64
64
61
58
54
53
53
56
59
59
61
63
64
62
61
64
64
63
62
58
55
53
52
52
52
53
53
52
51
50
60
67
59
60
52
63
65
175
205
210
217
231
233
232
234
241
235
226
228
231
239
246
248
247
239
224
198
148
62
59
57
56
57
56
57
59
59
57
53
49
49
49
48
49
48
48
47
48
46
45
46
47
47
47
49
48
49
135
48
66
128
51
145
184
47
165
194
191
164
43
43
42
41
41
40
42
42
44
46
49
41
43
49
63
73
83
91
99
106
96
90
106
154
112
138
131
170
156
156
156
158
162
170
155
180
182
176
176
165
148
158
161
166
155
126
131
146
149
158
150
149
156
167
166
166
181
183
183
183
181
170
176
169
166
167
178
158
145
133
146
177
184
176
164
153
167
165
166
159
155
164
100
112
99
117
75
64
106
96
101
59
98
130
116
100
126
199
181
223
181
155
92
84
118
125
138
133
93
123
129
166
127
155
167
149
171
179
179
169
174
158
162
164
147
25
110
124
116
128
99
42
100
97
52
43
44
43
47
65
75
61
59
58
58
57
56
56
55
55
56
56
58
57
59
61
62
63
61
60
56
54
51
51
55
58
59
61
63
63
62
61
64
63
62
62
58
55
53
52
51
51
52
51
50
48
51
58
55
53
52
53
64
59
184
207
210
216
230
233
232
232
235
228
225
229
232
242
250
251
246
235
218
198
158
63
59
57
56
56
57
58
59
59
56
54
48
49
48
48
47
47
47
46
46
46
45
46
46
45
45
46
47
47
67
45
48
50
47
187
220
205
191
206
207
162
43
42
41
41
41
41
42
42
43
45
50
44
48
59
70
84
95
99
106
113
95
85
88
125
139
147
158
165
176
178
165
144
142
157
164
178
172
174
164
158
175
165
175
169
149
158
136
147
153
127
145
165
174
166
159
167
168
165
152
154
170
166
152
139
163
159
152
152
139
145
162
176
151
155
157
148
176
170
166
163
170
161
123
160
171
183
156
86
85
79
104
71
71
102
104
109
142
137
132
176
134
112
118
97
151
172
203
159
167
123
120
98
144
127
134
171
145
121
171
177
175
179
174
182
127
46
122
127
104
120
99
48
90
106
70
42
42
41
43
66
73
60
56
57
57
58
57
57
56
55
56
57
56
58
60
60
60
60
60
59
55
52
50
51
54
58
60
62
62
61
62
61
60
59
61
61
57
57
55
53
52
51
51
50
49
48
46
66
57
46
51
52
65
61
199
208
210
216
229
233
231
230
229
224
223
230
233
243
250
252
244
233
216
198
168
63
59
58
56
54
56
58
58
58
55
54
48
49
48
48
47
47
47
46
46
46
46
45
47
61
123
63
44
44
45
46
45
47
49
77
118
143
133
201
188
103
43
41
41
41
41
41
41
42
43
46
52
47
54
67
79
92
101
109
122
112
98
77
96
160
174
147
155
175
173
157
139
117
119
104
135
164
161
156
162
165
160
159
163
160
155
136
128
149
155
139
129
145
159
139
157
160
157
157
150
149
158
156
165
172
153
122
149
122
131
145
152
173
167
155
161
163
171
167
166
168
158
171
128
127
101
95
96
123
108
167
108
91
92
119
111
112
160
71
55
82
111
130
103
109
150
132
112
151
199
98
169
197
155
141
145
150
136
99
145
166
151
154
185
172
94
74
125
98
67
90
102
61
85
121
101
42
42
40
42
65
70
60
57
58
57
57
57
56
55
56
56
57
56
59
61
60
59
59
59
57
56
53
50
52
55
57
59
61
62
61
62
60
61
61
60
60
59
56
54
52
51
52
51
50
50
49
90
183
168
87
52
54
63
60
205
209
210
216
227
232
232
229
226
221
219
225
233
245
252
251
243
230
214
197
176
63
59
59
57
54
57
59
58
57
56
54
49
49
48
48
47
47
48
47
46
46
46
46
48
74
178
136
118
135
83
66
62
43
45
46
46
45
45
42
39
42
42
42
42
42
41
41
42
42
44
45
52
51
62
73
84
93
104
118
127
109
91
69
110
125
143
174
158
149
144
147
149
142
141
170
150
162
172
158
148
159
158
164
176
176
156
148
136
150
145
123
119
159
153
154
163
171
171
180
168
172
171
171
172
166
162
149
147
138
156
177
161
159
154
173
166
158
149
159
167
162
160
158
124
118
112
102
103
85
108
81
83
118
92
127
108
138
95
116
92
73
85
101
70
73
115
93
123
138
192
151
180
197
182
130
119
115
107
151
148
173
171
171
165
186
81
96
88
43
42
58
98
86
73
91
94
46
41
39
40
71
68
60
59
58
57
58
58
57
55
55
56
57
57
60
59
61
61
59
58
55
52
50
51
51
53
53
59
61
61
62
61
61
61
60
60
60
58
55
54
52
52
51
52
51
51
51
126
134
129
118
56
58
62
72
211
210
210
214
226
231
230
229
225
220
217
220
231
249
254
250
238
228
214
199
183
61
61
58
58
55
58
57
58
58
57
53
49
48
48
47
47
47
48
48
47
47
46
46
47
79
145
139
136
161
153
128
156
66
110
123
114
71
45
41
39
43
43
43
43
43
41
42
42
42
43
45
51
57
67
73
83
89
105
122
117
94
74
62
112
142
177
156
137
145
138
148
143
129
151
160
173
172
153
168
149
160
163
175
174
162
152
147
156
150
131
125
135
147
163
160
152
164
163
172
169
176
167
164
161
156
125
152
145
139
143
134
140
160
165
146
167
167
139
130
156
149
141
135
122
127
123
145
123
135
191
113
88
91
130
96
76
113
89
61
83
56
70
77
80
74
82
71
170
92
84
128
175
194
182
117
123
121
117
127
130
163
169
179
181
181
61
102
37
28
28
37
78
96
57
78
109
60
40
38
37
74
66
58
58
58
57
58
57
56
55
56
57
56
57
60
58
60
60
59
59
54
51
49
50
50
51
57
60
61
62
62
61
61
61
62
60
58
57
56
53
53
52
52
52
52
51
50
82
128
123
85
62
63
64
96
215
210
211
215
226
230
229
229
225
218
218
224
240
254
253
249
235
226
215
201
189
64
65
58
57
56
57
58
57
57
56
52
49
47
48
48
47
48
47
47
47
47
46
46
46
46
44
51
60
112
110
122
137
121
130
151
124
125
145
115
138
41
44
43
43
43
42
42
42
42
43
47
50
63
70
71
76
85
106
118
105
85
76
71
88
91
116
121
124
133
155
160
139
140
130
149
150
157
141
123
133
155
153
155
153
136
147
150
156
159
148
151
139
122
116
129
134
125
124
140
124
117
135
128
146
144
151
146
157
159
152
138
137
132
126
139
144
138
131
153
134
122
115
128
130
128
100
129
143
140
132
103
87
73
130
161
131
193
166
85
92
51
80
74
82
76
63
85
168
82
71
116
174
197
143
97
115
126
121
132
125
128
179
178
185
167
84
51
32
28
25
29
57
92
74
71
112
84
40
39
35
76
65
59
57
59
58
58
55
55
55
56
56
58
58
60
60
61
60
57
58
53
50
50
49
50
51
58
60
62
63
62
61
61
61
60
61
60
58
56
54
55
54
52
52
53
50
50
57
69
58
65
61
66
65
128
212
210
211
215
225
229
229
229
226
220
225
234
247
254
252
244
230
225
218
203
198
68
67
60
59
56
57
58
58
58
59
56
50
47
48
48
47
48
47
47
47
47
46
46
46
46
46
46
47
46
47
46
48
45
97
122
112
138
134
149
160
101
42
42
42
42
42
42
42
42
43
45
48
61
68
65
68
85
101
106
95
81
81
79
122
132
138
139
149
132
102
101
121
138
151
148
150
135
145
137
163
157
159
147
140
148
135
157
174
151
159
164
138
141
137
139
145
113
109
123
123
134
139
146
157
160
160
156
160
154
163
148
118
138
155
145
140
133
126
125
128
105
111
120
128
136
118
110
130
145
122
86
92
75
89
159
205
169
107
91
83
75
86
54
68
82
87
72
78
66
73
82
174
153
146
95
121
121
135
118
101
120
161
178
176
190
101
47
42
35
27
25
36
79
90
67
106
100
45
40
32
80
65
58
58
58
57
55
54
54
54
55
57
59
59
60
60
62
61
59
57
52
49
49
49
49
54
58
61
63
63
63
62
60
60
59
60
59
57
55
54
54
54
52
51
54
51
49
56
63
64
67
60
67
65
152
210
210
211
214
224
229
229
230
229
229
234
239
249
254
250
241
228
225
219
201
201
71
65
61
59
56
56
57
58
58
57
54
50
48
47
47
47
47
48
47
46
46
46
45
46
46
46
45
45
46
47
47
47
46
47
48
44
40
43
75
76
80
42
43
42
42
42
42
42
42
43
43
48
57
58
58
63
87
97
98
86
79
80
82
143
146
134
125
132
122
119
159
145
150
142
156
130
145
177
179
174
173
167
168
144
126
146
170
166
138
143
158
177
161
137
136
123
115
111
124
150
137
157
158
146
154
135
134
138
136
138
138
142
126
145
140
131
144
134
129
125
117
123
139
141
149
127
103
107
137
128
109
90
83
123
188
163
136
86
73
72
82
78
69
76
76
83
86
75
71
64
65
66
86
99
83
70
103
131
110
102
120
141
160
156
177
68
86
68
53
33
24
27
50
91
78
93
106
59
39
34
80
63
59
57
57
57
56
54
54
55
56
57
58
59
61
61
61
62
59
58
52
49
49
49
51
54
58
62
64
61
63
61
60
61
62
60
60
58
55
56
54
55
53
51
51
50
49
58
63
64
63
61
69
63
174
210
212
212
215
224
229
228
228
229
232
235
241
253
254
250
238
226
227
221
204
204
85
67
63
58
57
56
57
58
58
55
52
49
47
47
46
47
47
47
47
47
46
45
45
47
47
48
46
46
48
48
47
46
45
44
44
44
42
42
42
43
42
44
43
42
42
42
41
41
41
42
43
47
51
50
52
63
89
98
95
84
79
78
82
143
148
173
104
102
109
114
114
133
152
171
126
84
75
82
120
159
174
173
173
171
147
139
142
132
154
133
158
158
146
141
152
140
142
128
130
110
112
122
127
133
148
147
158
170
155
157
161
144
161
159
138
118
101
92
114
139
150
148
137
143
141
128
100
172
194
180
170
156
110
133
166
58
82
62
84
73
77
73
80
88
87
87
87
88
72
61
75
51
49
46
59
66
66
117
137
114
133
134
154
129
115
71
117
95
64
48
28
25
31
74
87
81
107
69
40
38
81
61
59
58
58
56
55
55
52
54
55
55
57
59
60
60
60
60
57
55
51
49
49
50
51
53
59
63
65
62
62
61
61
62
62
62
59
57
55
55
54
53
53
54
51
49
48
58
63
65
60
63
68
59
193
209
213
212
216
224
228
227
226
228
232
238
249
254
253
246
233
224
227
222
204
204
95
66
60
58
57
55
55
56
56
54
51
50
48
48
48
48
48
47
46
46
46
46
46
45
45
45
46
46
46
46
45
44
43
42
42
42
42
42
42
43
44
43
43
43
43
43
41
41
41
43
43
45
49
47
52
64
92
97
94
85
79
79
80
140
215
250
178
114
159
145
173
171
181
111
75
76
75
73
70
87
178
181
174
164
162
163
145
121
91
116
129
129
134
107
144
133
124
136
111
140
165
177
178
156
161
158
163
143
156
142
133
138
133
126
137
121
125
137
142
151
152
149
169
136
149
132
120
158
121
82
67
95
98
148
161
152
143
112
74
69
87
98
98
94
99
88
88
88
72
65
73
53
59
70
67
70
68
59
75
77
90
78
106
81
86
70
105
95
69
58
39
25
26
50
78
76
92
76
41
50
72
62
61
61
57
55
55
56
54
55
55
56
59
59
59
60
60
58
55
53
50
49
49
50
51
55
59
63
64
63
64
60
62
60
60
58
57
57
55
55
53
53
53
54
51
50
49
59
64
64
60
65
68
70
207
209
213
211
216
223
228
227
226
227
231
241
252
253
251
240
230
223
227
224
208
204
105
67
59
59
57
55
55
56
56
54
51
50
48
48
48
48
47
47
46
46
47
47
45
45
45
45
45
45
45
45
45
45
45
43
42
43
42
42
43
44
44
44
43
43
43
43
41
41
41
43
43
44
47
46
53
72
92
95
90
84
79
78
79
136
239
251
230
130
162
119
118
133
115
86
86
82
80
78
75
73
95
147
136
136
135
154
149
125
128
137
125
121
135
110
133
126
144
136
160
173
175
175
179
150
158
136
143
154
124
130
135
144
154
137
167
157
166
156
154
145
131
133
165
155
153
156
122
82
98
71
94
90
75
171
199
144
84
53
52
74
91
90
90
94
90
81
89
86
70
65
60
57
58
64
72
70
63
47
64
42
66
105
143
78
74
66
105
101
71
60
50
29
26
33
69
75
90
86
47
58
68
61
60
59
57
55
54
54
55
55
56
56
57
57
58
60
60
58
55
54
50
49
48
50
53
56
57
61
63
62
60
64
62
61
61
60
58
58
57
56
54
54
53
52
50
50
49
58
62
62
60
65
66
107
213
210
215
213
216
224
228
227
226
228
233
242
250
249
240
230
226
224
232
224
208
204
131
68
62
57
56
56
56
56
56
54
51
50
48
48
48
48
47
47
46
46
46
47
45
45
45
44
44
45
45
45
45
45
45
44
44
43
42
43
43
43
44
44
43
43
43
43
41
41
41
43
43
43
48
46
57
80
91
93
89
85
80
78
76
127
231
251
249
113
85
80
79
82
86
85
86
100
97
82
93
108
119
133
117
125
158
156
160
153
169
149
129
123
143
144
157
174
154
161
151
135
124
113
105
125
124
136
125
129
141
141
143
158
158
163
176
154
154
168
165
154
124
114
158
139
121
121
135
118
98
77
78
77
68
127
170
164
63
53
41
86
92
82
83
110
129
117
114
87
75
67
64
66
69
73
73
74
68
61
65
63
40
121
182
91
61
64
100
102
75
56
55
39
27
26
50
81
100
90
54
62
71
62
59
59
57
56
54
54
55
55
56
58
58
59
60
59
60
57
57
52
49
48
49
51
52
53
56
61
61
62
61
61
60
63
59
58
56
57
56
54
53
54
52
52
51
50
50
59
63
62
60
66
65
137
210
211
214
214
216
225
227
227
226
227
233
243
248
246
236
225
220
228
236
223
209
197
146
67
61
58
56
56
56
56
55
55
50
49
48
47
46
48
48
48
46
46
46
46
45
45
45
45
45
45
44
44
45
46
46
45
44
43
43
42
42
43
43
43
42
43
43
43
41
41
41
41
41
43
46
46
71
88
92
89
88
86
86
81
76
108
219
251
249
159
101
139
134
127
146
137
110
117
128
117
148
129
126
122
117
129
115
125
133
141
127
115
121
137
156
153
160
146
125
133
124
117
103
124
151
158
154
160
148
162
157
150
166
158
159
170
163
139
132
141
146
153
167
173
161
154
145
128
120
69
86
86
81
70
60
88
163
157
62
82
61
75
82
80
112
132
138
135
124
83
75
71
69
73
73
81
80
77
79
76
66
62
51
174
177
107
61
61
93
103
75
42
54
53
30
26
35
76
85
84
62
71
68
61
58
56
55
54
53
53
54
54
57
58
58
60
60
60
58
58
55
50
48
49
48
50
52
54
59
61
62
61
59
59
62
60
58
57
57
57
54
54
54
52
52
50
49
50
51
61
62
60
61
69
64
159
209
212
215
215
216
223
226
226
225
226
231
241
243
241
229
223
225
235
236
222
211
198
158
65
61
59
58
57
57
56
54
54
50
49
48
48
46
47
48
49
46
46
46
47
46
45
47
46
45
44
43
44
44
46
45
44
42
43
43
43
43
43
43
43
42
42
42
42
41
40
40
40
41
42
46
48
73
89
91
88
88
86
88
85
77
86
196
248
191
147
162
136
149
118
159
130
130
138
123
130
137
149
147
150
117
120
146
116
129
138
126
118
124
140
140
162
156
144
140
109
131
145
126
154
149
142
152
127
146
154
156
160
137
160
150
155
131
127
149
159
160
165
163
163
143
191
179
150
74
72
105
75
63
57
60
48
69
103
89
83
83
107
81
92
126
129
126
121
99
87
82
78
74
71
70
82
83
81
85
76
78
63
107
204
190
148
67
61
93
103
70
38
51
58
40
25
28
51
71
76
66
74
66
59
58
55
54
54
53
52
53
55
56
57
57
60
62
60
60
57
54
50
48
48
48
50
51
56
61
62
62
62
59
60
62
62
58
58
56
55
53
52
53
52
51
50
50
50
51
59
63
61
62
69
66
176
208
213
216
217
218
223
227
227
225
226
232
243
244
236
231
224
230
237
235
221
211
199
170
66
62
59
59
58
58
57
54
54
50
50
48
48
48
47
48
48
47
46
46
46
46
46
47
45
44
43
44
44
43
43
43
42
42
42
44
45
44
43
43
44
43
41
41
42
42
40
40
40
41
42
46
55
79
90
90
88
87
85
86
87
76
70
172
248
152
157
147
129
133
124
159
135
141
143
144
148
154
147
164
120
139
153
121
134
124
109
118
144
138
140
167
146
133
129
127
136
128
134
127
154
126
126
123
142
118
113
119
147
175
145
140
135
145
151
151
149
144
150
143
156
158
160
126
86
82
79
79
80
55
52
63
68
80
93
68
76
70
92
106
116
113
96
101
100
98
87
83
78
77
78
75
84
82
81
79
76
74
72
172
211
201
158
71
59
93
107
59
39
46
56
50
28
26
36
66
73
67
72
67
60
58
57
55
54
54
52
53
53
53
54
55
57
58
60
59
56
54
52
48
49
49
49
48
54
59
62
63
62
60
60
64
60
57
56
56
55
52
52
53
52
51
50
50
50
50
60
65
62
64
70
66
196
208
213
217
217
219
223
228
227
227
227
230
235
233
227
228
224
229
238
234
221
209
199
183
65
65
61
60
60
57
57
54
53
49
49
48
48
49
48
47
48
48
46
46
46
46
46
46
44
43
43
42
42
42
42
42
42
42
43
44
44
44
43
43
44
42
41
42
42
42
41
41
41
43
44
46
59
84
92
91
90
87
85
86
84
71
67
125
243
185
158
166
157
173
150
137
130
135
133
129
145
140
129
126
151
144
125
131
157
149
139
131
136
149
140
132
137
152
172
128
142
145
160
142
152
162
166
160
128
139
132
127
135
145
132
175
152
144
152
161
152
153
150
142
133
141
81
89
98
97
106
103
84
63
77
83
69
71
57
71
84
79
120
128
160
153
83
91
92
92
84
85
89
80
96
91
88
88
86
82
78
71
90
201
209
205
167
75
58
92
105
50
39
43
54
58
37
26
28
57
74
68
70
67
60
58
58
57
55
55
53
53
53
53
54
55
56
56
56
53
53
51
49
47
48
49
50
50
56
63
63
60
59
59
60
61
57
56
56
54
54
52
53
53
53
51
50
50
52
52
61
64
63
65
71
70
208
209
213
216
217
219
223
227
226
227
227
228
233
232
226
225
226
235
240
232
221
212
204
198
68
67
60
61
60
58
56
53
53
49
48
48
48
49
49
47
47
47
47
47
47
46
46
45
43
43
42
43
42
42
43
43
44
44
44
44
44
44
43
44
44
43
44
45
45
43
42
42
41
42
42
45
63
87
90
89
88
86
85
86
84
72
69
88
222
217
146
161
173
160
155
158
158
162
153
140
126
131
142
160
167
132
128
130
128
117
153
116
133
144
122
131
133
138
136
122
135
143
141
132
150
162
157
127
143
144
151
145
150
172
144
161
142
123
158
165
172
151
159
125
138
154
72
80
58
106
102
102
68
82
75
66
74
77
76
81
83
75
74
146
177
97
103
97
91
90
90
91
92
101
104
103
90
93
101
98
104
111
141
202
209
209
175
83
58
96
97
54
41
42
52
57
48
29
28
39
70
69
71
60
58
58
56
56
55
52
53
53
53
53
55
57
57
57
55
55
54
53
46
47
46
47
48
51
57
63
64
62
63
65
60
59
56
56
56
54
53
53
54
54
53
51
49
49
50
51
59
61
60
69
73
87
213
210
214
217
218
218
222
225
226
227
226
228
229
230
229
224
225
242
244
232
222
215
204
201
76
67
61
61
59
58
55
54
51
50
49
49
48
49
49
49
47
47
47
47
45
45
44
44
43
44
45
46
46
47
48
48
47
47
47
46
45
45
45
46
46
46
46
46
44
42
42
42
42
41
41
44
61
91
92
93
92
89
87
86
82
73
68
71
195
240
146
156
151
157
138
151
142
162
143
136
161
162
175
174
150
125
148
148
141
143
149
155
137
116
141
159
125
150
149
145
140
133
164
145
154
159
158
154
148
158
138
146
147
124
132
158
152
172
149
157
156
137
131
137
146
133
102
96
103
147
107
90
88
69
76
77
66
68
78
77
83
68
80
110
91
79
82
93
101
93
95
94
94
91
93
102
92
84
87
92
89
87
181
199
208
208
190
100
60
92
93
67
42
40
48
56
55
39
26
30
61
72
74
62
57
55
55
55
54
53
53
53
53
55
55
55
57
58
56
55
54
50
46
46
47
49
48
49
57
61
60
61
62
63
60
58
56
56
54
53
54
53
52
53
52
51
49
49
49
51
59
59
58
69
71
113
211
212
215
217
219
219
223
226
226
226
226
227
229
226
227
227
227
242
237
231
222
214
203
207
93
67
60
61
58
58
56
54
51
49
49
48
48
48
49
48
49
47
47
47
46
44
45
45
45
45
45
46
46
47
47
48
48
49
47
45
45
45
45
45
46
46
45
44
43
42
42
42
42
41
42
43
56
80
85
87
88
86
86
85
80
73
67
71
151
248
169
182
150
138
154
166
152
152
158
154
148
143
161
126
124
148
179
165
168
161
157
172
176
166
153
161
163
150
116
115
161
140
127
158
155
131
126
137
158
171
167
182
163
117
149
150
153
142
127
108
136
131
113
128
139
118
94
111
125
103
104
104
100
90
89
82
84
85
86
84
87
87
91
96
92
93
99
103
98
109
100
100
103
104
101
100
110
111
105
102
96
106
189
197
208
209
196
125
64
80
98
73
44
39
41
51
57
50
28
26
39
69
73
61
56
55
53
52
53
52
52
53
54
53
54
54
57
58
57
57
54
50
47
47
47
48
48
49
55
63
61
61
59
58
59
58
57
55
54
54
53
52
52
53
51
50
48
49
50
51
58
58
56
67
68
137
210
212
215
217
219
220
222
226
227
226
226
227
232
232
231
228
234
245
238
231
224
217
203
208
117
67
60
61
58
58
57
54
51
49
49
47
48
48
48
47
47
46
46
46
46
45
46
45
45
45
45
45
45
45
44
44
45
45
45
44
44
45
45
45
45
44
44
44
43
42
42
42
42
41
41
42
46
66
82
89
90
88
85
85
79
72
63
68
115
234
198
146
191
143
162
163
169
150
147
155
163
182
176
138
118
133
155
125
142
164
177
173
155
168
166
149
153
153
135
153
151
152
157
139
130
156
152
144
138
111
114
141
116
151
130
134
151
158
154
150
146
130
132
156
133
128
168
128
122
127
122
124
114
116
96
92
86
91
93
92
100
94
95
101
105
104
108
102
109
100
91
101
98
98
113
111
125
117
119
110
98
145
176
196
211
214
202
162
74
78
99
78
45
37
39
53
56
56
35
27
29
51
76
57
57
56
52
52
52
52
53
54
54
54
53
53
56
58
57
56
52
49
48
48
48
49
49
52
59
64
63
60
60
61
60
57
57
54
53
53
52
52
52
52
50
50
48
49
49
51
61
61
62
70
69
157
208
214
216
217
219
220
220
223
224
226
225
226
232
232
232
231
239
243
238
232
221
224
204
207
133
66
59
61
59
57
56
54
50
49
49
48
48
48
48
48
48
46
46
46
46
45
46
46
45
45
45
44
44
44
44
44
44
44
44
44
44
45
45
45
45
44
44
44
43
43
43
44
43
43
43
43
45
60
73
81
87
89
87
90
81
72
61
58
93
206
214
140
147
134
112
123
153
153
157
151
154
147
162
152
144
145
130
121
160
177
161
143
129
128
135
135
127
134
129
150
166
173
160
159
159
156
172
166
149
135
121
105
106
133
147
145
157
173
156
150
126
128
118
111
129
122
147
125
136
127
125
113
130
124
101
91
96
89
90
95
87
105
105
103
109
101
108
103
120
131
111
124
118
122
106
125
124
126
121
123
119
150
156
188
210
214
208
181
87
78
102
77
42
33
40
51
51
52
45
29
26
42
79
58
57
55
52
52
52
53
53
53
52
54
56
57
58
57
57
57
52
49
48
48
48
48
50
55
61
64
63
62
61
60
60
58
56
55
55
53
50
52
51
51
50
50
48
48
49
54
64
63
62
70
66
173
209
215
217
218
220
220
220
222
223
223
223
224
232
233
233
233
243
243
238
230
227
226
201
204
145
67
62
61
60
57
55
53
51
50
49
48
48
48
48
49
48
48
47
47
47
46
47
46
45
45
44
44
44
43
44
44
44
44
45
45
45
45
45
45
44
44
44
45
43
44
43
43
43
43
43
43
44
49
58
59
60
65
76
93
99
71
61
55
70
163
171
147
147
142
155
145
141
140
142
160
150
152
133
134
126
148
138
141
137
146
124
102
111
138
144
145
134
125
118
138
139
144
123
124
145
139
148
121
131
131
121
118
136
118
109
129
152
152
162
161
163
171
145
159
174
180
148
127
96
109
124
112
118
105
106
105
104
102
103
89
92
95
106
100
106
107
105
113
103
102
118
103
122
126
124
127
128
128
126
132
120
119
118
178
201
213
209
190
99
81
106
69
37
31
50
47
45
47
49
35
26
45
74
63
56
55
56
55
54
53
53
53
52
52
55
58
57
58
57
55
50
48
48
47
48
48
50
54
60
64
65
64
61
61
60
57
56
56
52
52
52
52
51
49
49
50
51
51
51
56
64
63
62
72
68
185
207
218
218
218
218
219
222
222
223
222
221
223
232
233
233
238
245
242
235
228
231
223
202
209
159
68
62
61
60
58
55
52
51
50
49
48
48
48
49
49
49
49
47
47
47
47
46
45
44
45
44
44
44
43
43
44
45
45
45
46
45
45
46
45
44
44
44
44
44
44
44
44
43
43
42
42
42
40
40
39
35
31
36
52
97
77
62
57
63
142
150
159
215
139
133
134
123
122
107
94
120
155
123
119
97
108
159
120
80
93
107
112
120
108
126
150
151
150
156
150
140
126
129
137
149
149
139
122
124
132
149
142
153
136
137
135
123
125
131
167
170
152
135
138
137
147
101
147
118
100
102
96
104
99
107
132
115
122
104
94
98
96
94
95
98
99
94
104
112
115
119
109
115
123
131
125
127
130
137
135
94
93
95
151
189
207
209
195
106
75
107
57
34
42
51
46
43
44
49
41
26
54
71
61
57
55
56
55
53
52
53
52
52
52
56
57
58
57
55
52
53
50
47
47
48
49
51
55
60
63
64
62
61
59
57
55
55
52
51
52
52
52
51
50
50
50
50
51
51
57
64
61
63
72
66
194
206
216
219
219
218
219
222
222
223
222
222
225
230
233
236
243
245
239
235
234
233
218
203
210
165
69
61
60
60
56
53
51
50
50
50
49
49
49
48
48
48
48
48
47
47
47
46
46
45
45
44
45
44
44
44
45
45
45
45
45
46
46
46
46
45
45
45
45
44
44
44
44
44
44
43
42
41
33
29
24
22
21
22
26
51
71
66
67
67
121
152
152
237
189
129
126
111
115
122
121
115
118
122
119
132
128
112
93
126
114
119
118
121
117
124
164
158
143
126
119
117
129
138
141
145
147
128
120
129
131
165
171
171
161
154
162
144
141
150
158
153
140
134
137
146
172
68
88
106
109
119
114
101
111
119
97
99
95
95
101
104
107
98
109
104
112
106
108
113
121
131
140
137
132
132
130
139
133
134
127
75
74
82
121
183
204
208
198
107
77
91
44
37
51
49
45
43
43
48
50
33
62
65
56
55
55
56
55
53
52
53
52
53
54
55
57
57
55
53
53
53
50
48
48
48
50
53
57
60
61
61
61
60
56
59
56
52
51
52
55
55
54
53
50
50
51
50
51
50
54
60
61
64
69
75
201
208
217
219
219
219
220
221
220
222
222
222
226
229
232
238
246
242
238
236
237
234
213
209
209
173
69
63
60
58
54
53
51
50
49
49
48
49
49
48
48
49
49
47
47
47
47
47
47
45
45
44
44
44
43
44
46
45
45
45
46
46
46
46
46
46
46
45
45
44
45
45
45
44
44
43
42
40
24
21
21
21
21
21
21
34
56
66
80
78
92
154
214
230
230
124
141
138
145
133
120
135
124
98
124
142
111
107
127
126
100
91
98
112
122
129
113
100
108
125
133
136
131
129
136
158
158
151
145
157
153
126
123
134
147
178
164
159
157
185
156
139
155
136
126
151
159
84
87
110
121
101
111
119
104
93
103
92
93
106
104
102
98
110
107
113
110
108
112
111
114
118
121
128
133
133
138
134
142
149
92
75
76
74
101
175
202
210
205
160
110
69
41
54
60
50
45
42
41
45
48
44
65
62
55
56
55
55
52
51
52
52
52
54
54
56
57
57
55
53
53
53
49
48
49
49
51
54
58
59
59
59
58
58
56
56
54
53
51
51
52
54
56
53
50
50
50
50
50
50
55
60
61
66
69
89
200
208
217
220
219
221
220
221
221
222
222
221
222
227
236
241
244
240
241
241
242
232
210
211
210
182
72
61
59
60
55
54
52
50
50
48
48
48
48
48
48
49
49
47
47
47
48
48
48
46
46
45
43
42
42
45
46
45
45
45
45
46
46
46
46
46
47
46
46
45
46
46
46
45
45
44
42
41
19
20
21
21
22
23
25
35
44
57
73
83
80
161
251
244
247
155
151
157
135
119
128
123
121
108
110
87
120
134
140
130
121
123
134
110
122
120
135
121
115
127
122
139
155
157
155
151
135
126
118
113
121
135
139
144
121
147
154
125
124
145
141
142
151
130
136
153
144
71
77
94
110
105
114
111
119
108
119
111
105
109
107
103
114
118
98
117
113
105
117
111
130
128
130
121
131
134
127
137
145
147
63
74
74
73
83
147
192
205
212
182
84
52
49
68
64
52
46
42
42
42
44
48
67
63
54
54
54
54
53
51
52
52
52
53
54
55
57
56
55
53
54
52
49
49
49
49
51
54
58
57
59
60
60
57
55
54
51
51
51
52
54
57
60
57
51
50
49
49
49
50
55
62
60
67
68
108
201
207
219
221
219
220
222
221
222
222
221
219
220
228
236
242
240
238
241
242
244
222
213
211
211
192
70
62
59
60
57
54
53
52
51
49
49
48
48
48
48
48
48
47
47
47
47
47
47
46
45
45
43
43
43
45
46
46
46
46
46
46
46
46
46
46
46
46
46
45
45
46
46
46
46
46
44
40
20
21
21
23
25
27
33
40
43
49
54
68
78
132
236
251
252
157
139
133
129
158
143
104
88
92
91
93
98
90
105
112
104
79
113
131
117
141
147
116
115
112
126
140
127
140
138
124
114
136
138
139
138
130
120
127
135
124
125
127
146
136
149
151
158
138
117
117
123
77
81
92
99
110
100
109
121
109
127
125
110
105
104
115
121
110
105
119
114
113
111
131
122
133
138
142
132
138
142
138
146
131
63
72
75
76
83
125
181
177
150
79
51
49
62
74
65
53
46
44
43
41
39
47
73
62
55
54
54
53
53
52
52
53
53
54
54
57
56
58
55
52
50
48
48
48
48
48
51
52
54
56
59
63
61
56
55
52
50
49
48
52
53
55
55
54
52
51
51
51
52
52
57
64
62
65
68
125
199
207
217
222
221
222
221
222
225
222
222
220
221
231
238
240
239
239
239
243
242
217
214
214
213
198
73
61
56
57
55
55
53
52
50
50
49
48
48
48
48
48
47
46
46
46
47
47
47
46
45
45
44
44
44
43
45
45
45
46
46
46
46
46
46
48
47
47
46
45
44
44
45
46
46
46
45
41
20
22
22
25
31
36
40
40
41
45
50
55
69
115
211
252
252
169
150
119
96
115
129
142
99
111
142
126
110
127
120
119
117
84
103
112
127
143
130
98
111
127
128
132
101
136
121
137
148
138
146
155
142
135
137
141
107
101
129
130
117
125
125
116
129
123
117
102
139
69
78
98
103
97
106
91
101
112
89
118
117
108
125
118
110
108
106
108
131
134
134
138
120
136
128
135
143
148
149
146
150
96
67
74
77
78
83
127
117
65
43
37
38
45
61
66
64
57
50
48
44
40
37
40
71
62
57
57
55
55
53
54
53
53
53
55
56
56
57
57
55
52
51
49
49
48
48
48
50
51
55
62
66
68
62
61
59
55
49
47
48
50
51
52
53
53
51
51
51
51
52
53
58
61
63
70
71
139
197
208
216
220
222
222
222
221
224
223
222
222
225
236
241
242
242
242
244
246
233
213
217
217
216
200
69
60
55
56
55
55
52
50
50
50
50
47
47
47
48
48
47
46
47
47
47
48
48
46
45
44
44
44
44
43
44
45
45
46
46
46
46
46
47
48
47
46
46
45
45
46
46
46
46
46
46
40
21
22
24
30
43
42
42
41
41
44
49
50
59
101
186
252
251
183
143
149
96
116
110
116
120
116
117
100
78
146
77
91
80
94
149
168
160
132
106
116
157
144
133
132
131
131
124
121
101
118
129
156
159
136
112
108
123
134
125
119
138
147
148
144
145
127
125
149
115
108
75
73
78
97
108
118
118
120
109
96
108
127
125
118
132
117
115
124
110
123
135
140
130
128
130
143
144
145
179
181
156
86
71
76
75
75
83
81
34
27
25
26
27
30
36
47
53
54
56
50
45
41
37
36
73
61
57
57
54
54
54
53
52
52
53
56
56
56
58
57
54
50
51
50
49
48
47
49
51
54
56
61
64
64
63
63
64
58
52
50
49
49
48
49
50
51
51
52
51
51
52
55
58
60
61
73
75
150
195
208
216
220
222
223
224
222
222
222
221
221
227
237
241
242
243
245
250
246
228
215
217
214
219
203
70
60
56
57
55
55
54
52
50
49
49
47
47
48
48
48
46
46
47
48
47
49
48
46
45
44
44
44
44
43
44
45
46
46
46
46
47
47
47
47
46
46
46
46
46
46
46
47
47
47
45
42
23
24
25
34
44
42
41
39
40
41
46
47
51
79
155
249
252
206
144
125
91
112
96
137
127
151
164
165
163
141
93
90
118
143
137
134
75
112
154
161
158
163
160
161
155
153
148
132
119
148
143
132
139
152
139
147
142
127
139
146
146
150
140
147
135
167
180
169
138
86
82
77
90
98
88
108
108
109
117
135
132
127
128
115
114
128
132
131
127
150
183
134
128
144
146
154
150
184
150
182
122
79
71
74
72
70
71
38
21
20
19
18
18
19
22
28
35
45
53
48
45
42
39
32
76
57
57
56
54
53
54
53
52
52
53
56
55
56
56
54
54
51
51
49
47
47
47
49
53
54
56
61
62
62
62
62
62
57
54
51
49
49
48
48
48
48
47
51
51
51
52
56
64
68
72
76
70
163
192
207
216
220
221
223
224
223
222
222
222
223
232
236
237
241
242
246
250
238
227
218
216
215
223
205
71
60
55
55
54
54
53
51
49
48
49
47
47
49
48
47
46
45
47
48
47
48
48
46
44
44
44
44
45
43
45
46
47
47
46
46
46
46
46
47
46
46
46
46
46
46
46
46
46
46
46
43
22
25
29
38
44
43
40
40
40
41
42
43
46
55
135
240
248
232
126
132
128
104
117
132
99
123
104
141
164
96
101
111
141
132
91
121
132
138
151
141
137
164
149
177
167
164
157
139
125
119
126
134
149
174
150
140
160
165
155
176
174
154
144
143
147
174
158
153
176
87
87
83
84
87
90
94
109
125
123
132
127
120
128
129
109
111
120
129
132
128
157
167
132
142
138
169
182
138
187
164
122
72
71
72
61
61
52
31
23
24
22
20
18
18
18
19
21
27
35
39
40
40
36
35
78
60
57
54
55
55
54
54
53
51
53
55
55
54
56
54
52
51
51
49
47
48
48
49
52
54
54
61
64
62
62
59
55
55
52
51
49
48
47
47
46
46
45
49
51
51
53
59
73
74
74
75
67
178
195
208
217
220
223
224
224
222
222
221
221
223
232
236
237
241
243
249
247
236
227
216
214
214
223
201
68
59
54
56
55
53
54
52
49
46
47
46
47
49
49
47
47
46
47
47
48
49
48
48
46
44
45
44
44
43
45
45
46
47
46
46
46
47
47
47
47
46
46
45
46
46
46
46
46
46
46
43
23
27
34
42
44
41
39
40
41
41
40
40
42
45
130
221
245
247
196
162
148
110
112
116
118
146
146
90
95
66
102
140
106
125
125
154
174
175
162
139
151
156
159
148
148
171
143
122
135
154
123
130
130
137
153
169
166
176
183
158
150
160
159
138
134
152
130
137
170
120
103
101
99
98
104
111
119
132
133
129
127
130
125
134
127
127
128
134
140
138
137
162
146
138
165
205
153
167
182
156
119
69
71
71
59
49
40
33
25
27
25
23
21
19
18
17
18
18
22
27
33
35
33
44
72
60
56
54
54
55
54
53
52
54
55
56
56
55
55
52
51
52
50
48
48
49
48
49
52
54
56
60
62
63
61
59
55
52
52
53
51
49
49
48
47
43
42
42
48
53
55
65
70
66
73
78
68
189
197
209
219
222
223
225
225
225
224
222
222
227
233
234
238
242
245
247
237
234
226
218
217
219
223
202
69
60
54
54
55
54
54
52
49
46
47
46
47
50
50
47
47
46
46
47
47
47
47
46
47
44
44
43
43
44
44
44
44
45
46
47
47
48
47
47
48
47
46
46
46
46
46
47
47
46
46
43
24
30
40
42
42
40
39
41
41
41
41
41
41
41
120
207
244
246
235
139
168
119
108
114
94
123
116
71
82
93
112
97
142
148
119
132
176
171
159
147
160
166
163
168
160
151
149
168
175
157
155
144
137
135
134
162
159
165
182
173
161
153
163
157
150
141
142
150
156
82
92
104
103
109
102
115
123
136
131
128
133
140
130
129
132
126
132
135
143
133
131
176
143
125
195
191
151
189
177
176
133
63
69
69
59
47
38
40
38
37
31
28
23
21
21
19
18
18
18
19
24
29
30
45
70
58
55
54
54
54
53
53
53
54
57
58
56
56
55
53
52
51
50
49
48
49
49
51
52
57
60
62
65
65
63
61
59
52
50
50
50
51
51
51
52
49
47
45
43
47
49
55
62
67
75
79
80
196
200
209
220
223
224
226
226
227
226
224
225
231
232
231
237
243
244
240
235
234
225
218
218
220
226
201
70
58
54
55
56
55
53
52
49
48
48
47
46
49
49
48
48
48
47
46
46
47
46
46
46
44
43
43
42
44
43
45
45
46
46
47
47
48
47
47
48
47
46
46
46
45
45
47
47
46
46
44
25
34
43
42
41
38
39
41
41
41
41
41
41
40
113
187
244
245
244
137
95
94
78
78
136
133
112
90
88
101
124
160
174
160
168
157
144
163
149
160
167
154
167
170
151
150
150
144
137
144
147
159
154
144
131
135
138
144
145
134
155
172
140
105
108
153
151
168
152
91
101
106
102
110
103
108
117
112
125
130
127
130
122
126
131
136
125
127
124
138
136
165
169
146
209
178
170
166
186
166
165
67
57
62
56
46
36
46
57
54
38
33
27
25
23
22
20
19
19
18
18
21
25
49
65
58
55
53
52
52
52
52
52
51
56
54
53
53
53
52
51
51
51
49
48
49
51
52
56
60
60
62
64
64
61
60
54
52
50
49
49
50
52
54
53
50
52
51
52
53
54
57
65
72
76
77
105
196
201
209
220
223
224
226
226
228
228
226
228
231
232
235
241
241
240
237
238
236
225
216
217
217
230
200
72
60
54
56
55
55
54
52
49
48
48
46
45
47
48
47
49
48
48
46
48
47
47
47
46
44
43
42
42
43
44
45
45
46
46
47
48
48
47
47
46
45
45
44
44
45
45
46
47
46
46
43
26
36
42
41
40
38
39
41
41
41
40
40
40
40
104
163
245
243
241
120
81
92
103
111
108
118
106
122
150
140
131
156
142
149
147
139
150
134
131
146
157
156
154
144
161
164
136
149
140
125
171
155
149
159
159
164
170
159
167
138
143
129
144
160
141
133
161
147
151
117
115
106
106
105
112
122
118
118
118
128
127
132
126
121
125
128
127
140
139
139
137
142
176
189
212
160
151
192
166
152
144
132
43
52
53
45
35
36
58
58
51
47
31
25
23
23
20
19
19
18
19
18
19
52
63
57
55
53
52
52
51
51
52
51
52
51
52
51
52
52
52
51
50
48
48
49
49
51
52
57
60
63
62
64
59
56
52
49
48
49
48
50
52
55
51
48
48
49
52
55
63
76
76
73
79
75
137
196
201
210
220
224
225
225
227
228
228
230
229
229
233
237
241
241
239
238
239
238
223
214
216
221
236
198
74
64
56
56
54
56
54
53
51
50
49
47
45
46
47
47
48
48
47
46
47
47
47
47
45
44
43
42
43
43
44
45
44
45
47
47
47
46
46
45
45
45
44
46
46
47
47
47
47
47
45
41
30
39
41
40
39
39
41
41
41
40
39
39
39
39
99
155
234
237
173
109
82
94
138
136
109
137
147
156
144
119
152
163
167
155
138
150
145
165
166
145
164
152
162
152
154
172
165
172
187
169
149
153
142
163
172
161
160
170
137
155
169
167
171
178
170
171
141
134
146
109
113
117
112
111
117
126
125
129
131
120
120
113
114
135
132
135
135
140
144
135
147
133
170
212
201
168
203
184
147
142
137
155
129
39
42
42
34
29
43
58
64
64
46
32
25
22
20
19
19
18
18
18
17
54
60
57
56
54
54
53
53
50
52
51
51
51
51
52
54
52
52
51
49
48
47
48
48
49
54
56
55
59
59
58
52
51
50
48
47
48
48
51
55
58
50
47
45
46
49
52
65
77
75
69
77
71
163
198
204
210
218
223
225
227
228
228
229
229
229
233
235
238
240
240
240
241
243
236
222
220
218
234
239
199
74
63
57
55
57
56
52
52
52
50
49
47
46
46
46
46
46
47
47
47
47
46
47
46
45
45
43
43
43
44
45
44
44
45
47
47
46
45
44
45
45
45
46
47
48
48
48
47
47
47
47
42
36
41
41
40
40
40
41
41
40
39
40
40
39
40
102
124
192
132
130
141
100
111
130
130
126
121
130
124
127
137
150
149
164
161
155
152
134
123
129
154
162
159
170
170
172
176
167
176
160
143
155
166
155
152
159
157
173
180
170
161
156
146
166
161
155
176
171
168
162
125
119
120
120
111
113
116
114
110
121
122
123
126
134
135
141
143
141
143
142
137
161
140
176
203
210
173
150
139
143
154
152
141
151
76
34
34
31
28
33
49
63
69
60
46
34
26
22
19
19
18
18
18
18
57
59
57
56
54
54
53
52
50
51
51
53
53
53
55
55
53
53
51
49
47
45
45
47
50
51
51
53
57
54
55
52
62
48
48
47
47
47
49
52
52
50
47
45
45
46
53
62
67
65
66
70
67
179
201
208
214
220
223
225
228
229
230
229
228
231
235
236
239
241
238
244
246
245
234
225
215
221
240
238
202
73
63
56
55
54
55
52
52
51
50
49
48
47
46
47
47
46
47
47
46
46
46
47
47
46
45
44
44
43
44
44
44
45
46
46
46
45
44
44
45
45
46
46
47
47
47
47
47
47
48
47
43
37
41
40
39
40
41
41
40
40
40
40
40
40
41
102
100
104
120
144
141
118
133
146
157
156
121
137
135
156
156
156
154
161
147
166
166
154
160
151
159
167
172
162
141
146
140
145
144
132
160
173
172
177
182
169
168
162
157
158
170
178
180
179
171
175
171
167
158
168
123
114
100
112
103
106
115
130
122
114
118
120
133
136
141
163
177
167
135
142
145
137
137
174
206
183
147
146
144
143
144
152
154
132
127
115
34
28
28
28
36
54
67
68
57
40
33
26
21
19
18
18
17
17
56
59
56
55
55
54
53
52
50
53
54
54
53
54
56
55
55
52
51
48
45
43
43
46
47
49
52
58
63
63
64
61
49
49
49
49
48
47
46
48
49
48
47
47
46
45
49
51
61
65
66
70
65
195
204
210
216
221
223
226
228
228
228
228
231
232
235
237
238
239
239
242
245
245
229
217
214
229
241
240
205
73
64
54
52
50
51
51
51
51
51
50
48
47
46
47
47
46
46
46
46
47
47
47
48
46
45
44
44
43
44
43
43
45
46
45
45
45
45
45
46
47
47
46
45
45
46
46
47
47
48
48
43
38
40
39
39
40
41
41
39
40
40
40
41
41
43
104
108
119
133
113
110
167
162
157
144
153
170
157
165
168
170
168
171
162
143
159
134
170
173
176
176
172
164
160
168
172
171
160
169
183
169
171
168
175
173
176
162
173
168
177
179
171
176
173
163
166
156
168
169
175
99
97
96
102
110
115
118
119
121
125
112
116
127
137
163
172
144
164
181
177
141
131
138
187
178
182
152
139
132
157
140
148
141
102
118
133
109
35
25
26
29
41
59
65
66
53
39
31
25
22
19
17
17
16
59
59
56
54
56
54
52
53
51
52
54
53
52
53
54
53
53
51
47
44
42
41
42
45
49
56
63
63
65
64
58
52
48
47
47
48
51
51
48
46
44
43
44
47
47
52
57
64
63
62
68
67
85
205
206
212
217
222
222
224
227
228
228
230
233
234
238
237
239
239
239
240
242
240
224
219
222
242
243
241
205
75
62
54
52
50
50
50
50
50
50
50
49
48
47
48
48
46
46
46
46
46
48
48
48
46
46
45
44
44
44
43
43
44
45
45
44
45
46
46
46
46
46
45
45
45
45
46
47
47
48
48
41
36
37
38
38
40
40
40
39
40
42
43
42
41
47
121
103
84
58
48
129
165
142
153
150
152
172
172
172
178
165
150
158
157
150
154
170
163
153
156
167
164
169
153
172
169
165
165
166
162
168
174
179
178
178
175
178
176
168
177
176
164
165
174
184
172
154
138
158
155
98
104
127
124
103
118
109
115
116
128
124
152
170
193
205
207
200
177
134
156
179
167
146
199
167
140
155
116
129
128
138
132
124
100
115
130
141
130
49
25
27
31
44
60
67
69
52
38
30
26
22
20
18
17
64
58
55
53
54
52
52
53
52
52
52
52
54
56
54
52
51
48
45
43
41
42
44
51
57
59
59
61
64
62
55
52
50
49
49
48
51
51
51
48
44
41
41
45
48
50
64
71
62
56
66
67
109
206
209
213
216
219
222
224
229
229
229
231
234
236
241
242
239
238
238
239
243
241
228
227
235
247
244
241
203
72
62
51
49
48
50
50
50
51
50
50
49
48
48
46
47
46
46
46
46
46
48
47
47
45
44
44
44
44
44
44
44
44
44
45
46
46
46
46
46
47
46
45
44
46
47
47
46
47
47
48
41
37
37
37
38
40
40
40
40
41
42
42
42
40
45
72
39
39
39
43
141
159
162
168
157
148
154
159
149
131
132
144
162
157
166
173
163
166
174
180
165
145
148
167
170
164
175
167
173
171
159
151
147
143
158
169
180
174
174
174
157
178
180
156
159
173
177
174
158
172
124
112
115
118
117
110
116
121
123
124
130
155
194
207
204
184
181
190
196
135
138
127
179
183
145
153
138
114
147
121
151
148
118
104
106
124
158
165
148
64
21
24
29
40
58
71
66
47
35
29
26
23
21
18
65
59
53
51
53
53
51
51
52
52
52
52
54
55
54
52
48
43
41
40
41
45
52
55
55
54
56
61
61
55
51
50
49
48
47
46
48
51
51
52
48
44
39
40
45
48
54
55
52
49
59
66
128
209
211
214
219
223
225
226
229
230
229
230
233
237
240
236
235
236
237
240
245
239
227
232
245
248
244
239
202
73
60
51
48
49
50
50
51
52
50
51
48
47
47
46
46
45
46
46
47
46
47
47
46
46
45
43
45
45
44
43
45
45
45
45
45
46
46
46
46
47
46
45
45
46
47
47
46
47
47
48
42
37
37
37
38
39
39
40
40
40
40
40
40
38
38
37
39
39
39
77
157
161
160
157
163
156
159
166
164
149
150
157
149
139
162
171
178
164
174
150
159
158
175
174
170
160
151
148
157
166
161
141
148
141
169
175
173
159
175
171
175
177
173
166
165
151
159
164
170
173
104
116
118
132
139
141
131
130
126
130
133
131
129
133
128
134
132
129
139
120
181
177
172
178
150
175
113
157
126
139
123
139
109
113
109
113
154
172
167
139
80
27
22
25
35
54
66
62
45
35
29
25
24
21
68
59
56
55
54
54
51
51
52
54
52
52
54
56
54
49
43
40
39
42
47
51
54
54
53
55
56
59
54
51
55
54
50
50
47
46
46
49
52
52
50
48
43
42
41
41
42
43
48
50
59
63
148
209
213
218
222
224
227
228
229
229
229
230
231
236
238
235
238
238
238
241
243
239
234
242
250
249
244
238
193
70
61
51
50
51
51
49
51
53
50
50
48
47
46
46
46
44
45
46
47
46
46
46
46
46
45
44
45
44
44
43
45
46
45
44
45
45
46
46
46
46
46
46
46
46
46
47
47
47
46
48
42
38
37
38
38
39
39
40
40
41
40
38
31
35
39
41
38
38
41
121
159
154
150
152
140
145
152
130
141
146
151
154
151
168
177
172
165
164
135
157
171
168
174
173
163
162
154
160
163
161
171
184
168
165
163
169
159
178
174
171
165
173
147
173
165
167
163
171
172
172
110
102
107
118
116
120
121
134
128
137
128
129
130
127
135
129
124
133
132
108
131
147
190
185
194
136
108
122
123
97
134
100
121
128
123
114
133
170
176
133
87
64
33
20
20
25
43
58
53
41
30
26
26
21
68
55
55
55
54
54
51
51
50
51
52
54
56
56
49
42
40
41
43
50
51
54
53
52
54
54
58
59
51
57
57
56
53
49
46
45
46
46
51
51
52
52
52
50
44
41
40
42
46
49
57
59
153
209
217
222
224
225
227
228
229
229
232
238
239
240
241
239
238
238
239
241
242
239
241
248
249
242
236
232
186
71
60
49
48
47
47
48
48
50
50
50
49
46
46
46
46
44
45
46
47
46
46
46
46
46
45
43
43
44
44
43
44
44
45
44
45
45
46
46
46
46
46
46
46
45
45
46
47
48
47
47
40
37
37
38
38
39
38
40
40
51
57
50
47
44
46
54
51
39
56
132
135
124
122
123
139
134
153
155
149
165
167
165
162
169
161
144
149
164
180
174
169
162
171
163
142
158
171
175
165
166
152
158
155
165
154
128
126
159
172
158
146
147
160
166
140
170
172
174
173
176
119
123
126
119
114
117
134
146
129
132
122
132
145
141
148
146
137
116
130
110
142
142
155
189
142
116
123
97
105
110
101
107
131
148
147
140
138
165
176
140
82
71
74
46
23
18
20
30
47
47
36
29
25
20
70
56
53
53
55
54
51
49
49
50
55
55
56
53
42
40
41
44
50
52
54
54
54
53
55
57
56
48
52
61
58
55
52
50
47
52
47
46
47
50
51
52
52
52
51
47
50
41
46
45
57
55
162
211
219
223
224
224
227
228
229
230
235
240
242
243
243
239
239
238
240
242
244
241
244
247
244
242
239
232
178
68
57
48
45
45
45
46
47
48
48
49
49
48
46
46
46
46
46
46
46
46
47
47
46
45
44
43
43
44
45
43
43
43
44
43
45
45
45
45
45
45
45
45
46
44
45
45
47
48
48
48
42
37
37
38
38
38
37
36
62
82
84
87
85
82
96
83
89
64
83
148
129
124
139
142
129
149
150
152
137
155
169
171
173
175
178
136
148
140
141
175
158
149
162
165
174
177
169
170
174
159
151
155
157
164
149
146
162
164
137
132
166
176
172
165
168
156
156
170
168
165
103
112
115
131
131
131
126
142
133
140
126
138
126
117
134
144
123
94
132
142
146
136
158
115
133
145
141
137
146
135
131
93
128
158
168
162
156
166
172
158
121
78
75
57
38
25
18
17
24
39
43
35
27
21
75
55
53
54
55
53
50
49
50
53
58
56
54
43
38
40
45
50
52
51
53
54
55
56
56
57
51
46
55
62
58
55
52
50
51
51
46
46
46
49
52
51
53
52
47
121
157
114
57
58
66
63
175
213
222
225
226
228
229
230
231
234
237
240
241
242
239
238
238
238
239
240
239
238
238
245
242
242
237
228
157
65
54
46
44
43
43
44
45
46
46
48
48
48
47
47
46
46
46
46
48
47
47
46
46
46
45
44
43
44
45
44
44
44
45
44
44
46
45
46
45
46
46
47
45
45
44
45
46
47
47
49
41
37
38
36
34
32
36
64
84
86
87
92
92
95
99
99
112
130
100
140
147
147
143
162
168
146
127
138
159
163
162
170
159
144
146
155
147
156
149
130
150
159
148
148
134
147
167
182
161
174
165
163
179
176
178
174
148
136
163
179
158
156
152
150
158
158
162
157
165
155
119
133
135
121
121
132
136
133
130
141
140
128
133
141
125
130
130
104
133
125
123
158
134
102
100
180
185
152
175
179
128
92
111
135
162
169
168
170
177
191
197
136
86
62
46
34
24
17
14
18
30
37
30
27
74
54
55
56
54
50
49
49
52
56
55
53
46
40
41
47
49
51
51
51
53
53
55
57
55
51
48
48
60
61
59
57
55
53
51
48
42
44
46
49
51
52
53
53
67
152
174
147
64
63
70
63
189
216
225
227
229
228
229
230
230
233
236
239
242
241
239
238
237
237
237
239
240
239
241
243
241
241
228
227
136
61
50
45
43
42
42
42
44
46
46
48
48
48
46
45
45
44
45
45
45
46
46
46
45
45
44
43
42
43
44
43
44
44
45
44
44
45
45
45
44
45
46
47
47
46
44
44
44
46
46
48
40
34
29
25
28
38
65
80
83
85
87
87
86
79
74
76
90
123
140
151
144
148
147
144
116
141
171
153
144
158
157
146
141
149
153
150
166
172
175
154
155
146
149
159
151
132
145
142
162
170
179
180
180
170
165
172
176
163
142
137
152
158
165
164
170
173
156
143
164
172
112
104
116
116
135
125
113
131
134
132
126
149
150
145
133
151
141
121
139
165
173
170
141
124
142
149
149
183
193
208
123
96
74
81
97
134
146
161
176
178
181
192
184
114
65
45
31
24
17
15
16
25
31
35
71
56
57
55
51
49
49
49
52
53
53
47
42
43
49
51
51
53
52
52
53
56
54
55
52
50
48
50
62
59
58
57
52
49
49
47
42
44
47
49
51
52
52
53
67
128
88
127
74
71
72
66
198
216
227
230
231
231
231
230
231
234
234
236
239
239
239
238
237
237
237
239
242
240
242
240
240
236
224
221
122
61
49
45
44
43
42
43
44
45
47
48
49
48
46
45
45
44
43
43
44
45
45
45
43
44
42
42
43
43
43
43
43
44
45
43
43
43
44
44
44
45
46
46
46
46
45
44
44
46
45
49
33
23
23
35
53
70
78
80
78
78
78
80
85
78
64
64
72
91
122
157
159
144
151
143
166
145
160
177
154
154
172
170
157
174
165
151
161
128
126
141
138
163
148
143
138
162
166
143
141
172
176
179
167
162
172
174
154
172
164
167
163
171
168
152
136
160
154
126
112
131
124
106
130
134
129
131
130
136
141
140
137
115
116
129
116
138
179
177
209
211
204
180
159
118
115
147
127
135
131
121
94
69
61
57
58
61
68
73
92
111
136
169
148
63
31
32
31
29
22
17
15
16
23
47
66
57
58
55
52
50
49
50
53
52
49
47
47
51
55
52
52
52
52
53
53
51
51
52
51
49
49
57
61
58
58
56
55
50
47
46
43
44
47
50
53
51
52
54
57
92
99
73
71
72
68
80
200
217
229
232
233
233
231
231
231
232
231
232
234
238
239
237
236
237
237
240
243
241
241
239
238
230
228
212
97
58
49
46
44
44
42
42
44
46
47
48
48
49
48
47
46
44
43
42
43
45
45
45
43
43
44
43
43
43
43
43
43
44
44
43
43
44
45
45
45
46
46
46
46
46
46
44
43
45
45
50
27
27
40
61
79
81
81
83
81
77
76
79
86
79
65
60
62
67
95
156
161
156
156
175
175
161
165
157
155
166
154
142
149
136
135
147
155
143
150
152
139
131
149
172
170
162
162
165
162
175
179
171
162
172
167
150
160
156
172
167
167
162
157
150
138
132
154
154
153
164
133
124
120
122
121
131
129
117
135
135
119
121
122
168
157
140
183
169
132
201
220
210
171
124
109
139
145
120
111
89
101
105
95
79
64
61
62
65
69
80
101
125
71
18
18
20
26
28
25
22
17
16
17
51
61
56
57
53
49
49
50
50
52
51
50
49
53
56
52
53
52
53
53
52
51
47
48
51
49
49
49
57
59
60
59
57
55
49
45
43
40
41
44
48
53
52
52
51
56
61
64
69
66
70
64
104
197
215
230
232
234
234
233
232
232
232
232
233
234
235
236
234
233
236
238
240
244
241
238
238
237
229
215
207
75
57
49
47
44
42
41
42
43
46
46
48
48
48
48
48
47
44
43
42
42
43
44
46
44
45
45
44
44
44
44
44
43
43
43
43
43
45
45
45
44
44
45
45
45
46
45
45
44
43
45
49
32
44
62
78
82
83
82
84
82
81
80
83
88
84
67
59
57
58
74
159
134
131
151
144
153
165
169
163
163
165
166
164
171
161
144
152
154
160
164
164
165
165
171
169
168
169
168
158
174
173
152
171
182
170
149
146
171
158
151
167
164
153
158
166
174
159
159
164
155
137
128
126
113
127
126
147
141
133
112
111
120
138
162
125
107
147
154
136
172
168
170
187
174
103
122
185
177
156
125
84
112
128
130
119
95
75
69
69
74
79
81
88
43
18
18
18
20
24
27
25
20
17
18
57
59
57
57
54
49
50
50
51
53
51
50
50
53
53
52
52
54
54
53
49
48
47
49
50
50
50
52
57
60
60
59
58
57
51
44
43
41
41
46
51
54
54
53
58
66
72
70
70
63
68
63
116
184
215
228
233
234
235
235
234
232
230
232
237
240
242
240
235
235
236
238
241
243
243
245
239
237
227
215
203
68
56
50
46
45
44
42
42
43
46
46
46
48
49
49
48
47
44
43
44
44
43
45
45
45
45
45
44
44
44
43
44
43
43
44
43
44
45
45
45
45
45
44
44
45
46
45
45
44
43
44
47
44
64
68
81
83
84
84
85
87
89
92
94
92
91
78
62
57
53
69
142
123
164
169
177
164
166
167
154
163
168
172
162
155
160
158
144
164
164
164
136
167
175
167
172
157
152
163
172
175
168
176
180
159
159
141
156
136
160
173
160
160
173
173
158
169
177
162
138
128
148
100
132
132
114
93
94
118
129
128
132
143
163
131
115
140
144
153
203
190
180
144
156
151
120
118
130
142
132
102
95
113
139
150
144
129
96
74
67
65
66
64
69
54
20
18
18
17
18
22
26
25
21
16
61
59
58
53
52
49
50
50
51
52
50
51
52
52
52
51
52
52
52
48
46
46
49
51
49
49
49
55
56
60
61
58
58
57
54
47
43
41
45
46
51
53
53
55
63
69
70
68
67
63
65
59
117
165
202
226
233
236
236
236
237
235
234
233
234
237
239
234
230
233
236
238
241
242
243
242
238
235
224
217
198
65
56
51
45
45
43
42
43
44
45
46
47
48
49
49
49
48
46
43
42
42
42
43
43
44
45
44
44
43
43
43
43
43
43
44
43
45
46
45
45
44
45
44
44
45
45
45
45
45
44
44
50
54
73
73
82
85
84
84
87
91
97
100
100
98
94
84
74
57
53
69
142
164
163
159
170
162
144
162
166
170
147
141
128
133
144
152
156
158
166
163
152
165
163
170
168
161
170
171
169
170
167
160
154
129
123
134
155
159
147
148
158
156
172
172
134
144
138
138
157
171
156
109
129
133
133
132
128
116
128
133
131
145
136
108
109
134
141
168
182
186
158
154
144
131
136
133
148
167
123
101
104
123
136
131
121
112
84
61
50
50
51
52
60
61
28
19
18
17
17
16
20
24
24
20
65
59
56
54
51
50
48
49
52
50
51
51
51
50
51
51
51
50
48
44
43
45
48
50
47
48
51
56
57
60
58
57
58
56
50
52
45
43
44
48
51
51
53
57
61
64
66
67
56
64
64
55
131
151
185
219
233
237
237
237
237
237
235
233
232
233
232
230
232
232
234
237
240
242
240
238
236
228
221
218
191
69
55
49
47
46
44
42
43
44
44
46
46
48
47
49
49
48
48
45
42
42
42
43
43
44
45
44
43
43
43
42
43
43
43
42
43
44
45
45
45
44
44
44
44
45
44
44
44
45
44
44
47
54
70
81
82
85
84
85
89
94
101
102
102
100
96
92
82
65
51
65
152
159
164
153
154
127
145
147
137
132
130
135
158
161
151
143
151
153
173
160
169
157
156
175
176
168
174
169
168
170
152
155
147
154
156
151
147
152
141
143
173
170
172
168
154
133
129
144
161
141
154
112
126
121
130
126
122
111
134
135
124
115
134
121
135
128
155
170
176
152
148
138
154
143
153
210
187
174
104
101
106
107
101
88
71
59
51
42
36
37
37
39
46
61
44
23
18
18
17
17
15
19
23
21
68
61
54
53
51
47
48
50
51
50
52
51
53
50
50
51
50
47
45
44
45
48
48
49
46
47
56
58
59
58
56
55
55
53
49
49
45
43
46
48
48
46
49
55
59
63
62
60
55
63
65
63
151
151
168
203
230
238
239
239
239
238
237
234
232
231
228
229
232
234
233
236
243
242
241
237
238
233
233
227
187
66
57
49
47
46
45
44
44
44
45
46
46
47
47
49
49
48
49
47
43
43
43
44
45
45
45
43
44
44
43
43
42
42
43
43
42
43
43
43
43
42
43
44
45
45
44
43
43
44
44
45
48
54
70
82
84
85
85
86
89
94
99
98
105
105
100
94
88
77
54
63
157
145
145
146
133
143
147
129
141
137
133
123
149
138
157
169
169
152
129
128
148
169
166
157
147
135
141
115
123
121
142
126
123
158
159
147
156
154
160
141
153
171
170
148
153
171
174
148
123
146
160
138
119
120
125
123
122
122
107
127
124
118
112
100
118
124
163
157
152
147
136
135
135
142
118
153
198
184
95
98
100
91
74
62
56
46
40
37
35
33
31
31
36
49
53
32
22
18
18
18
16
16
18
20
69
58
54
51
50
49
49
51
51
51
52
52
52
48
47
49
49
48
45
45
44
47
48
47
44
50
56
58
57
56
55
54
55
52
49
48
47
43
45
47
48
45
44
53
59
61
61
59
55
65
62
93
163
164
169
182
216
236
241
241
241
240
237
236
233
230
228
230
231
232
233
237
242
243
241
241
239
236
235
219
171
61
54
49
46
46
45
45
45
44
46
46
45
45
47
50
49
49
49
48
46
43
42
42
43
45
45
44
44
44
43
43
42
42
44
43
42
42
42
43
42
41
42
44
45
45
43
43
43
44
45
45
46
56
74
81
84
82
85
84
85
87
87
85
79
73
78
83
87
93
70
73
148
157
148
138
130
156
162
166
151
153
124
128
121
144
163
145
135
161
160
160
160
157
170
163
136
146
146
139
137
130
112
144
147
131
138
152
133
142
153
164
147
130
136
147
159
139
160
173
147
147
158
