P2
# Created by GIMP version 3.2.0 PNM plug-in
256 256
255
135
134
133
134
135
132
132
132
129
132
131
132
132
132
134
134
134
135
135
134
134
135
137
137
138
138
139
139
140
143
143
145
146
147
145
147
147
148
148
150
148
147
146
150
147
146
146
146
146
146
144
144
144
145
145
146
147
148
148
149
148
148
147
148
148
148
147
150
148
149
148
148
147
146
147
147
148
149
147
146
150
148
150
150
150
152
152
152
152
153
152
151
151
152
152
152
153
154
153
153
154
154
155
156
158
156
159
160
162
165
164
165
164
163
163
161
161
159
161
161
160
161
161
161
162
162
166
169
170
172
170
169
165
163
160
158
159
159
159
161
160
163
162
162
165
164
166
166
165
166
169
170
171
172
172
172
171
171
170
171
171
171
171
171
170
172
171
170
172
173
175
176
178
177
179
181
181
181
178
177
176
177
177
178
177
179
180
182
184
183
183
184
183
185
185
185
186
187
187
185
184
183
183
184
184
186
187
188
189
190
193
194
193
192
189
192
193
191
190
189
189
191
190
191
191
190
191
196
195
196
195
193
194
195
196
195
197
196
198
197
199
199
198
198
199
198
197
198
197
195
197
197
196
197
198
202
133
132
131
131
131
129
131
130
130
131
130
130
133
133
133
133
135
135
135
134
136
139
141
141
143
144
144
146
145
147
147
148
149
148
149
147
147
145
146
145
145
143
142
142
143
141
143
142
145
144
143
143
144
144
145
147
146
146
147
147
147
147
146
144
144
142
143
143
144
142
144
144
144
144
146
147
146
147
148
148
148
149
149
149
148
150
151
152
151
150
151
153
152
152
151
152
151
152
152
152
155
156
156
158
160
160
164
165
164
163
162
159
160
161
160
161
159
159
160
160
158
159
162
162
166
168
171
170
169
165
164
159
160
156
158
157
158
158
160
163
162
161
161
163
163
164
166
165
165
167
168
170
170
169
169
168
168
168
167
170
170
170
170
170
168
168
170
170
173
175
176
177
178
178
179
177
177
174
174
177
176
175
177
179
178
179
180
184
182
182
183
183
182
183
183
184
185
185
183
181
182
182
183
184
185
185
187
191
191
190
189
190
190
190
190
190
190
189
188
189
189
189
189
189
191
191
193
195
193
193
195
195
195
194
195
195
196
197
196
197
197
200
199
197
197
196
196
196
194
195
197
198
197
197
200
203
130
128
131
129
130
130
132
131
131
131
132
131
133
136
136
140
141
141
141
143
145
143
146
144
144
145
144
145
145
145
145
145
146
144
144
142
140
139
139
141
141
141
140
141
143
143
143
143
145
144
143
145
146
146
146
149
146
143
143
143
141
139
140
138
139
140
141
140
142
143
144
143
144
147
147
147
146
147
147
148
148
148
150
150
150
151
151
151
151
150
152
151
151
151
151
152
153
152
153
156
155
159
159
162
162
163
162
160
158
158
157
156
157
159
156
159
157
157
159
159
162
164
170
172
169
168
164
161
159
158
156
157
158
156
157
160
159
160
161
161
162
162
164
165
163
164
166
166
167
168
168
167
168
167
166
165
166
169
169
168
167
168
166
166
168
168
172
171
173
176
175
176
174
174
174
172
173
174
174
174
176
176
177
178
180
178
179
181
181
180
181
181
182
184
184
185
183
179
180
180
180
181
182
183
185
187
189
189
191
190
189
191
189
192
188
187
187
187
187
187
186
188
189
190
193
193
191
193
192
192
192
193
195
194
194
195
195
194
196
198
198
198
199
197
195
194
193
195
195
195
197
197
198
199
200
199
130
131
134
134
133
134
135
134
137
137
138
140
140
141
141
144
142
142
143
143
141
142
142
142
141
143
141
140
141
140
140
139
140
141
139
140
139
139
140
139
141
140
139
139
141
141
142
143
142
141
141
141
142
141
140
141
143
140
139
140
138
139
138
139
141
141
142
141
142
143
143
143
146
145
145
145
148
146
146
148
150
149
148
149
150
150
149
149
150
149
150
151
151
150
151
152
155
155
157
160
162
159
160
160
159
158
157
158
156
157
156
156
158
156
155
158
157
161
161
166
166
166
166
163
161
158
155
155
155
155
156
156
156
158
160
160
160
160
160
160
161
162
162
163
163
165
166
165
166
165
164
165
164
166
165
165
168
167
165
165
167
165
165
167
168
170
172
173
173
173
174
175
172
172
172
172
171
174
174
173
176
179
179
177
178
179
179
180
180
181
181
181
182
181
181
180
178
180
180
180
180
181
181
182
185
185
187
190
188
187
188
189
188
189
188
187
187
187
187
187
186
188
189
191
192
192
191
192
193
192
190
193
195
196
194
195
195
195
196
199
198
196
198
194
192
193
194
195
195
195
194
198
201
203
199
197
137
140
137
140
138
141
142
139
139
140
141
139
138
139
138
141
140
138
137
136
136
138
135
135
137
136
135
135
135
135
136
137
137
138
138
138
139
138
137
137
138
140
139
140
141
140
140
140
140
140
139
138
137
137
137
135
139
137
137
136
137
137
140
140
141
140
142
144
143
145
143
143
143
145
145
146
147
149
147
147
147
147
147
151
148
148
149
150
148
149
150
150
150
155
155
154
158
159
160
161
159
156
157
154
156
156
155
155
156
156
154
154
156
156
158
162
163
166
166
167
165
162
155
154
155
152
153
153
154
154
155
156
157
158
158
158
159
157
160
159
160
161
161
164
165
165
164
164
164
163
162
163
164
163
163
164
165
165
163
163
163
165
165
168
169
170
171
173
174
172
171
170
172
169
171
171
170
174
173
175
177
178
177
177
177
178
178
178
178
181
180
182
180
178
177
177
178
180
179
178
179
182
181
182
184
186
186
188
186
186
186
188
186
184
186
186
186
185
185
185
187
188
189
190
190
190
190
189
192
193
193
190
194
193
194
193
193
195
197
197
196
195
193
193
191
192
193
194
194
195
196
201
201
197
194
195
138
140
140
140
141
139
138
138
139
135
136
133
135
132
132
132
132
132
131
132
133
135
132
134
134
133
135
134
135
135
136
136
138
138
137
138
138
139
138
137
136
137
136
135
136
137
136
135
137
135
138
137
135
135
135
137
136
137
138
139
137
139
137
141
142
142
142
144
142
144
143
143
145
145
144
145
146
146
146
146
148
147
147
147
149
149
148
150
149
148
151
155
157
157
156
156
159
157
157
155
154
154
153
153
153
153
154
154
154
153
155
156
158
161
164
165
166
163
160
159
155
152
152
150
151
152
153
153
155
155
156
157
157
157
158
158
157
160
160
159
161
161
165
162
164
163
162
162
159
162
160
164
163
163
163
162
161
162
163
163
165
167
167
170
170
170
171
170
170
168
167
170
169
169
168
171
171
175
175
176
175
174
177
174
177
176
176
176
178
180
179
176
176
175
175
177
178
178
178
180
180
183
183
183
181
184
184
184
186
185
184
184
183
183
185
186
185
184
185
186
186
188
187
189
189
189
193
190
189
191
191
192
193
192
194
194
193
193
195
193
192
191
193
193
194
193
192
193
194
197
197
199
195
196
194
195
136
135
133
133
131
131
133
132
131
132
132
132
132
131
131
134
135
133
133
133
132
133
134
134
135
135
134
133
136
135
138
136
137
138
136
137
136
136
133
132
133
134
132
132
132
134
133
132
134
134
134
135
134
137
132
134
137
138
139
140
138
142
141
140
142
142
143
143
143
143
142
142
144
144
145
146
146
146
146
148
146
147
146
147
146
148
148
152
152
155
153
156
157
158
155
155
152
151
151
151
152
154
152
152
153
151
153
154
155
155
157
160
163
162
161
158
157
155
151
149
150
150
151
152
152
154
154
153
155
154
156
157
155
157
157
156
157
157
158
160
160
162
163
161
160
158
157
161
159
160
160
160
161
160
160
159
163
161
164
165
166
167
169
170
171
167
168
167
167
167
167
167
169
168
171
172
174
173
174
175
175
174
175
175
176
175
175
177
179
177
175
173
175
176
175
177
179
180
179
180
182
184
182
181
182
184
182
183
183
183
181
182
181
181
183
185
187
185
187
186
186
187
186
186
188
190
191
188
189
191
192
191
191
191
192
194
192
191
191
190
190
190
192
192
192
193
192
193
195
196
196
194
193
194
195
196
133
134
132
134
136
135
133
134
135
134
132
134
138
134
134
136
137
135
137
136
135
135
135
135
135
135
134
132
135
133
136
134
134
131
132
131
131
130
130
129
130
131
129
131
130
131
132
132
132
133
136
135
137
136
138
137
138
138
137
138
140
140
140
144
142
140
141
142
141
142
144
143
143
142
144
144
145
144
145
146
146
146
147
148
151
150
153
153
154
155
155
153
154
150
151
150
150
150
149
149
150
150
150
150
152
152
153
156
160
161
159
163
159
157
153
151
150
148
148
149
150
150
153
152
153
154
154
155
154
154
154
154
156
154
155
157
155
156
158
159
158
158
157
156
156
156
158
158
159
159
159
158
157
157
159
160
161
163
164
166
164
166
167
167
166
163
164
166
166
164
166
166
167
170
171
174
172
172
172
175
173
174
174
172
176
176
176
175
173
171
173
173
173
173
175
176
177
180
181
179
178
180
181
182
183
184
183
181
179
180
181
182
181
181
180
183
184
185
186
187
186
185
187
187
187
187
189
189
190
190
190
190
189
188
191
191
191
191
188
189
188
190
190
192
192
193
192
195
197
195
193
192
193
194
193
194
130
133
135
136
134
137
135
136
135
138
136
134
135
137
137
137
138
136
136
137
136
137
135
134
134
134
132
132
132
131
132
131
130
127
129
127
128
130
131
129
130
130
130
131
133
131
133
133
135
136
136
135
136
137
137
138
139
137
140
138
140
139
139
140
140
140
141
141
142
143
143
143
143
142
143
143
143
145
145
146
146
149
151
153
153
153
153
153
152
150
149
148
147
147
147
147
149
148
147
148
148
150
150
152
153
159
158
157
157
158
154
150
149
148
149
147
148
149
149
149
150
150
151
152
154
154
154
153
154
153
152
154
155
155
156
157
156
158
156
157
156
154
155
155
156
156
156
156
156
158
155
155
157
159
160
162
164
163
167
165
164
166
162
162
163
163
163
164
165
165
166
166
171
172
169
170
170
171
172
174
173
173
175
173
175
173
172
171
169
171
171
172
173
174
175
176
180
179
179
180
178
179
181
181
179
183
180
178
179
178
178
180
180
182
180
181
185
185
185
186
184
185
186
188
185
186
189
188
189
188
189
188
190
189
190
190
187
187
188
187
189
190
193
195
191
193
195
195
194
192
190
193
193
193
195
194
130
133
133
135
134
135
138
138
134
138
137
136
137
136
137
136
136
135
134
134
132
131
134
133
131
130
132
130
130
129
128
128
128
128
128
129
129
130
131
130
130
131
132
131
131
134
134
134
134
133
135
136
137
137
139
137
137
138
137
139
138
139
139
140
140
141
142
141
141
139
142
141
141
142
143
143
146
147
148
151
152
151
150
152
152
148
146
146
145
146
146
146
147
147
146
146
146
146
147
147
149
150
155
156
156
158
153
152
148
150
145
145
148
147
147
147
149
149
151
150
151
151
151
151
151
151
151
151
151
152
153
152
155
156
156
158
154
154
153
152
153
153
153
154
155
155
156
155
155
155
155
156
161
160
162
163
164
163
164
163
162
163
161
162
161
161
163
163
166
166
169
170
168
170
169
169
170
169
170
171
171
171
173
173
170
169
168
170
170
170
172
171
175
174
176
178
180
179
179
180
181
180
181
181
179
176
176
177
177
177
178
178
180
183
185
182
183
182
183
185
185
185
186
184
185
185
185
188
186
187
187
188
188
188
187
188
186
185
186
187
188
190
191
191
194
197
196
192
190
190
190
192
191
195
193
194
129
132
135
133
134
134
135
134
133
138
133
134
133
136
135
136
136
132
132
132
132
129
130
129
132
129
131
131
130
129
128
128
127
128
130
130
130
131
132
130
131
131
132
132
132
133
135
134
134
134
135
137
136
135
137
137
136
139
137
139
137
139
137
139
137
137
140
141
142
140
142
142
143
145
144
146
150
151
151
150
148
148
147
146
145
145
145
145
144
145
145
145
145
146
145
146
146
146
151
149
152
152
153
152
149
147
145
144
144
145
144
145
146
146
148
147
148
148
147
151
148
149
150
150
149
150
150
149
152
152
153
152
153
154
151
152
151
149
150
150
150
152
152
151
152
151
153
155
155
155
156
158
159
158
160
161
161
161
160
160
159
160
159
159
160
161
163
164
165
167
165
166
167
169
170
170
168
168
169
169
170
170
171
167
165
165
166
167
170
170
170
172
173
176
176
178
178
178
178
179
179
179
178
177
176
174
175
177
174
177
179
178
179
181
182
181
181
181
180
183
183
182
184
184
185
186
185
183
184
188
187
187
186
187
186
186
186
186
187
187
186
187
190
192
194
193
192
188
189
190
190
191
191
191
192
192
128
133
133
133
132
131
132
132
132
132
132
132
131
132
131
133
133
131
130
131
130
131
130
132
130
133
130
132
133
132
131
132
130
128
129
131
131
131
131
130
130
132
134
131
133
133
133
137
134
137
137
135
136
136
137
136
137
139
137
136
138
138
138
138
138
140
143
142
143
142
144
145
146
145
147
146
147
145
146
143
144
144
145
145
144
145
146
144
143
142
144
145
144
145
145
147
148
149
151
150
150
147
145
145
143
142
144
144
145
145
145
145
146
145
147
146
147
148
147
149
149
148
149
150
150
151
150
151
153
152
151
151
150
150
149
148
148
148
149
152
151
152
151
151
152
152
154
156
155
156
158
158
159
158
158
158
157
156
157
157
158
158
157
161
158
160
163
165
166
164
166
167
166
167
167
169
170
168
170
169
168
167
165
163
164
166
168
167
170
170
171
173
175
175
176
174
175
177
176
176
177
176
175
174
174
174
173
177
177
177
177
178
178
178
179
179
180
181
182
183
181
181
183
185
183
184
183
183
183
185
184
184
182
184
185
185
185
185
187
189
186
186
191
192
188
188
186
186
188
190
192
194
190
191
190
192
126
125
127
127
128
126
127
129
129
128
128
129
132
133
132
130
133
131
132
131
132
134
131
134
131
133
134
132
133
132
131
132
132
129
132
133
131
132
131
132
133
133
133
133
135
135
134
134
133
137
133
135
134
135
135
137
136
136
136
138
138
138
138
139
141
141
144
143
144
144
146
146
144
145
145
142
143
143
142
143
143
143
144
144
144
142
142
142
142
142
143
145
144
146
147
147
148
146
145
145
143
141
143
142
142
142
143
143
144
142
145
146
146
146
146
147
147
147
148
146
148
148
150
148
150
149
151
150
151
150
149
149
149
146
146
149
149
150
149
150
148
151
150
152
152
155
154
156
157
157
158
157
157
156
157
155
157
155
157
154
158
158
159
160
162
163
164
163
162
163
163
166
165
166
166
168
168
169
167
166
163
160
164
164
164
165
167
167
170
171
173
174
172
172
174
174
174
176
177
175
175
175
172
172
172
172
172
174
176
177
178
179
178
178
178
179
179
179
180
180
180
184
181
183
181
182
183
184
184
182
181
182
180
183
184
185
185
185
186
185
188
189
190
189
187
185
187
186
188
190
191
191
190
189
190
189
123
121
121
121
125
125
127
127
129
130
131
131
132
132
131
133
133
134
133
135
138
137
134
134
133
133
134
132
132
133
132
131
131
131
132
132
131
130
134
132
131
133
133
134
133
134
133
133
133
132
133
135
134
134
135
136
136
136
139
139
138
141
141
144
143
144
144
144
145
143
141
142
140
141
141
140
141
141
142
141
140
140
141
139
139
142
140
140
142
143
144
145
145
142
145
141
141
140
139
139
141
139
141
141
142
142
143
143
145
143
144
144
146
145
145
145
145
146
146
146
148
148
149
150
150
151
150
147
148
147
145
147
147
146
146
147
147
147
148
148
149
148
150
152
153
154
155
157
157
157
153
154
154
155
154
153
154
153
153
155
157
159
158
160
162
159
162
161
164
164
164
165
165
166
166
167
166
163
162
160
160
162
164
163
163
163
167
166
169
172
171
171
170
171
172
173
174
175
173
171
171
173
171
173
173
172
172
174
176
175
176
177
177
176
178
177
178
178
178
179
180
180
180
179
179
181
183
181
183
182
179
180
181
182
186
184
186
187
187
189
191
190
189
185
186
187
186
186
188
189
189
189
189
190
190
189
122
124
123
122
124
125
125
123
126
127
131
131
133
132
131
130
132
133
132
135
134
135
134
135
134
133
133
131
134
133
133
133
131
132
133
134
133
133
131
132
131
134
131
132
132
133
133
134
132
135
134
135
133
134
136
136
136
137
139
141
141
142
143
141
145
143
142
139
137
139
137
139
139
140
140
139
138
137
138
136
137
135
136
140
139
142
142
144
142
143
142
139
141
138
138
137
137
139
138
139
140
139
140
141
141
143
142
143
146
145
143
144
144
145
144
143
144
146
146
148
149
149
148
148
145
146
147
145
144
145
144
144
145
146
146
146
146
146
146
146
148
150
152
152
157
156
154
155
155
152
152
152
151
152
151
151
152
154
154
153
155
158
158
160
161
160
161
161
165
165
164
166
165
164
165
164
161
160
158
160
159
161
162
161
164
165
166
167
170
168
169
170
170
171
172
173
171
172
169
169
168
170
171
169
172
172
174
174
174
175
173
175
176
177
176
176
177
178
177
179
179
179
178
179
181
180
182
181
179
180
179
181
182
182
185
185
185
188
191
191
188
187
185
185
187
187
186
186
188
188
186
188
189
188
191
192
122
122
123
122
123
124
123
124
126
127
127
129
128
127
128
128
129
130
130
131
132
133
134
134
132
131
132
132
133
132
135
135
135
133
133
134
134
132
132
132
132
132
133
134
133
133
133
134
134
137
136
135
135
137
139
140
140
142
140
139
140
141
139
136
137
137
135
138
139
137
137
138
138
137
137
136
135
134
135
135
137
137
138
138
141
141
142
140
139
137
136
134
136
134
137
138
138
138
139
140
139
139
141
141
141
141
142
143
142
142
143
144
144
144
145
144
144
144
146
147
147
144
145
145
144
144
143
143
143
144
144
144
144
144
144
144
144
145
147
149
149
152
151
151
152
154
151
151
152
150
149
148
150
151
151
151
153
155
156
157
158
156
158
158
160
160
162
162
161
162
163
165
164
162
160
157
158
158
159
160
160
160
161
162
164
165
166
166
166
167
168
170
170
169
171
171
168
166
167
166
166
168
171
171
172
173
174
173
172
173
172
173
175
177
176
175
176
178
179
178
178
178
179
179
180
181
180
178
178
177
177
179
185
182
184
184
186
191
192
190
185
184
185
185
185
188
188
187
187
186
186
187
189
190
190
191
122
122
122
122
123
124
123
122
125
124
124
124
128
127
127
127
128
128
128
128
128
128
130
131
131
134
132
132
132
135
135
134
135
133
134
133
133
133
134
132
132
135
134
134
134
137
139
137
135
136
139
140
139
140
141
140
139
139
139
136
135
135
135
135
136
135
136
134
134
135
133
135
134
134
134
133
134
135
134
136
139
137
141
140
138
137
138
135
135
134
134
135
135
136
137
137
136
139
138
138
140
140
140
140
141
141
142
140
141
141
141
143
143
145
145
144
143
143
145
142
143
142
142
142
143
142
142
144
144
144
143
144
143
144
144
143
145
146
150
151
150
151
150
149
150
150
150
149
148
149
148
148
149
150
151
151
154
154
155
154
154
154
156
159
158
159
160
160
161
162
160
159
160
157
157
158
158
159
159
159
160
159
163
165
164
165
165
164
165
165
167
168
169
168
167
166
165
163
165
165
166
168
169
170
172
173
175
173
172
173
173
174
175
174
177
178
177
175
175
176
178
178
178
179
177
176
177
177
177
176
178
179
180
180
183
190
191
190
186
183
183
184
184
185
187
187
188
186
186
186
187
189
186
186
187
189
122
122
121
121
121
122
121
124
123
124
124
124
122
122
125
125
128
127
127
128
128
129
131
130
130
131
132
132
133
132
133
133
133
130
133
135
137
134
138
135
135
134
136
138
136
139
139
137
139
138
140
141
139
138
138
137
134
134
134
132
133
133
135
134
135
134
133
132
132
132
133
133
133
133
134
134
136
138
138
138
137
135
133
131
132
132
131
132
131
133
134
134
133
134
135
135
137
138
138
140
139
140
139
140
138
139
139
140
140
141
141
142
142
145
143
141
141
141
142
141
140
142
142
142
144
143
144
142
143
143
142
142
142
143
145
147
149
149
151
149
149
149
149
148
147
148
147
146
147
147
147
148
149
150
151
152
152
154
153
153
154
155
157
159
159
160
159
162
160
160
159
156
154
155
156
157
158
158
158
161
161
162
163
162
165
161
161
164
165
166
168
166
166
164
161
163
162
163
163
166
167
171
170
171
170
171
172
172
171
173
173
174
173
173
175
174
175
175
174
176
177
178
177
178
176
175
176
175
176
180
178
180
180
181
189
193
189
184
181
183
182
184
184
187
188
187
187
185
184
184
188
188
187
187
186
187
122
122
121
121
120
121
122
124
123
122
122
123
122
123
123
124
124
127
125
125
127
127
129
126
128
128
127
131
131
131
134
133
133
133
134
135
136
138
135
137
137
136
141
140
142
139
139
138
137
137
133
137
133
133
134
134
134
134
132
133
133
133
132
131
132
129
130
131
129
131
133
132
134
135
135
137
136
133
133
132
129
129
128
129
131
131
129
130
132
131
133
133
135
135
134
135
138
137
138
138
137
137
140
138
139
138
139
140
140
141
141
141
140
141
138
139
139
139
140
140
140
140
141
141
143
142
143
140
141
141
141
143
143
147
149
147
147
150
151
150
150
148
148
148
145
145
146
146
147
146
148
148
149
150
151
151
151
154
153
156
155
157
157
158
159
159
159
159
156
154
153
151
154
155
157
158
158
158
157
160
161
162
162
161
161
162
162
163
165
164
165
163
161
162
160
161
162
163
166
165
166
169
169
171
169
170
169
171
170
171
171
172
173
173
172
172
172
173
175
177
176
175
174
175
174
173
176
177
175
179
179
177
183
186
189
187
185
180
181
182
182
183
184
185
185
183
185
184
184
184
186
187
187
187
188
188
121
122
121
122
122
122
121
121
122
124
123
124
124
124
123
123
124
123
123
123
124
125
127
129
127
129
127
129
128
129
133
132
134
134
132
137
137
138
140
140
138
139
140
138
139
137
135
133
133
133
134
133
134
134
134
134
131
135
131
130
129
130
130
127
129
130
131
132
132
135
132
134
134
134
132
131
129
128
128
127
126
127
127
129
129
128
132
131
129
131
133
134
135
134
135
137
136
135
137
136
136
137
138
138
139
138
139
140
141
139
138
138
136
137
137
138
137
139
139
141
139
139
140
142
141
139
138
141
141
141
142
144
146
149
149
148
148
148
147
146
147
146
146
145
144
145
144
145
147
147
148
150
149
151
150
151
153
155
154
156
155
155
156
158
158
159
156
155
151
153
153
154
156
155
156
157
157
157
161
161
161
161
162
162
162
165
165
166
164
164
161
160
160
161
162
162
162
163
166
165
166
169
167
169
168
169
171
172
170
171
170
170
173
172
172
171
174
175
174
174
175
173
174
172
172
173
176
177
176
176
178
186
190
188
185
181
179
180
179
182
181
185
185
184
183
183
183
183
186
186
184
184
186
188
189
188
120
121
121
121
121
124
123
123
123
124
124
123
122
122
123
124
123
122
124
123
123
122
123
126
125
127
129
129
130
134
132
135
135
138
138
138
140
139
140
137
137
135
133
132
133
134
133
134
134
135
135
133
134
134
131
132
128
129
129
128
128
128
128
128
132
131
132
134
133
133
132
131
131
130
128
128
125
126
126
127
126
126
127
128
129
129
130
129
131
130
133
133
135
136
134
136
136
135
135
136
136
137
138
138
137
138
137
138
136
137
138
137
134
136
138
137
138
137
138
138
139
140
139
139
137
139
139
142
142
144
143
146
149
146
148
148
148
146
145
146
144
145
143
144
144
144
147
147
148
148
149
147
148
150
150
150
153
155
156
154
154
155
156
156
157
153
151
151
150
151
152
155
154
155
156
157
160
159
162
161
160
158
161
163
164
165
165
163
158
158
158
157
157
160
162
163
162
163
167
166
167
166
164
165
166
168
170
169
170
170
170
171
171
169
170
172
173
174
171
171
173
171
171
172
173
173
176
177
178
180
185
187
186
181
178
177
179
180
181
181
182
181
185
183
182
183
184
183
186
187
183
184
187
188
189
189
122
123
122
122
120
119
120
123
122
125
125
122
122
125
124
125
123
122
123
125
124
125
127
124
126
129
130
129
133
132
132
134
136
134
135
135
132
133
130
133
133
133
131
134
136
134
134
133
133
131
132
132
131
130
129
130
128
129
128
129
129
129
129
129
132
131
128
129
130
130
128
127
126
125
126
127
127
126
126
126
126
127
127
127
128
128
132
129
132
130
131
132
133
134
134
135
132
134
134
137
139
139
138
139
136
136
135
135
135
134
134
136
137
136
138
138
136
138
138
138
138
139
137
137
137
139
140
143
144
145
146
146
144
145
145
145
146
144
142
145
143
143
143
143
145
146
146
146
148
146
147
149
150
150
152
153
153
154
152
156
156
154
155
151
150
147
150
151
152
152
154
152
153
155
157
160
157
161
158
158
159
159
163
163
162
162
161
160
157
157
157
157
160
160
162
163
163
163
165
165
164
165
165
166
166
166
168
168
168
171
169
168
168
167
170
171
171
173
171
171
172
171
170
172
175
174
176
175
178
186
186
183
181
178
177
176
178
180
181
181
181
180
181
181
183
184
184
183
184
184
185
186
185
189
189
188
121
122
120
120
121
120
120
122
123
124
124
123
124
124
124
125
124
125
125
126
126
125
125
127
130
130
128
128
131
129
129
127
128
128
127
129
129
129
129
132
133
133
131
132
135
132
131
132
130
130
129
127
128
128
130
130
129
131
130
131
129
127
128
130
130
127
125
126
125
126
126
127
126
125
126
126
125
127
125
127
127
128
128
128
130
128
129
129
129
128
129
129
130
132
133
132
134
135
135
136
135
134
135
134
135
133
134
135
135
136
138
139
139
137
135
136
136
135
137
135
135
135
137
139
140
142
141
142
143
142
142
143
141
143
144
143
141
141
142
140
141
142
142
143
145
146
146
144
146
145
148
147
151
153
152
150
152
153
151
154
153
149
148
147
147
149
149
150
150
149
151
153
155
156
156
158
157
157
155
158
160
161
162
162
158
158
157
156
156
156
157
158
159
161
161
162
163
161
164
164
164
165
165
166
164
165
166
167
167
167
166
167
167
169
169
171
172
169
170
170
169
171
172
173
174
175
175
179
184
186
183
178
175
174
174
177
178
177
179
181
181
181
180
181
181
184
184
183
183
184
183
185
187
186
186
188
121
121
121
121
123
122
120
124
125
125
127
125
125
124
125
126
126
126
127
126
125
125
124
125
127
125
125
124
123
124
124
124
124
125
125
128
129
129
129
130
128
129
127
130
127
128
128
129
129
129
130
130
129
129
129
131
130
130
128
128
129
127
124
123
124
124
123
124
124
127
124
124
126
126
125
125
125
126
127
126
128
126
130
128
128
128
129
128
128
129
129
130
131
132
133
133
135
134
135
133
132
132
132
133
133
133
132
135
137
139
141
139
137
135
134
135
135
133
134
134
134
137
139
141
141
141
143
142
142
141
141
140
143
142
139
139
139
139
140
138
141
142
142
143
144
144
145
144
145
147
150
148
151
150
149
152
152
153
151
149
146
145
145
145
147
148
149
148
150
150
152
152
154
154
156
155
155
156
157
159
160
159
158
156
155
155
155
154
156
156
159
159
160
162
161
161
161
160
161
162
163
163
164
164
164
165
166
166
165
166
166
168
168
168
169
169
168
169
170
167
169
171
174
174
172
174
182
184
183
178
173
173
173
174
174
175
178
179
180
179
180
181
182
181
182
181
183
184
182
183
184
185
186
187
187
187
123
123
123
124
122
124
124
128
127
127
129
130
128
129
126
127
127
127
125
125
122
121
123
120
122
121
121
122
122
122
123
124
122
123
122
124
123
124
124
122
123
125
126
126
127
128
128
129
128
128
131
130
129
129
128
129
126
128
125
125
125
127
126
124
124
124
126
124
124
124
123
123
123
124
125
125
126
126
128
127
126
128
129
127
128
128
126
129
128
129
130
131
132
131
133
131
130
131
129
130
129
130
131
132
134
135
137
139
138
139
137
135
135
133
132
132
133
133
134
137
138
139
141
141
141
139
140
140
139
139
139
140
137
137
137
137
137
138
139
140
139
141
143
141
142
143
144
146
147
148
148
149
149
148
148
150
148
150
144
144
143
143
145
144
147
145
147
148
151
149
152
154
154
152
154
155
158
159
156
157
156
155
154
154
154
153
152
154
157
157
158
158
158
158
161
160
160
159
160
162
162
162
163
163
164
164
164
163
163
167
167
168
171
168
166
167
167
168
168
168
169
170
171
173
177
182
183
180
179
174
172
171
173
173
174
173
178
178
180
178
178
179
182
181
181
181
182
182
182
182
183
183
184
186
187
185
124
123
124
126
127
130
128
128
129
128
131
128
126
126
125
124
122
122
120
120
117
120
120
121
122
122
122
122
123
121
120
118
122
119
119
120
120
121
119
119
120
123
125
126
126
127
127
130
128
128
127
127
126
128
126
126
126
126
125
124
125
127
126
127
123
124
123
123
123
123
123
123
123
124
126
125
125
127
127
127
127
127
127
127
128
129
128
128
129
130
131
129
129
130
130
128
126
126
126
127
126
132
134
137
139
138
140
136
133
133
131
129
131
131
132
132
135
135
136
139
138
141
139
139
138
139
138
138
137
138
137
135
136
134
135
137
137
138
139
139
139
139
139
141
144
144
146
147
147
147
147
147
147
147
147
147
144
142
142
142
143
144
143
145
145
147
147
150
150
150
153
150
152
152
154
155
155
156
155
155
153
152
151
151
152
154
153
153
158
158
158
158
157
157
159
159
160
160
161
161
159
160
161
162
162
161
161
162
164
168
166
168
167
165
166
166
166
166
167
169
170
171
170
175
181
181
179
173
172
171
171
171
173
174
175
175
174
176
176
176
176
177
181
180
180
181
181
181
182
183
184
184
184
185
183
184
123
123
125
125
126
129
128
126
125
125
123
122
121
120
120
121
118
120
120
121
121
123
121
121
122
121
120
120
120
119
118
117
119
119
119
118
119
120
121
121
120
123
122
126
124
125
125
126
124
122
123
125
123
124
123
125
125
127
125
125
126
125
125
123
125
123
124
125
125
124
124
124
125
126
126
126
126
127
125
125
126
125
127
127
126
127
128
129
128
128
128
127
125
124
125
124
123
125
127
129
132
135
135
137
135
134
133
130
130
129
130
130
130
132
133
136
136
138
138
140
140
138
138
138
138
138
140
134
134
133
134
133
134
133
136
136
137
138
138
136
137
139
142
143
145
146
146
145
145
145
144
145
147
145
145
141
139
140
143
141
143
143
144
143
145
147
149
150
151
150
149
148
152
152
153
157
154
152
151
152
150
151
150
151
150
154
153
153
157
154
156
157
157
157
157
159
160
158
160
161
159
162
161
162
161
162
161
161
162
165
165
164
165
164
164
165
164
166
167
166
169
171
175
177
180
176
171
169
171
171
170
170
173
174
175
175
173
173
174
176
176
177
178
180
180
179
180
181
181
183
185
186
184
183
184
183
121
121
119
120
122
124
122
120
123
122
121
121
120
118
120
121
120
119
120
120
121
121
120
118
117
118
116
118
117
117
118
117
120
119
119
119
119
121
119
120
120
120
120
121
121
121
121
122
121
121
122
124
123
122
122
125
124
126
125
123
123
123
126
124
125
123
123
124
123
123
126
125
125
125
127
126
125
126
126
126
126
125
127
128
125
127
124
126
124
125
124
123
124
124
124
124
129
131
133
134
135
134
134
132
129
129
128
128
128
129
130
132
131
133
137
136
137
138
138
139
137
136
136
134
137
136
134
133
132
133
133
133
133
135
135
135
135
137
138
137
140
142
144
145
145
145
144
144
146
145
144
143
142
141
140
138
139
140
141
140
141
141
144
144
145
147
148
148
147
147
150
149
152
155
154
154
152
150
149
150
149
150
150
151
152
155
154
155
155
155
155
155
155
156
158
159
159
157
158
158
159
161
160
158
158
160
163
163
162
161
162
161
162
162
162
164
164
167
168
167
169
176
179
177
172
168
168
169
170
170
170
171
173
173
173
174
172
173
173
175
175
176
178
178
179
179
182
181
183
183
183
185
181
180
181
181
115
115
118
119
121
122
121
122
121
121
121
120
120
118
119
119
120
117
118
119
119
118
117
117
118
117
115
117
118
119
119
118
121
119
120
119
119
118
117
117
117
116
116
117
119
119
121
121
121
122
123
123
122
123
122
122
121
123
123
123
124
123
125
124
125
123
125
123
126
123
125
125
127
127
125
124
125
123
126
127
128
127
127
129
127
123
123
123
123
123
123
122
125
125
130
131
135
135
135
134
130
129
128
127
127
128
127
128
127
129
129
134
136
137
137
137
137
137
135
137
134
135
133
132
132
131
130
131
132
133
132
133
133
134
134
134
134
134
138
140
142
142
143
144
143
144
144
143
144
144
142
140
139
137
136
139
139
140
140
139
142
143
144
147
147
146
147
146
147
148
150
151
152
153
153
150
150
148
148
149
147
149
152
153
152
155
155
153
155
155
155
154
156
156
156
156
156
157
158
158
158
158
158
158
158
160
163
161
162
160
160
158
160
160
161
163
164
167
166
173
177
175
177
169
166
165
168
169
168
170
172
171
174
171
170
171
172
172
173
173
173
175
176
177
177
178
179
180
182
182
182
183
179
177
178
178
112
113
117
119
118
118
117
117
115
118
118
118
116
115
116
118
117
117
117
116
117
116
117
117
117
117
118
120
118
120
121
120
121
119
115
120
118
115
115
115
115
115
115
116
117
118
117
119
118
120
120
121
119
119
120
121
119
120
121
121
122
122
123
123
123
123
125
124
126
125
125
127
124
124
124
124
125
126
125
126
125
123
123
124
121
121
122
122
121
123
125
129
132
133
133
135
134
129
127
124
125
125
125
125
128
126
129
130
132
134
135
137
136
136
136
135
135
134
133
133
134
132
130
128
127
130
129
131
133
132
130
132
131
133
132
134
137
137
141
141
140
142
142
143
142
143
143
144
142
140
138
136
135
138
137
138
137
139
139
141
141
143
143
144
144
143
144
148
151
149
151
150
148
149
149
146
145
145
146
147
148
151
151
151
152
151
152
153
154
152
153
155
155
156
154
155
157
158
158
157
155
155
156
160
161
161
160
159
158
159
158
157
160
160
163
163
164
165
169
175
173
172
167
165
166
164
166
168
168
168
170
171
172
171
170
171
171
173
173
172
173
175
174
175
177
177
178
180
182
183
181
181
180
178
176
175
114
113
114
112
113
113
116
117
115
117
116
115
116
115
118
118
117
117
119
117
116
118
115
118
117
118
117
116
118
119
116
118
117
117
115
115
114
114
116
114
114
116
116
115
113
114
114
114
116
117
117
117
119
118
120
119
120
122
123
122
124
124
122
122
124
124
125
125
126
125
126
127
124
123
126
125
124
125
124
122
120
120
120
121
121
123
125
124
126
129
132
134
133
133
130
127
125
122
122
124
122
124
123
125
128
128
131
133
136
136
137
136
134
135
135
134
135
134
133
131
130
130
127
127
129
130
129
130
129
129
127
129
130
130
135
138
139
138
140
139
139
140
141
142
140
140
140
138
135
134
133
134
134
136
135
136
136
138
141
140
141
142
141
142
143
143
147
149
151
149
147
147
145
143
143
142
142
143
147
149
150
151
148
151
151
152
152
151
152
153
152
154
155
155
154
155
155
155
154
154
155
156
158
159
160
158
158
157
157
157
158
158
160
161
163
162
165
170
172
173
169
165
163
165
165
166
166
166
168
172
169
169
169
169
170
170
171
171
170
171
172
174
174
174
174
177
177
175
178
177
176
175
177
176
174
174
114
112
112
112
112
111
110
115
116
118
115
115
117
115
116
117
118
117
116
117
116
115
116
116
115
116
116
115
115
115
115
117
115
115
117
114
116
114
114
115
115
114
114
114
113
112
113
114
114
116
116
116
118
119
118
120
120
121
120
122
123
122
122
122
124
123
123
123
124
125
125
124
125
122
123
123
123
120
121
121
122
121
120
121
122
126
130
132
133
134
133
128
127
125
122
123
122
122
121
125
122
124
126
127
131
132
135
136
136
135
134
136
135
135
134
132
132
128
129
128
128
128
125
124
124
122
121
118
120
117
118
116
118
121
124
124
128
129
130
132
133
138
137
138
136
135
132
131
131
133
132
133
133
135
136
137
136
139
138
141
141
140
141
141
142
143
146
147
145
145
144
144
142
142
139
140
143
143
148
147
147
147
148
150
149
150
151
151
152
152
151
153
153
156
153
155
155
155
153
154
155
158
160
158
157
157
157
156
157
156
157
158
159
162
161
166
172
172
171
167
160
162
164
164
164
166
165
166
167
168
167
167
167
169
171
170
170
170
172
172
170
172
174
174
175
177
177
175
176
176
175
175
175
174
175
174
113
112
111
113
111
111
109
112
115
117
116
116
116
119
118
118
116
116
116
115
115
115
115
114
113
115
114
114
115
114
116
115
115
116
116
114
116
115
113
112
115
112
113
112
113
113
114
115
116
116
117
116
116
116
119
118
120
120
122
120
120
122
121
121
123
124
124
123
124
124
123
121
122
119
120
121
119
120
120
121
120
121
125
130
131
132
133
131
130
126
124
122
122
123
121
121
123
122
124
127
128
129
129
131
133
135
133
135
131
132
132
133
134
132
129
129
127
126
127
126
123
119
117
115
115
113
109
112
114
113
115
119
120
118
118
117
119
118
118
121
124
127
127
128
129
128
128
132
131
131
130
133
134
133
134
137
138
137
139
138
138
140
140
141
143
145
146
146
142
142
140
139
140
139
141
141
143
145
145
145
146
147
147
148
147
149
150
151
151
151
153
151
151
155
153
153
152
152
153
155
157
156
157
157
155
155
154
156
157
156
157
158
159
160
165
174
173
168
162
159
160
161
162
164
164
165
166
166
167
166
166
167
168
167
168
169
168
168
171
173
173
174
174
174
174
174
175
173
173
173
173
174
172
174
174
176
113
112
111
113
114
113
115
115
115
115
117
116
116
116
116
115
114
113
111
110
111
111
112
113
114
114
114
114
113
114
114
113
114
113
114
112
112
112
113
113
112
113
115
115
115
114
115
115
114
116
115
117
115
116
117
118
119
119
119
120
121
120
120
120
122
124
123
123
121
120
119
118
116
119
119
119
118
121
121
126
128
130
132
133
130
130
128
123
120
120
122
120
120
122
122
121
123
125
129
128
130
133
135
132
134
135
132
132
131
132
132
132
129
127
126
123
125
124
120
117
113
110
109
110
109
112
111
115
114
115
116
118
116
117
117
119
119
119
119
119
120
118
116
115
117
122
125
130
128
130
131
132
133
132
134
135
135
136
136
138
138
139
141
141
143
142
142
139
139
138
136
137
137
139
141
143
143
143
144
144
143
145
146
148
148
148
149
149
149
149
150
152
153
151
152
151
149
151
155
156
157
154
155
153
152
153
152
154
156
157
158
158
159
166
170
170
166
162
158
158
158
159
162
164
164
166
166
168
166
164
164
166
168
168
169
170
169
169
171
173
173
173
172
174
174
172
175
171
172
172
172
172
171
172
175
175
114
114
112
113
114
113
116
116
116
116
114
117
115
111
112
112
111
109
112
111
111
112
111
113
114
112
112
113
113
111
111
111
109
111
110
111
111
113
112
112
113
114
114
111
113
114
114
114
114
115
116
115
117
115
115
115
114
115
115
117
118
120
120
120
120
121
120
120
116
116
117
118
118
118
120
122
124
126
130
132
131
131
129
127
122
122
121
121
121
123
121
122
122
120
124
126
128
128
129
132
134
133
133
133
133
131
129
129
132
128
129
125
126
124
117
114
114
108
109
109
108
108
107
109
111
112
112
115
115
116
115
116
115
117
119
119
120
118
119
117
114
112
110
111
111
114
115
117
123
127
130
130
133
134
132
133
133
135
135
136
140
140
142
140
138
138
137
135
134
134
134
138
140
138
139
140
141
142
142
142
143
144
144
146
147
147
147
148
148
149
149
152
150
148
149
147
151
153
154
154
152
152
150
151
151
152
154
156
155
156
157
159
166
167
164
161
158
157
156
158
158
161
162
163
165
165
164
164
164
164
164
164
166
167
168
169
169
169
170
170
171
171
172
173
172
172
171
170
170
169
170
169
171
174
173
174
116
118
117
114
115
114
116
115
114
114
115
114
113
111
113
114
113
112
113
113
111
114
112
114
111
112
111
111
109
111
110
109
109
109
112
111
114
112
113
112
113
112
113
112
112
113
114
115
115
116
114
115
114
114
113
114
114
113
113
114
116
115
115
116
115
116
116
115
115
115
116
118
120
121
124
129
131
130
130
130
126
125
120
120
118
120
120
121
122
124
121
122
122
125
127
130
132
132
132
131
130
130
130
133
128
128
129
128
124
124
124
115
113
108
106
105
105
104
106
106
110
110
110
113
113
115
115
114
114
116
114
113
115
119
117
119
118
115
113
112
112
111
112
112
111
113
113
113
115
121
127
127
129
131
131
130
131
133
138
138
140
141
141
136
135
134
134
133
133
134
134
139
138
138
138
140
141
141
141
142
142
142
143
144
144
145
145
144
148
148
149
149
147
147
147
152
152
153
151
151
149
148
149
150
150
152
153
154
158
156
161
164
166
163
159
156
157
157
156
156
157
161
162
162
163
162
162
162
163
164
165
165
167
167
167
167
170
171
169
169
170
169
171
171
170
170
169
170
169
169
171
170
173
172
169
171
115
115
117
116
117
117
113
112
114
113
113
115
115
115
116
116
114
111
111
113
111
110
110
113
110
109
108
110
108
110
110
110
111
111
112
110
110
112
112
112
112
111
112
112
114
114
113
113
113
112
113
114
114
114
115
115
113
113
111
111
110
111
111
111
112
113
115
115
115
117
119
123
128
129
130
130
128
125
124
120
118
119
119
120
119
121
121
120
122
122
121
124
126
129
132
131
132
132
131
130
129
128
129
130
127
127
124
122
120
116
109
106
102
105
106
104
103
103
107
110
108
112
112
114
115
117
115
116
115
113
115
115
116
114
115
113
110
108
109
110
111
111
109
110
110
109
109
112
113
115
117
121
124
128
130
132
134
134
138
138
137
138
135
132
132
132
131
131
132
135
135
136
136
137
137
138
140
139
141
141
140
141
143
142
142
143
143
145
147
147
146
145
145
148
149
147
151
149
149
148
147
148
149
150
151
153
154
156
156
160
166
164
161
156
154
155
155
155
155
156
157
160
161
158
160
160
161
160
161
162
165
166
166
165
165
167
167
169
168
167
170
170
169
169
169
169
168
168
169
168
169
171
170
170
168
169
98
104
110
113
115
119
115
115
116
115
116
117
116
113
111
110
108
107
113
111
111
110
109
109
109
108
113
110
109
109
108
110
109
111
111
111
109
112
112
112
112
112
115
113
112
113
112
113
113
111
113
113
114
113
113
113
110
110
109
109
109
110
109
109
112
112
114
118
119
125
127
127
129
126
124
123
120
116
118
118
120
119
119
119
119
120
121
123
125
125
127
128
130
132
131
132
131
131
127
127
127
128
125
125
123
122
120
113
108
103
103
104
106
104
101
102
105
108
107
110
113
116
114
113
112
118
114
112
114
114
114
116
115
112
112
109
107
107
105
106
106
106
106
108
109
109
112
111
112
113
113
115
120
127
128
131
133
134
135
134
135
132
131
128
128
128
129
132
132
134
134
134
135
136
137
138
139
138
139
140
142
141
142
140
141
143
145
145
144
142
142
144
146
146
149
146
147
147
147
148
147
149
149
152
151
152
152
157
162
164
164
157
154
154
155
153
155
154
154
156
158
160
158
156
158
158
160
160
161
162
163
164
164
164
165
165
165
167
167
168
170
168
167
167
166
166
166
166
167
167
169
169
169
168
167
169
77
80
84
91
100
109
114
113
116
116
112
115
113
110
109
109
107
109
111
110
109
111
110
108
110
108
107
109
108
109
108
109
108
109
111
110
111
111
112
113
111
113
112
112
111
111
112
114
113
113
111
111
110
109
107
108
106
107
107
107
108
108
111
111
114
119
120
124
124
127
125
122
120
117
117
117
116
119
120
118
117
119
119
118
122
121
122
126
128
128
131
130
129
129
129
127
127
127
127
126
122
121
121
120
119
116
108
103
101
101
102
102
101
101
102
102
105
108
109
111
110
109
112
113
112
110
113
113
115
114
113
114
108
107
107
105
105
105
105
105
104
107
108
107
110
110
111
110
109
110
109
111
116
120
127
131
130
133
130
130
130
129
129
128
127
128
131
132
132
132
134
134
136
135
136
137
137
137
138
139
140
139
140
139
141
143
142
141
140
141
144
143
145
146
146
146
144
145
146
146
146
149
148
149
150
152
155
161
163
160
156
151
152
153
151
152
154
153
153
157
157
155
156
156
157
156
157
159
159
161
162
162
161
162
165
165
165
165
166
166
166
165
164
164
164
165
166
166
168
168
170
168
167
168
169
170
81
80
81
80
81
84
87
98
107
109
112
112
113
111
110
109
110
111
109
110
108
109
107
106
106
107
106
107
109
107
110
109
111
110
111
111
111
110
110
110
110
109
109
110
109
113
111
111
109
108
107
107
106
104
105
108
106
107
107
112
111
112
115
120
121
122
122
120
118
117
116
115
114
116
117
118
117
119
119
118
118
119
119
123
123
122
128
129
130
130
129
127
126
127
125
124
123
121
119
119
118
118
119
114
112
106
101
101
102
101
100
102
100
103
106
108
111
111
107
109
109
110
107
110
111
115
115
113
113
111
109
105
104
103
104
102
103
103
103
105
104
108
107
109
109
109
107
108
111
111
111
114
114
116
120
122
124
126
128
127
127
126
125
127
127
130
132
133
132
132
132
133
135
136
134
135
136
137
137
136
136
136
137
139
141
141
138
138
140
140
144
145
143
144
142
143
141
142
143
145
145
148
149
149
149
156
160
161
156
150
149
151
151
153
151
151
153
154
154
156
155
154
155
156
157
155
156
158
159
158
160
161
160
161
162
163
164
165
166
166
163
162
163
162
162
164
166
166
167
166
166
166
167
167
168
168
83
82
81
80
80
82
82
80
83
88
98
108
111
111
112
110
110
110
110
108
106
109
110
107
107
107
108
108
107
109
109
110
109
109
109
108
108
108
106
108
106
107
106
109
107
108
107
106
108
106
104
103
104
106
107
107
107
109
113
115
121
120
121
119
117
115
114
112
112
112
112
113
112
115
116
115
116
116
118
119
119
121
125
126
127
129
131
127
127
125
125
124
123
123
121
119
116
116
117
116
115
115
115
105
100
100
100
99
100
99
99
101
105
111
113
111
107
106
108
108
107
108
109
109
111
115
110
108
106
106
101
100
101
102
101
102
102
100
103
107
106
108
107
107
106
106
107
109
108
112
113
115
115
114
115
114
115
120
123
123
123
124
125
129
129
130
131
128
130
134
134
134
132
133
133
133
134
134
134
135
135
136
138
138
137
138
137
137
139
141
142
141
140
141
141
139
142
141
142
144
143
147
148
147
155
157
156
154
148
148
150
150
150
150
152
152
155
153
153
154
152
153
156
155
155
154
156
155
156
156
158
160
161
160
161
162
164
164
163
162
161
160
162
162
161
164
165
166
166
165
164
166
167
166
167
166
73
74
77
78
84
83
83
82
82
81
82
85
95
105
108
112
109
111
109
110
109
109
110
108
109
107
108
108
110
107
107
106
105
107
105
106
107
107
105
105
105
107
109
107
108
109
111
114
113
113
113
111
105
104
108
110
115
120
122
121
120
119
116
112
112
109
109
109
110
111
112
111
112
113
111
115
116
117
118
120
123
123
128
128
126
126
126
125
123
122
121
122
119
118
115
117
113
114
117
116
113
110
105
102
101
100
99
99
101
102
103
107
108
108
108
107
108
108
108
108
109
109
109
110
112
110
106
104
102
101
100
100
102
102
102
101
102
103
107
106
106
106
108
106
104
108
106
108
110
113
114
113
113
111
109
109
109
111
114
119
122
124
128
128
128
129
129
129
131
131
132
131
132
131
131
133
131
132
133
133
135
135
136
135
134
134
138
138
138
141
140
140
138
139
138
139
140
141
141
144
143
143
148
156
158
154
151
147
148
149
148
148
149
148
151
151
154
154
152
151
152
155
155
154
153
154
158
156
156
156
157
159
159
159
160
159
159
161
160
160
159
160
160
161
160
161
164
162
163
162
163
163
164
165
164
166
82
80
77
75
76
77
79
80
83
83
82
80
80
85
96
104
109
110
110
111
110
109
107
107
108
108
104
106
105
105
106
106
104
106
106
105
103
105
108
111
112
110
112
110
110
111
114
113
114
114
117
123
122
114
113
116
120
121
117
115
111
111
110
109
109
109
110
110
110
110
110
110
111
110
112
113
117
117
120
126
125
124
127
126
124
122
121
122
121
117
115
114
114
115
113
114
115
118
114
110
105
101
100
100
97
99
100
103
106
107
110
109
108
106
106
109
108
106
105
106
106
108
109
108
106
103
101
102
104
101
103
106
105
104
103
104
105
104
104
104
104
104
106
106
107
107
109
110
114
112
111
109
107
105
105
104
101
102
107
113
119
122
125
125
124
125
127
128
130
130
130
129
131
131
132
131
130
131
132
135
134
133
131
132
132
135
136
138
136
136
136
137
137
138
137
139
140
142
143
143
142
149
155
156
152
146
146
146
147
149
147
148
148
148
152
152
152
151
150
152
152
151
152
152
154
154
154
154
154
156
156
158
158
158
160
159
157
157
158
159
159
159
158
160
161
162
162
161
161
161
163
163
163
163
162
165
69
75
76
78
76
74
75
75
74
79
84
85
84
84
87
89
102
106
108
111
109
106
106
104
105
102
105
106
108
105
106
105
104
104
103
103
107
113
115
113
111
109
109
110
113
112
113
117
116
122
126
130
126
121
110
115
110
111
110
111
109
110
111
111
110
110
110
111
108
110
110
112
111
115
115
117
117
120
122
122
121
122
123
121
120
118
116
115
115
114
113
113
114
114
114
116
116
112
108
101
101
98
99
98
101
101
106
108
105
105
107
105
105
108
104
104
107
107
109
110
111
110
107
101
99
100
100
107
106
103
101
107
104
102
102
101
100
101
104
102
102
106
108
110
109
110
113
115
111
110
108
107
104
104
103
102
101
105
104
109
116
121
124
125
124
126
128
127
127
127
128
128
130
129
129
130
130
131
133
133
130
130
130
131
133
135
135
135
136
136
135
135
135
135
137
139
140
141
142
144
150
155
153
148
144
143
144
147
144
144
144
147
149
148
150
149
148
148
149
150
151
150
149
152
154
151
154
155
153
154
156
157
157
159
157
159
158
157
157
157
157
156
157
160
160
160
159
159
159
160
163
163
162
163
163
165
64
67
66
68
75
82
80
77
77
77
78
81
85
91
86
85
84
94
103
105
106
105
105
105
103
103
105
106
105
104
105
104
106
101
102
111
115
114
110
109
109
110
111
112
114
118
121
125
126
128
127
126
122
116
105
107
108
110
110
110
110
111
110
109
108
109
109
111
110
111
112
112
115
115
116
117
115
118
118
116
117
117
117
117
116
113
112
112
111
112
114
114
114
114
115
115
113
106
103
98
98
98
98
103
106
106
108
106
104
103
107
106
107
104
105
106
108
109
110
105
103
101
100
101
103
104
108
105
105
102
104
106
101
99
99
99
99
98
99
97
101
101
102
106
110
110
111
109
107
107
103
103
102
101
101
103
103
108
107
107
106
110
114
122
123
125
128
126
124
126
129
127
127
127
127
128
131
130
129
130
127
128
129
132
134
135
134
132
132
133
133
134
136
137
138
139
140
141
143
148
153
150
146
142
142
142
142
144
144
143
145
149
148
148
147
146
146
148
148
147
148
150
153
152
152
151
151
153
155
155
154
155
156
157
155
154
155
156
155
155
155
157
159
159
158
158
159
159
160
159
159
160
161
162
163
165
62
64
65
69
70
71
77
84
85
81
79
77
74
76
79
84
82
81
89
101
105
103
104
104
104
103
102
105
104
102
105
103
100
109
116
115
109
108
109
109
110
112
115
117
121
124
124
126
129
125
121
120
114
106
104
105
109
109
109
109
109
109
109
109
108
112
112
111
112
112
116
113
116
115
117
116
115
115
115
114
112
113
112
112
113
111
111
112
111
113
115
113
113
113
113
112
108
104
102
101
96
101
103
110
107
106
107
102
103
106
104
105
105
106
108
109
110
108
103
101
100
101
101
105
104
104
105
102
104
105
103
102
99
100
100
101
101
102
101
104
104
107
109
110
109
106
106
104
104
101
101
99
100
103
102
106
106
107
106
106
105
106
108
115
122
124
123
123
123
126
126
125
125
126
128
129
128
128
126
128
126
127
131
132
133
131
131
131
131
132
132
133
135
136
138
137
138
146
150
149
147
141
138
138
141
143
141
141
142
145
147
146
147
145
146
146
146
147
146
146
148
148
149
150
149
151
151
152
152
153
154
155
154
156
154
154
154
154
154
155
155
156
157
158
158
156
157
158
159
160
160
159
160
160
162
165
66
65
67
68
69
71
72
74
75
84
85
78
77
75
75
74
78
82
81
88
98
103
103
102
104
103
103
104
102
103
102
100
112
117
113
106
108
111
113
114
119
121
120
121
121
119
120
119
119
118
117
116
110
103
105
106
106
108
108
109
109
109
108
111
110
114
113
116
114
115
114
115
113
114
115
113
114
113
110
108
108
107
109
111
112
110
112
113
112
113
115
114
114
112
112
109
104
103
96
101
103
107
109
108
110
108
105
104
103
105
104
101
104
109
112
109
108
101
98
99
100
101
105
106
106
106
104
104
104
102
100
100
101
101
103
100
103
103
102
105
106
106
109
105
104
104
103
103
100
98
99
99
103
102
101
103
103
102
102
105
105
106
108
110
110
119
121
122
123
122
123
124
126
125
127
127
124
125
124
125
128
128
128
128
129
129
129
130
130
131
133
133
134
134
135
136
141
149
148
141
139
136
137
137
138
138
138
141
141
143
147
145
143
143
145
144
145
145
145
147
148
147
147
146
149
149
150
151
151
152
151
151
151
151
151
153
153
153
152
153
156
156
155
155
156
156
157
157
157
158
158
159
160
161
161
164
69
65
66
65
65
67
69
69
68
70
77
82
84
76
75
73
73
76
80
80
81
96
101
101
102
104
102
103
102
100
103
116
117
110
109
112
114
116
120
117
118
118
118
116
114
113
113
115
119
119
118
114
103
103
103
104
104
107
106
110
109
111
111
112
113
113
116
115
115
114
115
112
111
112
111
110
109
108
106
105
105
106
107
108
111
111
112
112
114
113
112
112
113
113
113
107
105
104
105
108
110
106
103
104
107
105
103
102
103
101
103
105
105
106
102
102
99
100
103
103
103
107
109
106
102
102
101
102
104
101
99
103
104
107
104
100
100
99
102
104
107
105
101
100
104
103
99
99
98
98
102
102
104
102
102
101
100
98
100
100
104
105
107
109
109
111
116
119
119
120
121
122
125
125
122
121
122
123
125
125
128
128
127
126
127
127
127
128
130
130
132
134
133
132
135
141
148
145
139
137
133
133
135
137
137
136
137
140
141
142
143
142
141
143
144
145
143
145
145
146
147
147
146
146
147
148
149
150
151
152
151
152
151
151
151
152
151
151
152
154
156
154
154
153
154
155
156
155
155
156
157
159
158
159
159
163
71
67
66
64
62
61
66
64
66
67
69
72
81
83
82
74
72
70
75
80
79
81
95
99
101
102
102
103
100
104
119
118
113
115
117
117
118
114
115
114
111
111
111
110
111
110
113
115
116
119
114
112
109
104
100
105
105
106
106
110
110
111
110
109
112
114
114
113
114
114
113
113
110
110
108
105
102
101
104
103
105
107
108
108
109
107
110
110
112
115
113
112
114
115
111
108
109
112
111
107
108
104
105
103
102
103
104
103
109
107
107
104
101
99
97
99
102
104
105
103
104
103
101
98
99
101
102
104
100
101
103
105
105
102
103
104
106
107
109
108
104
100
99
100
102
103
103
98
99
104
107
106
105
104
101
100
98
101
102
103
105
104
103
103
106
108
111
114
116
118
122
122
123
120
121
120
121
123
125
127
126
123
124
124
125
125
126
125
130
131
131
132
132
136
143
145
142
135
131
133
133
136
136
133
133
136
137
140
138
140
140
140
140
140
139
141
143
143
144
143
143
144
144
145
147
148
148
148
148
148
149
150
151
151
152
150
150
150
153
154
153
153
153
154
154
155
153
153
154
155
157
158
158
160
161
161
101
71
66
64
63
61
65
66
64
66
68
66
66
76
82
81
76
72
71
70
78
87
82
90
101
104
105
105
107
123
119
115
115
115
112
112
109
107
107
108
107
110
112
111
113
113
114
116
118
116
112
115
117
113
109
104
103
107
107
110
107
109
110
111
112
113
115
115
116
113
111
108
108
105
104
102
103
104
105
103
104
106
107
107
108
108
107
110
110
113
111
114
116
111
110
111
112
109
106
105
107
104
100
101
102
105
107
106
105
103
101
99
98
101
103
106
105
102
103
102
100
97
99
99
103
104
100
102
101
104
106
105
108
106
106
110
113
109
107
105
108
108
105
103
100
99
102
108
107
105
102
101
101
102
102
100
101
103
102
105
105
105
105
103
103
103
110
111
116
119
121
119
119
118
120
119
123
122
122
125
122
123
123
124
124
124
127
126
129
130
131
130
138
143
144
139
133
130
132
134
133
133
133
133
134
137
138
139
139
139
140
140
139
139
140
140
141
141
142
141
142
143
144
145
148
147
147
147
148
148
147
148
147
147
148
149
151
152
154
152
151
152
153
154
152
152
154
153
153
156
155
157
159
159
159
160
82
103
73
65
64
62
60
63
64
67
66
64
66
68
73
82
83
79
73
72
72
78
88
86
96
108
111
112
123
117
113
110
108
104
105
103
105
105
106
107
107
111
111
109
112
115
119
117
116
115
108
115
119
118
117
111
106
102
102
105
106
107
110
113
112
112
112
109
108
106
106
105
105
105
104
104
104
104
104
103
105
106
106
106
106
107
107
109
112
113
116
115
118
111
111
111
107
105
107
106
105
104
103
103
103
105
107
104
104
103
102
103
103
103
103
106
107
103
104
103
102
102
101
102
100
100
101
101
101
104
109
107
108
113
112
115
111
110
108
108
107
109
107
106
105
106
107
107
106
104
101
99
98
100
100
100
104
104
104
104
102
101
99
101
101
99
105
115
117
117
118
115
117
119
120
121
122
122
121
120
120
123
121
123
125
126
127
126
127
128
133
140
144
140
135
130
130
132
132
133
134
130
131
134
134
137
137
137
137
139
138
139
138
140
139
142
140
139
141
142
142
144
144
144
145
145
146
146
147
145
145
147
146
146
146
149
151
152
152
150
149
150
151
152
150
151
152
153
154
156
157
158
159
160
157
158
94
77
101
69
64
63
63
62
64
65
66
65
62
65
69
71
81
87
83
80
82
80
87
96
95
101
108
118
114
105
104
103
102
101
102
102
103
103
105
108
107
109
112
109
113
117
118
118
117
105
101
107
112
117
120
119
113
108
106
105
104
108
110
109
109
106
107
106
106
104
103
105
106
105
106
105
106
105
104
102
104
104
105
105
106
108
110
111
114
116
117
116
114
110
102
104
109
109
102
99
102
102
101
101
101
103
104
103
104
106
113
114
112
116
112
112
108
106
102
102
102
101
101
100
102
102
104
103
103
106
108
113
117
117
115
113
111
111
109
111
108
106
105
111
108
109
107
106
106
102
100
99
100
101
100
100
100
100
103
101
100
99
98
96
98
101
106
110
113
114
114
115
117
119
120
121
119
120
120
120
119
122
122
122
124
124
125
126
125
130
135
140
138
132
129
129
129
131
131
130
131
132
134
135
135
136
137
137
137
136
136
138
137
140
140
141
140
139
142
142
142
144
146
146
146
147
145
144
145
145
144
144
144
147
147
149
150
148
148
149
151
150
149
150
149
149
151
151
155
154
155
157
157
158
158
157
144
74
74
95
67
65
64
62
66
66
67
66
63
67
70
72
79
91
96
93
90
86
84
86
90
91
99
106
102
104
101
101
100
100
102
101
102
103
105
108
108
112
110
113
115
113
119
120
113
97
98
101
108
111
115
120
120
116
116
109
105
104
105
105
104
104
104
104
105
104
104
105
106
107
105
104
105
104
104
103
103
104
105
107
107
110
113
114
114
116
113
111
105
102
99
102
99
92
95
94
99
100
103
108
109
117
116
128
128
124
123
126
124
121
116
110
108
107
109
110
110
107
106
106
105
107
107
109
109
111
113
116
115
119
117
115
114
114
115
113
111
109
110
108
108
103
102
99
100
101
104
102
104
102
98
99
99
99
96
96
97
97
96
101
103
103
106
105
109
113
112
115
118
120
120
118
118
119
118
119
121
121
122
123
125
124
124
126
129
138
139
135
129
126
128
131
130
130
130
130
130
134
136
135
135
136
135
135
135
136
137
137
138
140
140
140
139
140
141
143
143
143
147
145
145
145
145
144
145
145
144
144
144
145
147
149
148
147
146
148
148
150
148
150
148
150
152
153
154
154
156
155
156
157
155
155
172
77
74
81
84
67
68
66
64
67
68
70
70
74
77
80
85
85
92
94
90
86
81
73
73
87
86
97
99
98
97
99
99
99
100
99
102
103
106
107
109
110
113
112
105
101
117
117
102
95
99
98
104
110
111
116
119
122
120
114
106
100
97
99
102
103
102
103
104
105
106
106
105
106
104
104
104
104
104
104
105
106
107
109
111
113
113
115
113
112
109
107
105
101
100
95
90
95
98
101
107
117
124
128
128
128
130
134
136
141
137
131
133
130
129
129
125
120
121
122
122
126
125
126
124
126
124
122
124
124
123
121
120
117
119
120
117
117
118
119
119
117
116
112
104
103
96
95
94
97
101
104
110
112
104
99
98
99
97
96
96
97
99
101
101
102
102
101
102
107
113
118
119
117
117
117
117
118
118
118
120
120
122
123
123
123
124
131
139
135
131
126
126
128
128
130
128
128
130
131
131
133
133
135
134
136
135
135
136
135
136
139
139
139
138
138
139
140
141
142
142
144
146
144
145
144
143
144
144
143
144
144
145
146
148
148
145
147
146
146
148
147
147
148
147
149
151
152
153
154
156
155
156
157
155
155
185
87
73
69
89
76
71
71
71
74
77
78
77
76
76
80
78
83
78
84
86
85
79
74
70
73
85
87
94
96
97
99
99
98
100
101
102
102
106
107
110
111
112
105
108
110
115
110
94
97
99
103
104
110
109
108
108
112
110
113
111
107
102
98
99
102
102
103
103
106
106
104
105
104
103
103
105
105
105
107
107
109
111
113
112
112
111
110
107
107
104
105
93
94
97
91
96
99
101
110
126
134
138
141
146
145
148
147
143
141
139
137
137
137
137
140
140
144
139
135
138
136
139
142
144
146
142
140
140
136
136
131
128
129
126
125
124
125
126
126
124
119
117
112
106
102
98
95
94
94
95
97
105
111
109
107
106
98
98
94
94
98
100
97
98
96
99
98
99
105
108
114
113
114
115
114
117
117
118
120
121
122
122
122
122
125
134
137
134
127
125
125
126
128
127
127
127
127
129
131
130
133
132
133
133
134
132
134
133
135
135
137
138
137
137
138
140
140
141
142
142
141
142
143
143
144
144
143
143
143
144
146
146
148
146
146
144
146
149
148
147
146
146
147
148
150
149
150
151
152
153
153
154
152
151
151
191
100
75
71
81
94
79
77
76
77
78
76
75
69
67
69
67
73
76
75
85
86
84
78
72
68
75
85
89
94
97
99
101
100
102
102
101
101
107
108
109
110
105
103
106
115
118
101
96
97
97
100
102
103
101
100
100
103
107
108
112
111
108
104
101
101
101
102
104
105
104
103
104
103
105
105
106
103
107
107
109
111
113
110
111
109
107
105
105
104
100
98
92
98
95
101
101
107
123
134
140
143
150
152
152
156
159
157
156
157
156
156
155
153
152
156
155
154
151
154
151
148
147
146
148
150
155
157
156
154
150
146
143
139
133
132
133
133
133
130
128
123
119
117
113
108
102
96
95
96
96
94
98
98
98
100
97
102
100
99
97
95
94
93
93
95
101
101
101
101
104
110
111
116
115
116
116
117
119
119
119
121
121
122
126
133
135
132
126
123
124
126
127
127
125
126
126
129
130
132
131
132
132
132
132
133
132
133
133
136
137
136
135
136
137
140
140
140
141
140
141
141
142
140
143
144
143
143
142
142
146
146
146
145
144
146
147
146
148
148
145
147
147
148
149
148
149
150
150
152
152
152
154
151
149
149
192
111
84
81
79
97
81
74
72
69
66
65
60
62
62
65
63
73
75
70
83
87
85
83
75
70
69
83
87
92
95
97
100
100
100
102
100
102
104
107
110
112
99
105
114
118
114
95
95
95
93
94
93
92
95
97
97
97
100
101
108
112
110
111
108
103
99
100
102
101
101
104
102
103
105
107
108
108
110
111
112
108
106
108
108
108
108
105
105
101
99
98
97
96
99
98
113
127
136
143
149
152
156
159
161
163
163
161
161
166
168
167
168
167
163
158
159
159
161
160
159
162
160
156
154
151
149
151
150
154
152
153
151
151
151
154
150
141
136
136
130
127
126
123
125
122
116
110
100
97
96
91
93
94
97
100
104
106
108
107
98
93
92
91
95
96
105
96
100
97
99
106
109
113
114
117
118
119
119
119
119
120
120
128
134
134
129
124
121
124
126
126
125
125
126
126
129
129
131
131
130
130
130
132
131
133
133
134
134
135
135
136
135
137
137
140
140
139
141
139
141
141
142
143
141
142
142
141
142
143
144
146
144
143
142
144
146
146
146
146
145
147
147
147
147
150
149
151
152
150
150
151
151
150
149
149
195
111
83
78
76
82
77
68
65
60
65
63
61
61
60
65
64
69
78
76
79
88
85
83
78
72
70
72
88
91
97
100
100
99
99
101
100
102
104
109
112
114
110
115
116
116
99
89
89
90
90
89
90
91
92
94
96
96
100
103
106
108
112
110
111
106
103
102
100
101
101
105
105
107
107
109
109
109
109
107
107
108
106
105
106
106
106
104
103
99
96
99
95
93
95
107
134
141
149
152
153
157
163
163
162
165
165
166
169
170
173
173
173
172
172
170
171
170
169
171
171
172
169
170
172
170
168
165
162
159
158
158
157
159
158
160
156
156
154
153
148
141
132
130
127
124
120
113
109
102
95
92
96
102
105
113
115
122
123
115
104
99
93
102
100
104
107
98
92
98
98
102
108
113
117
115
118
118
118
119
118
122
132
136
131
125
122
121
123
123
124
124
124
125
126
130
131
129
128
128
129
130
129
129
130
131
134
133
134
134
133
135
135
137
138
139
139
138
140
141
141
140
140
140
141
140
140
140
143
144
145
145
143
142
144
145
144
144
141
142
144
146
146
148
148
150
149
151
151
150
150
149
148
146
146
148
189
103
74
71
70
71
80
68
61
60
60
59
62
59
59
63
63
67
78
75
77
89
86
86
84
78
74
71
81
89
96
99
99
99
100
101
101
105
108
113
117
116
117
114
114
107
88
88
88
88
88
88
88
89
92
92
94
97
99
101
103
105
105
104
107
107
108
106
104
103
103
106
109
109
109
109
108
106
107
105
105
104
105
105
105
106
107
105
99
93
92
97
91
94
109
130
148
151
155
159
162
164
164
164
166
169
170
173
175
174
175
175
175
173
176
177
177
178
179
180
180
181
181
178
174
174
174
175
175
174
174
174
176
175
175
174
172
169
168
163
162
158
152
149
143
140
134
129
127
121
117
120
121
128
135
140
140
139
131
125
114
104
108
118
124
108
100
95
92
90
99
98
109
115
117
117
118
118
118
119
122
132
134
130
122
120
120
122
124
125
122
124
124
125
129
128
129
129
129
129
129
129
129
129
130
131
132
133
133
133
133
134
135
136
137
137
137
137
138
140
139
139
140
140
139
139
139
140
145
143
142
140
140
142
143
144
143
139
140
144
144
145
148
149
149
151
150
151
149
149
147
146
145
145
147
147
180
92
73
70
69
64
79
63
58
59
58
56
57
57
58
63
65
65
80
79
75
90
91
90
87
83
78
73
74
88
96
99
102
100
102
103
104
108
111
114
115
114
111
110
110
94
86
87
87
88
88
89
91
92
92
92
94
95
97
96
100
98
101
101
103
105
108
110
113
113
110
108
107
109
106
107
107
108
107
104
104
103
104
102
104
106
105
102
91
93
93
94
96
111
128
143
152
155
159
163
165
166
167
170
172
172
176
177
176
176
178
177
176
175
178
181
181
182
183
186
184
184
183
181
179
175
171
176
178
181
182
182
182
179
178
177
176
174
175
173
169
168
169
163
163
161
159
156
150
156
155
153
151
144
140
146
147
141
141
130
122
112
123
116
117
100
95
91
90
91
94
100
104
112
115
116
117
118
119
125
132
133
127
122
120
122
123
124
123
121
122
122
126
126
128
128
127
127
129
128
128
129
130
130
133
133
133
132
132
132
132
133
134
135
135
136
136
137
137
137
138
138
137
138
138
138
140
142
143
139
139
139
140
142
143
141
139
140
140
144
144
144
144
148
147
150
149
148
148
145
145
144
144
145
143
144
165
86
73
67
69
64
79
65
59
59
56
56
57
57
56
67
64
67
83
83
79
95
93
90
88
83
79
70
69
86
96
103
105
104
104
102
102
107
109
108
110
110
106
108
104
84
86
89
88
89
89
91
93
92
90
92
90
91
91
92
95
95
98
101
104
107
110
114
114
117
116
112
106
101
102
103
104
104
103
102
102
103
102
103
103
101
100
91
85
88
88
96
104
126
145
151
156
163
164
165
166
169
172
175
175
177
179
176
178
178
179
179
180
180
182
184
184
184
186
187
186
185
183
183
181
181
182
182
184
185
185
186
185
183
182
181
181
180
179
178
178
175
178
177
172
171
169
165
166
165
166
166
166
165
162
151
148
147
143
141
136
119
110
103
101
102
92
89
88
90
93
96
99
113
116
118
117
121
129
132
131
125
119
119
120
121
123
122
122
123
122
125
126
125
124
126
127
127
127
126
127
128
129
131
132
128
130
130
130
131
132
133
133
133
135
135
136
136
137
137
138
137
137
136
137
139
142
142
141
137
139
139
139
139
140
140
138
143
140
142
142
144
145
146
148
146
146
145
143
142
142
143
141
143
143
141
146
83
72
67
65
63
76
67
60
57
58
55
57
60
60
72
68
70
86
85
79
91
92
92
89
86
82
75
73
91
98
104
103
103
100
99
99
103
105
110
108
108
107
109
91
83
86
87
88
91
91
91
90
89
89
89
88
90
89
90
94
98
100
102
104
110
112
113
113
113
114
114
111
106
101
101
101
101
101
101
100
101
99
100
99
97
94
86
88
94
99
101
117
144
152
152
158
163
166
168
172
175
175
178
179
181
179
179
180
180
181
183
183
184
185
186
188
187
187
187
186
185
184
183
184
183
185
185
185
183
183
185
185
185
184
182
182
183
181
182
180
180
180
177
177
173
170
170
172
170
172
170
169
166
164
163
158
153
146
144
143
130
101
95
87
97
95
88
87
88
91
95
94
107
116
116
123
129
133
128
123
119
119
120
120
121
120
120
121
122
124
126
124
126
125
124
125
125
126
126
127
128
129
129
129
127
128
129
129
131
132
134
132
134
136
135
135
136
136
135
136
134
134
135
138
142
141
138
137
137
137
138
137
137
138
138
140
139
141
140
140
144
144
144
143
143
143
143
142
140
140
143
141
141
141
139
124
86
69
65
62
60
78
72
60
58
58
59
58
62
59
73
65
71
87
84
82
89
91
94
95
92
86
79
73
88
99
103
98
98
95
96
98
102
106
108
109
109
109
105
85
85
87
88
89
88
87
87
87
86
88
88
87
88
89
92
95
98
100
103
106
107
108
109
107
107
107
112
114
113
106
101
100
100
101
98
99
97
97
97
97
94
87
86
92
103
100
112
136
150
154
158
162
167
170
173
176
177
178
180
180
181
179
181
181
181
182
183
185
184
186
188
186
185
187
186
186
185
185
185
185
185
185
185
185
184
184
182
184
184
184
185
184
182
182
181
181
182
179
178
177
175
175
172
171
173
173
170
172
167
163
161
158
156
153
149
146
139
108
90
86
90
94
85
86
89
88
93
93
100
113
123
129
129
124
119
117
117
119
120
120
119
119
120
123
123
123
124
124
124
125
125
124
124
125
126
127
127
127
127
127
127
128
129
129
131
132
132
132
132
133
134
134
133
133
132
134
131
134
136
137
139
137
135
135
138
138
138
136
136
136
136
139
138
141
140
141
141
145
143
144
141
142
141
141
140
139
139
141
139
139
139
116
88
67
66
63
63
82
74
62
60
61
62
62
61
60
73
62
73
87
87
88
96
98
95
98
94
88
78
70
81
93
98
96
95
95
96
99
105
105
108
109
109
111
95
86
86
86
85
85
86
85
84
85
86
87
89
88
89
91
95
96
99
99
100
100
101
103
104
104
106
106
108
108
108
108
108
102
97
97
96
97
97
98
98
99
100
90
89
93
101
108
125
150
156
160
163
168
173
175
175
176
178
178
179
181
181
181
182
182
183
184
183
185
185
186
186
184
183
185
185
185
185
185
184
185
185
182
183
184
186
185
184
184
186
188
186
185
184
184
184
181
182
178
178
176
175
175
176
175
172
172
169
170
168
164
162
160
157
154
152
147
145
128
92
86
87
89
87
85
87
86
90
93
100
122
130
128
121
117
115
117
118
118
117
117
115
119
120
123
123
123
121
121
123
123
122
122
123
123
128
127
126
125
124
125
126
127
129
129
130
129
130
131
131
131
130
132
131
130
130
130
131
135
136
136
133
133
135
136
138
136
134
135
134
136
137
137
138
139
140
141
140
143
141
142
139
140
140
138
138
137
137
138
137
138
140
109
80
66
66
66
67
93
78
61
59
57
58
57
59
63
71
63
83
89
92
100
100
99
98
96
89
84
77
66
79
94
97
96
95
98
98
102
105
107
108
109
112
109
86
84
81
82
82
84
85
84
88
87
89
89
91
93
95
94
96
95
93
93
95
96
97
99
98
101
102
103
103
106
106
106
107
106
99
96
95
98
98
100
101
103
96
90
90
95
102
114
144
157
161
164
166
171
173
174
175
176
177
180
180
182
182
182
180
180
183
183
183
184
184
186
186
184
181
183
185
185
185
185
179
186
187
190
188
187
185
187
185
186
185
186
187
187
185
183
180
181
178
179
176
176
176
176
176
174
171
170
168
168
167
165
162
159
159
155
151
147
146
139
117
86
84
90
86
85
89
87
89
97
107
119
124
117
113
112
115
115
116
114
113
113
115
116
118
118
118
117
119
120
121
120
122
121
122
123
123
124
123
121
124
123
125
125
126
125
126
127
129
131
128
128
129
129
130
129
130
131
133
135
132
132
130
132
133
133
132
133
132
133
134
137
137
137
138
137
140
140
142
140
139
138
137
137
138
138
139
137
136
136
136
139
143
92
76
68
66
64
72
100
78
60
57
55
56
59
60
77
72
69
89
93
98
104
98
100
96
94
88
84
74
67
83
97
98
97
96
98
100
102
107
110
109
106
108
117
111
91
82
83
83
82
84
86
86
88
89
91
94
95
93
94
92
91
91
91
92
93
93
94
97
98
99
99
102
102
102
102
102
101
101
102
102
99
104
103
102
100
89
88
88
100
110
128
157
162
164
167
169
172
174
174
176
177
176
176
178
179
179
179
180
181
181
181
181
182
184
183
183
183
184
184
186
186
186
188
191
189
191
191
188
188
188
187
186
186
187
185
187
186
183
182
179
179
180
178
177
176
174
173
172
171
171
167
168
167
166
165
162
159
158
155
153
149
146
143
137
121
95
88
86
86
86
90
95
105
103
107
112
110
111
113
114
113
110
110
111
114
117
117
117
115
114
116
116
116
117
116
117
119
119
122
122
121
121
122
122
122
123
123
125
123
125
127
127
126
128
127
127
126
126
128
128
131
134
131
129
129
129
133
133
132
131
130
132
131
132
133
135
136
138
138
139
139
138
138
137
138
137
136
137
137
138
136
134
135
138
139
141
87
72
67
62
63
77
114
81
62
59
59
60
63
65
89
70
74
94
93
102
102
100
99
98
98
91
82
73
68
84
97
97
97
97
98
102
106
106
107
105
104
109
137
131
126
117
89
82
84
83
86
88
88
90
92
92
92
92
90
90
91
91
90
90
90
91
91
93
95
97
98
99
100
100
99
97
101
104
109
112
109
104
101
102
92
85
86
95
112
118
145
165
168
169
168
170
172
173
174
175
176
176
179
178
177
178
177
177
177
179
180
181
181
182
181
181
183
185
187
185
188
191
189
189
190
192
192
191
189
186
189
188
186
186
186
185
185
183
182
180
179
179
177
176
175
173
170
168
168
168
166
166
167
165
162
159
159
158
156
153
152
148
142
139
135
132
120
111
90
89
99
110
100
96
93
107
109
110
110
110
108
108
111
112
114
115
113
113
114
114
115
115
115
115
115
117
118
119
117
117
118
120
121
121
123
122
122
123
124
126
125
127
127
128
125
125
125
127
128
129
131
132
131
128
129
130
131
132
132
131
131
131
133
134
133
132
135
138
138
138
136
136
137
137
135
134
136
137
137
137
135
135
137
138
139
137
89
70
65
59
60
91
121
80
66
63
61
61
64
72
88
63
80
102
96
108
103
104
100
101
101
96
83
73
72
90
99
99
98
97
98
100
100
102
104
104
105
144
170
155
142
132
127
106
83
85
86
88
88
88
88
87
86
88
89
91
90
90
89
90
90
90
90
91
92
94
94
98
97
98
98
101
103
103
106
107
109
107
102
93
82
83
90
110
118
127
160
170
170
173
172
172
172
172
173
174
175
176
176
177
175
178
178
176
176
178
179
178
178
179
181
182
185
187
186
187
189
190
191
192
192
192
190
188
189
188
188
188
188
185
187
186
184
182
181
180
181
178
176
176
173
171
168
166
168
167
166
165
165
163
160
159
159
160
157
154
152
150
146
141
139
138
132
124
115
109
102
100
94
89
92
105
107
109
108
107
108
109
113
114
114
114
111
111
112
112
115
115
114
117
117
118
118
119
118
119
123
137
151
152
158
162
167
169
172
175
172
182
186
187
184
188
191
180
192
196
192
195
199
202
193
208
209
208
209
212
213
201
215
216
215
217
217
213
202
212
204
204
206
200
194
193
206
202
198
191
193
195
183
191
186
172
80
73
68
63
71
103
121
78
67
63
61
59
58
87
78
62
95
106
105
114
110
109
104
105
101
96
85
73
76
95
98
97
96
94
96
98
100
103
105
104
108
169
185
178
168
156
141
133
118
89
83
84
84
82
85
86
88
88
87
89
90
89
91
89
89
87
87
88
88
90
91
98
100
100
101
104
106
105
105
102
100
101
101
93
85
86
101
117
120
138
166
171
174
174
173
174
172
176
174
174
174
175
176
177
175
175
177
175
176
175
175
177
178
180
181
182
184
185
185
185
186
186
186
186
189
192
189
189
187
188
189
187
187
186
187
188
187
184
181
179
180
179
177
176
173
170
165
165
165
165
164
164
164
162
159
158
159
159
159
156
153
150
148
143
141
140
137
136
132
117
105
93
92
89
92
102
102
102
102
101
101
101
104
104
103
103
100
101
101
101
100
100
101
101
101
100
99
99
100
102
108
140
197
221
233
235
233
223
236
231
221
238
236
234
231
232
229
217
233
232
232
232
233
230
218
234
231
231
232
232
228
219
232
231
231
232
233
229
218
231
230
227
230
228
224
216
227
229
229
226
226
226
216
227
225
219
80
74
68
66
84
119
113
68
61
53
56
58
59
105
66
68
110
109
124
120
115
111
109
110
105
96
84
71
79
96
96
94
92
93
96
99
99
101
103
103
132
180
182
185
181
171
164
152
135
123
89
78
83
82
85
85
86
86
87
87
89
90
88
87
86
84
83
84
86
91
93
101
100
102
103
105
103
102
97
95
93
95
96
90
87
92
108
115
127
146
170
175
176
177
175
175
175
175
174
175
176
176
176
175
176
177
177
177
177
175
176
180
181
182
182
183
184
186
184
185
184
181
182
185
188
187
187
187
188
187
187
186
186
187
186
186
184
179
182
180
179
180
177
176
176
173
168
167
171
166
166
164
163
162
159
158
157
159
158
156
154
152
148
145
143
142
143
144
134
116
103
93
91
90
94
96
88
83
84
86
88
91
91
88
87
89
91
91
92
94
94
93
95
95
93
91
92
94
95
97
101
102
114
200
214
215
216
215
215
215
210
221
216
218
217
219
216
208
218
217
219
220
219
216
208
217
220
221
221
220
216
211
221
224
226
227
226
222
216
226
225
226
225
228
221
215
227
229
231
229
232
231
220
228
223
220
80
74
66
70
95
146
90
61
55
55
58
58
73
104
61
87
120
114
147
118
119
114
113
112
106
94
79
66
83
93
93
92
93
94
97
99
100
104
104
108
157
172
177
179
177
165
166
173
160
138
129
95
79
83
84
84
83
87
87
87
88
87
85
85
84
83
82
86
89
92
97
99
101
103
103
100
95
95
93
94
94
95
93
87
93
98
110
119
136
164
174
176
178
177
176
175
175
176
176
176
176
177
178
179
179
181
181
178
178
179
183
185
184
185
186
186
187
189
187
187
187
187
186
188
190
190
192
189
187
185
186
184
178
184
189
187
186
182
182
182
182
181
180
181
179
176
174
172
172
170
167
163
162
163
162
159
158
158
156
156
156
155
152
149
145
146
145
140
132
118
105
97
92
94
93
92
91
83
85
87
87
87
86
86
88
89
90
90
89
89
90
92
92
90
91
91
91
93
96
96
99
108
174
216
231
229
229
228
226
227
217
230
228
229
230
232
227
215
229
229
228
231
230
226
217
231
230
231
232
232
225
219
231
234
235
233
234
226
226
235
234
231
231
229
222
221
231
230
231
232
231
229
221
230
232
232
74
65
57
77
121
153
69
59
55
57
58
62
109
91
66
106
125
129
157
123
121
116
114
111
104
87
73
68
90
96
94
94
93
95
99
100
101
106
106
122
180
182
182
185
182
180
172
179
180
167
147
129
89
80
84
81
84
83
83
83
84
83
83
84
86
86
89
89
91
94
94
96
97
94
95
92
93
94
93
93
93
91
85
84
93
106
116
126
157
170
174
178
179
180
180
179
179
179
177
177
178
180
182
184
182
181
183
183
182
185
187
186
189
189
189
190
190
189
189
190
188
189
189
190
189
189
190
189
189
188
187
190
191
186
190
188
188
187
186
186
184
185
183
183
183
180
178
177
175
174
170
165
165
163
162
162
162
160
157
156
156
155
153
155
152
148
142
137
131
128
110
103
96
93
94
95
94
86
84
83
83
84
84
85
85
86
86
83
86
88
89
91
88
88
88
91
93
95
108
137
180
213
226
215
231
227
228
228
229
225
215
228
225
229
230
230
225
217
229
229
228
231
230
224
219
230
229
230
231
232
225
221
231
232
233
232
233
225
226
232
231
228
229
230
218
221
228
230
232
232
231
224
225
232
232
231
68
61
62
91
174
110
62
56
64
66
66
66
125
74
80
124
126
163
148
122
120
116
114
112
97
82
68
75
96
100
95
94
96
98
100
102
103
103
107
147
181
183
183
182
185
187
174
184
181
179
175
150
118
76
76
81
80
81
78
80
82
81
83
87
89
93
90
92
93
93
92
91
90
91
91
92
91
92
89
91
88
89
84
86
98
114
122
146
165
174
178
180
179
179
181
180
178
178
180
181
180
183
184
186
186
187
188
188
188
188
189
190
192
192
192
192
192
193
194
193
192
195
197
196
195
194
196
195
196
194
191
187
189
193
189
190
192
192
191
189
188
186
184
187
184
184
182
180
175
174
175
173
170
166
163
162
163
163
160
158
157
156
157
156
152
147
139
137
134
133
120
104
105
93
94
98
100
94
85
85
84
87
88
88
88
88
88
87
92
92
93
91
96
101
110
127
159
192
217
229
231
230
225
215
230
227
228
227
228
224
219
228
227
230
231
232
224
219
229
230
232
232
233
223
221
233
230
233
234
234
224
227
233
233
232
231
231
222
228
231
230
228
228
228
217
224
227
231
231
231
230
222
228
234
233
233
63
61
74
122
182
75
58
63
70
71
74
87
123
68
96
135
127
187
125
121
116
114
113
110
93
75
67
89
100
99
99
99
98
98
101
101
101
103
113
162
181
182
176
182
188
188
173
182
185
181
179
177
148
95
65
75
79
79
79
81
85
86
89
92
91
91
92
91
90
87
87
87
87
88
90
89
90
90
87
86
84
86
88
94
105
117
136
164
171
179
178
182
181
179
179
178
180
180
180
181
183
183
185
187
187
189
191
190
191
192
194
193
192
191
193
194
196
196
198
200
204
203
202
200
203
201
197
202
201
202
201
200
196
192
193
195
195
194
194
195
195
193
192
192
189
185
182
181
179
175
176
175
172
168
168
164
161
161
159
156
159
162
160
156
149
145
140
137
137
135
129
114
101
99
98
104
106
119
125
124
124
122
122
120
122
121
124
129
132
132
144
160
176
197
216
226
224
236
233
233
232
230
223
218
232
228
226
228
229
224
221
230
228
229
229
229
223
221
229
228
229
230
231
217
222
230
228
230
230
231
220
226
228
228
229
227
225
216
225
225
224
223
223
221
210
218
222
225
224
222
223
215
221
221
221
223
60
62
93
174
132
68
60
73
86
72
72
118
97
69
114
135
146
176
123
119
117
117
115
106
88
72
74
98
104
102
101
99
96
96
99
100
100
101
132
169
176
177
179
183
187
189
172
182
185
184
182
182
175
134
81
66
77
78
83
87
88
91
94
92
91
91
89
87
86
84
85
87
87
89
89
87
85
84
84
85
86
87
87
100
105
124
158
179
178
182
180
182
180
179
178
178
177
176
178
178
177
177
181
183
186
188
189
191
192
193
194
194
194
198
198
200
198
199
202
200
202
203
206
206
206
206
205
208
205
204
203
198
199
196
193
193
195
195
197
199
198
193
192
192
190
188
184
183
181
180
177
177
174
170
171
166
163
160
158
160
161
158
158
154
147
144
141
137
139
135
130
124
106
105
105
106
118
168
185
183
179
181
184
174
185
173
189
196
196
188
216
221
224
225
223
214
211
219
218
218
215
215
207
206
216
214
212
213
211
208
210
217
215
217
216
217
209
212
217
217
219
219
219
208
216
221
221
222
222
223
214
224
226
227
227
228
228
211
224
226
227
227
226
225
211
224
227
229
229
229
229
220
226
227
227
229
59
71
108
192
93
66
66
108
125
78
72
127
70
86
132
132
179
144
125
121
118
120
114
99
86
72
89
103
103
99
97
95
93
96
97
99
102
106
158
159
165
168
174
176
177
177
167
174
176
176
177
176
169
149
116
71
75
85
88
90
90
91
92
90
90
88
84
83
84
84
83
86
85
85
84
83
81
83
82
83
86
85
90
109
116
141
173
182
179
183
182
181
181
179
177
177
174
171
170
165
168
174
177
181
183
182
185
186
186
190
195
196
199
200
199
199
200
201
202
203
202
205
204
201
201
207
207
210
208
208
206
205
201
201
187
172
183
193
200
202
199
195
189
191
190
190
187
185
182
180
179
176
172
170
168
164
162
161
161
161
159
153
151
151
147
144
141
138
139
140
131
127
116
105
105
106
145
231
232
236
236
232
232
212
229
211
234
233
223
213
231
232
232
231
229
222
218
230
231
229
229
230
221
220
228
227
228
228
229
225
226
231
230
231
230
230
217
226
231
233
234
231
233
219
228
232
232
234
234
235
224
232
234
233
233
234
231
214
231
232
233
232
231
229
213
228
230
232
232
232
234
224
231
232
233
231
60
91
153
163
77
61
72
114
116
87
93
122
66
104
143
138
188
127
126
124
126
123
111
95
78
74
95
102
98
95
92
92
93
96
99
102
103
121
180
164
171
177
180
182
182
180
171
178
176
176
180
184
179
159
151
99
78
86
89
90
89
89
86
86
83
82
84
85
84
83
83
84
83
84
82
82
84
82
82
83
84
84
89
110
125
154
174
182
181
183
182
180
177
174
173
168
160
146
146
153
156
159
166
169
171
174
178
185
185
187
191
193
200
200
202
204
202
204
192
204
202
205
205
205
206
207
208
206
207
208
202
207
206
201
187
174
179
191
199
197
198
197
196
191
190
185
184
184
182
177
175
172
170
167
161
160
161
159
157
153
152
150
148
145
146
144
142
141
142
141
137
133
121
105
100
103
159
232
228
233
230
230
232
212
227
217
236
236
226
220
235
236
236
232
234
224
221
230
230
229
230
229
220
223
228
229
228
229
230
221
227
229
229
231
233
232
217
229
233
233
233
234
233
219
230
232
234
233
232
236
222
231
234
233
232
231
232
215
231
233
234
230
230
230
215
230
232
232
234
235
234
223
231
233
236
235
72
107
185
102
63
61
80
110
103
79
125
93
75
123
141
154
166
128
130
119
126
121
107
88
71
78
98
97
94
94
93
92
96
99
103
103
105
149
176
166
175
169
177
181
180
183
172
178
177
178
181
188
186
164
164
139
86
80
84
86
83
81
81
83
82
82
83
82
81
81
79
79
79
79
80
81
81
82
82
83
83
87
88
110
126
160
174
184
185
183
181
176
170
166
157
140
129
129
132
134
140
141
146
148
153
154
152
159
172
178
175
182
189
194
196
198
200
193
195
200
201
203
203
207
206
204
205
204
203
201
207
210
204
200
194
188
195
195
196
186
197
195
197
191
186
187
181
178
168
171
164
161
160
157
158
152
152
150
142
130
128
134
145
145
139
139
140
139
143
143
140
131
121
110
101
111
196
231
229
231
231
232
233
214
225
216
239
237
224
223
235
237
237
236
236
223
226
233
231
231
230
231
219
226
231
232
230
231
231
221
227
231
230
232
233
233
218
233
235
234
234
233
233
216
231
232
235
236
234
237
222
232
234
233
233
231
233
215
232
234
231
233
234
234
213
230
229
231
235
235
235
223
234
236
235
236
91
141
169
80
55
63
87
115
107
80
137
70
95
143
142
172
140
128
129
121
122
116
97
80
66
89
100
98
96
96
96
95
97
100
102
100
105
166
174
170
172
169
172
176
181
185
174
178
180
182
185
188
188
166
167
161
112
72
76
81
80
80
81
82
82
84
81
80
78
78
77
77
79
81
81
81
81
81
81
82
83
85
84
109
134
157
175
186
186
184
175
165
146
131
130
131
131
130
137
136
139
136
133
130
120
121
122
130
125
128
127
136
143
148
164
171
181
188
190
191
192
185
195
197
198
200
202
203
202
202
207
200
201
195
174
184
183
188
173
184
178
176
176
157
157
154
150
154
146
146
138
137
133
140
144
139
133
127
132
131
124
117
116
130
138
131
131
136
142
141
139
132
124
109
102
131
202
221
218
218
219
221
221
210
217
219
239
238
225
226
237
238
235
234
235
221
231
237
232
233
232
232
217
231
233
232
231
231
231
220
230
232
233
233
234
233
217
234
235
233
234
233
234
214
233
233
235
234
237
237
222
231
231
231
233
233
236
217
233
234
232
234
233
235
211
229
230
235
235
236
236
223
236
236
236
233
107
182
114
67
57
72
125
143
90
112
122
73
119
148
150
169
135
131
124
122
117
108
87
69
73
99
103
101
101
99
99
96
97
98
96
96
120
162
175
169
173
178
177
179
183
188
178
178
182
185
187
187
190
163
163
166
141
78
71
80
79
81
81
82
81
79
79
78
78
78
75
77
78
80
80
81
81
83
82
82
82
84
83
99
136
153
180
188
187
176
154
130
136
129
130
129
128
124
127
127
126
123
120
117
114
115
118
113
117
112
113
118
111
116
123
138
152
153
181
177
174
182
182
183
190
193
200
198
202
205
207
202
192
185
171
174
164
165
158
171
155
142
131
125
123
113
113
105
108
112
105
106
113
113
115
112
108
106
104
122
122
117
112
107
111
123
129
130
140
140
134
130
121
105
102
152
214
232
232
230
231
230
229
217
225
217
230
230
218
221
229
231
230
227
229
216
222
226
225
224
223
221
207
218
219
221
222
220
219
210
219
218
219
220
219
217
208
220
218
219
219
219
220
205
223
221
221
223
223
222
212
219
221
222
221
219
221
206
218
216
219
220
221
220
204
221
222
223
221
222
224
214
226
224
224
223
132
176
81
60
60
113
146
149
82
141
86
90
131
141
154
149
131
129
123
120
116
100
82
72
92
106
105
102
99
96
95
93
92
92
94
98
135
146
151
155
164
171
173
167
170
173
168
172
174
175
177
177
177
151
153
153
148
100
64
77
80
80
80
79
78
76
76
76
77
77
78
78
79
80
80
81
80
82
81
82
83
84
84
92
137
151
179
187
177
141
138
141
148
152
150
147
153
149
149
153
153
150
149
140
136
126
118
119
116
110
112
116
111
112
131
128
144
144
149
175
175
175
169
159
168
187
202
200
203
199
202
196
190
186
169
170
161
150
155
139
134
135
128
116
110
109
106
109
101
104
115
116
113
113
115
118
113
120
124
114
109
98
95
99
100
101
111
124
132
137
134
130
119
106
100
188
219
239
236
237
235
232
232
218
225
218
232
234
223
223
232
232
231
229
230
217
224
229
229
230
229
229
215
224
227
230
228
229
230
216
231
232
232
233
234
235
214
233
233
234
234
234
236
214
232
233
235
236
235
236
223
234
234
235
235
236
236
212
235
234
235
237
234
234
213
234
235
236
237
235
236
224
239
239
237
237
175
132
71
61
73
120
113
108
96
138
74
105
145
135
154
133
127
125
127
125
117
97
80
78
102
106
102
96
95
93
92
90
91
91
94
105
152
152
150
141
162
170
170
169
162
173
167
173
177
178
179
172
170
153
159
158
158
130
70
72
81
78
79
78
77
76
77
79
77
77
78
79
79
79
80
79
80
80
81
82
84
86
90
90
133
151
178
182
148
142
154
161
162
168
176
177
179
179
180
178
181
184
182
182
180
175
172
169
154
140
139
144
142
131
120
136
138
150
152
174
172
174
169
173
183
193
201
201
200
200
198
191
191
184
177
166
165
153
142
132
132
121
119
118
116
115
113
117
120
122
134
141
147
154
155
162
161
157
158
153
140
137
129
118
122
116
108
101
117
132
134
128
117
109
102
208
218
236
231
235
227
227
229
221
225
225
241
241
224
230
237
243
243
238
239
223
232
236
236
234
232
234
219
231
234
234
235
234
232
216
234
233
233
234
235
235
213
232
233
235
234
234
235
215
234
235
238
235
235
235
224
234
232
235
238
235
236
214
235
235
236
236
234
236
216
237
235
236
238
236
236
223
239
239
239
239
180
88
69
65
83
88
91
81
127
102
78
121
141
137
146
133
128
126
133
126
112
91
76
87
102
99
95
94
93
91
90
90
91
90
91
127
154
156
157
145
151
169
180
176
170
176
180
178
177
178
174
166
166
156
162
166
165
155
87
62
78
79
79
77
77
78
79
78
78
79
79
79
79
79
78
80
81
80
81
84
87
89
91
88
126
150
177
171
153
165
172
174
178
180
180
181
182
184
186
182
184
184
182
181
179
182
182
181
178
177
172
171
173
166
167
163
167
162
172
175
172
182
181
184
189
191
199
199
199
194
192
188
186
180
175
162
164
156
150
163
153
152
155
153
154
158
160
161
167
176
180
179
179
178
178
177
175
172
164
159
162
156
155
147
143
136
128
110
104
120
134
128
116
104
106
223
219
231
227
228
223
227
229
219
220
227
242
242
224
234
239
244
244
241
241
221
235
238
239
238
238
236
219
233
232
233
235
235
234
215
235
235
233
234
235
237
215
234
236
236
234
236
236
217
234
237
236
235
235
234
223
234
236
238
238
236
236
218
236
238
237
236
236
240
218
238
237
238
238
237
238
222
239
239
239
239
141
76
68
69
87
90
86
79
139
73
97
144
139
141
141
132
130
129
132
124
102
80
71
93
100
96
95
94
92
89
88
89
88
87
95
143
156
159
160
148
151
159
166
177
175
182
176
182
184
167
167
165
166
153
163
168
167
162
110
62
76
78
79
79
77
81
79
82
82
80
79
79
81
80
80
81
82
84
86
88
89
88
88
87
116
147
179
158
166
180
180
183
184
185
184
183
184
184
183
183
184
183
182
180
177
181
180
176
175
175
175
175
173
176
178
179
178
178
179
176
175
183
178
178
191
194
196
195
194
191
187
184
181
181
167
170
162
165
170
171
168
169
171
172
173
175
176
181
182
184
182
181
179
178
178
178
178
173
172
168
169
163
160
152
149
146
143
132
113
109
127
128
116
106
132
229
217
227
225
225
220
225
222
214
215
232
243
242
224
237
241
244
245
242
241
220
237
239
239
238
239
237
219
232
233
233
235
235
236
216
236
236
233
234
235
237
215
235
236
236
237
236
236
219
236
237
236
235
238
235
225
239
240
241
241
237
236
217
238
239
238
240
240
239
220
242
238
239
240
240
238
223
241
239
238
239
98
65
62
75
82
85
79
110
120
76
120
151
135
147
141
138
136
130
131
113
90
71
79
100
98
96
93
93
90
89
87
88
88
90
111
155
160
162
160
149
150
158
159
162
174
185
177
182
185
168
166
165
166
154
164
170
169
166
137
65
72
80
79
80
79
83
82
85
83
82
78
82
81
81
82
85
85
87
87
87
87
86
89
90
117
153
171
156
181
187
190
187
183
185
184
183
183
183
183
183
182
183
182
181
181
179
177
174
171
171
173
175
176
177
180
181
180
180
181
182
182
186
185
186
192
192
192
192
190
187
183
178
173
175
166
168
166
163
163
166
166
169
178
179
179
178
180
181
182
182
182
182
180
180
179
176
175
172
169
168
167
166
164
164
160
156
151
144
129
108
123
125
120
106
161
224
213
224
223
222
225
223
220
215
214
233
238
238
220
233
238
239
240
238
236
215
233
234
233
232
234
236
214
230
229
230
229
228
230
212
231
231
230
228
228
230
212
227
227
229
227
227
227
213
225
224
225
225
224
225
216
226
228
227
228
227
225
211
227
226
228
227
227
226
215
227
226
229
229
227
223
212
223
221
218
220
76
59
60
81
81
80
75
135
81
92
144
139
137
146
136
137
133
131
123
101
81
67
91
100
96
93
90
91
88
89
89
90
92
94
132
154
154
154
153
144
141
152
154
153
156
167
170
177
179
160
159
158
159
150
158
163
162
162
149
76
69
80
82
81
82
84
83
81
81
80
81
83
81
82
84
86
86
87
86
85
87
90
93
96
109
150
163
174
188
187
184
184
182
183
181
183
183
177
172
164
162
160
156
157
157
160
158
155
153
151
153
159
165
170
174
180
180
178
178
181
181
187
187
192
191
190
187
186
183
181
176
172
169
169
167
166
161
161
161
168
175
177
178
178
179
177
173
172
171
171
170
171
170
170
170
171
171
170
167
165
164
162
160
160
159
160
156
149
136
118
117
128
118
108
189
231
221
235
232
234
238
233
229
226
214
221
229
229
211
225
229
232
233
234
233
215
228
229
228
227
230
232
213
229
231
232
233
228
230
210
229
229
230
233
233
234
213
232
230
233
233
233
233
215
231
232
232
233
235
234
226
236
239
237
235
238
233
220
239
240
241
241
239
235
224
240
242
242
242
240
238
228
239
241
239
241
62
57
71
92
88
82
92
130
78
112
152
134
147
142
134
130
127
128
117
89
71
72
99
99
94
92
90
90
90
92
93
93
95
101
149
153
150
151
151
144
132
147
147
146
149
151
147
161
160
150
151
150
153
144
150
156
155
153
152
95
70
81
83
83
82
82
82
82
81
81
83
84
84
87
87
87
85
86
85
88
93
94
93
92
102
150
168
185
190
180
183
183
181
180
176
169
161
159
162
163
164
164
164
168
168
165
161
157
155
154
148
141
138
143
154
166
171
174
174
176
181
182
185
189
184
182
179
176
173
169
166
162
161
161
158
156
158
154
161
168
170
166
164
157
153
152
157
157
159
163
164
161
160
154
150
145
145
146
149
156
158
155
155
154
154
156
154
152
142
129
120
129
119
109
214
231
220
232
231
233
234
232
231
224
205
235
245
244
224
238
240
242
244
246
243
222
240
239
240
240
239
240
220
239
238
238
240
237
239
216
237
237
238
237
240
239
219
237
239
238
238
241
239
222
235
237
237
238
240
238
233
243
242
240
241
242
235
227
241
242
243
243
241
236
227
242
243
242
242
241
237
228
239
242
240
241
59
60
84
94
97
83
125
100
87
132
155
138
153
139
132
129
131
126
104
81
63
83
99
96
93
93
93
93
95
93
94
94
93
115
160
156
156
156
155
152
138
155
156
157
158
158
150
150
158
158
157
157
167
153
159
165
165
166
166
117
67
85
82
81
82
82
82
83
83
85
87
87
86
86
84
84
85
88
90
94
91
90
91
91
98
152
173
190
187
183
178
176
173
169
163
157
168
172
167
168
166
160
151
137
127
126
124
124
134
140
147
148
147
145
142
145
156
175
176
172
175
179
180
183
179
176
173
171
171
169
163
158
156
154
153
150
152
149
156
164
158
152
156
158
156
156
155
150
143
146
148
149
157
156
160
152
146
143
142
135
136
147
149
147
148
152
155
151
144
133
121
130
118
126
235
230
221
231
232
231
233
234
229
223
199
240
247
247
222
241
244
246
246
246
244
222
243
244
243
242
240
239
219
241
241
241
240
240
240
216
237
237
237
239
240
241
221
240
241
240
243
243
241
224
238
239
238
239
242
239
235
244
243
242
244
243
232
232
241
245
244
243
242
236
231
242
244
242
242
241
235
229
239
243
242
241
60
72
90
91
92
82
134
75
99
152
145
147
146
132
129
129
129
121
96
72
64
94
102
100
98
97
95
95
93
94
91
91
90
129
158
157
155
156
156
156
139
157
157
157
159
159
152
152
158
159
159
160
177
154
161
167
167
166
168
133
64
83
82
81
84
83
84
85
86
88
87
87
86
85
85
86
91
93
93
91
88
89
96
105
109
155
179
191
187
182
177
175
169
160
159
176
174
169
160
142
123
116
103
95
156
176
144
103
112
150
176
160
142
138
145
155
155
165
171
167
173
176
175
178
177
177
174
173
171
169
164
161
159
153
149
146
151
148
151
158
157
156
149
140
140
155
173
135
106
99
116
105
98
105
113
129
139
142
138
132
131
127
138
143
145
148
152
149
144
135
123
130
122
167
236
227
222
232
235
235
233
236
229
227
202
242
248
247
221
242
245
245
247
245
244
220
244
244
243
243
239
242
220
242
241
241
242
242
240
219
239
240
239
240
239
240
223
239
240
242
241
244
242
225
241
241
242
242
245
237
235
246
242
244
245
243
229
234
242
248
247
244
244
235
233
242
243
245
243
240
232
231
241
242
242
243
66
77
86
86
77
108
119
75
120
156
145
154
139
133
130
131
127
111
87
68
81
105
106
103
100
98
98
94
92
90
89
86
90
138
160
161
160
159
160
157
138
154
157
158
159
157
151
150
160
163
162
162
166
155
160
167
169
171
168
143
61
80
81
82
84
85
88
89
90
88
88
85
86
88
91
92
91
91
88
88
94
110
114
112
108
167
180
190
186
181
178
171
165
169
177
162
145
121
115
148
186
174
159
126
163
138
138
144
130
163
221
202
185
179
149
141
142
156
164
166
172
173
176
178
179
179
176
175
172
170
166
162
159
156
150
146
148
144
146
156
143
135
158
170
194
223
220
132
119
173
202
191
136
127
111
126
130
115
122
128
128
127
128
140
144
146
151
153
147
141
129
130
120
195
220
214
208
216
217
213
215
218
211
214
201
243
248
247
221
241
245
246
246
243
241
220
245
246
243
242
240
241
222
240
241
241
241
241
238
221
239
236
237
238
237
235
222
236
236
236
237
240
236
222
237
237
238
238
239
230
231
237
238
238
238
236
225
235
239
239
237
237
235
225
225
233
233
235
232
230
219
222
230
231
230
231
67
79
79
80
71
136
85
94
143
147
144
149
135
130
129
135
123
102
81
72
97
111
108
103
99
94
92
92
88
87
87
84
110
146
159
163
160
159
157
151
136
155
157
158
156
155
149
149
163
163
160
160
161
152
157
165
165
167
164
151
67
78
84
87
86
88
89
89
88
87
87
88
90
93
92
90
88
88
93
108
119
115
113
112
113
181
186
193
189
182
173
167
162
155
136
109
100
119
161
193
211
179
124
117
117
115
115
121
124
147
153
145
143
144
140
142
145
160
161
168
173
174
177
183
180
177
173
170
167
165
164
162
160
156
153
147
148
149
148
151
143
141
148
155
155
158
171
130
125
128
99
106
120
119
115
169
193
155
106
96
110
119
124
130
140
148
156
155
148
144
133
128
126
231
233
229
217
229
231
231
232
234
223
236
210
220
222
225
202
222
223
225
226
225
225
211
228
227
227
227
224
222
211
229
229
229
230
229
227
215
227
228
229
228
227
229
219
232
234
236
235
234
232
223
234
234
235
235
236
226
225
235
236
236
234
232
230
234
232
231
231
229
229
214
226
231
231
231
232
232
216
226
233
230
231
233
70
78
77
77
89
132
71
112
151
137
143
138
129
127
128
130
114
93
78
81
108
110
104
99
95
92
89
87
86
86
86
86
130
136
145
149
148
148
146
143
130
146
145
144
142
146
141
136
145
145
147
146
146
139
140
147
148
146
145
144
77
80
87
88
91
89
88
86
88
90
93
94
94
91
88
86
89
98
118
119
118
116
114
114
127
189
190
194
190
182
168
164
152
136
126
134
142
147
151
153
150
153
147
148
153
156
158
158
156
156
151
153
152
151
158
157
159
160
166
171
174
177
182
184
180
175
172
169
165
162
159
158
158
155
154
151
151
153
150
145
147
155
156
158
159
162
163
161
159
152
148
137
130
127
128
162
160
144
128
110
99
94
107
118
133
145
154
156
151
145
136
129
153
245
243
235
221
237
241
243
242
242
228
237
209
239
245
246
204
244
247
248
248
248
245
222
248
248
245
245
244
242
219
245
243
242
242
240
240
222
243
243
241
241
241
237
228
245
246
244
246
246
238
231
245
245
245
244
246
233
234
248
246
245
246
246
232
241
247
247
246
246
244
223
239
245
244
245
244
243
219
240
240
236
235
233
74
76
78
70
129
95
85
128
142
132
142
134
129
128
128
128
108
88
71
93
110
104
98
94
89
89
87
85
85
84
83
86
137
129
141
140
143
143
141
143
132
141
140
145
145
145
140
132
139
141
144
143
148
142
138
145
145
147
149
150
90
79
90
88
88
89
88
90
94
93
95
92
90
87
90
90
103
123
122
130
133
127
119
115
152
190
196
197
193
182
173
169
165
166
171
176
182
181
179
177
175
171
171
168
169
168
167
163
153
148
148
150
151
158
158
158
163
170
173
176
176
180
182
184
178
174
171
168
165
161
160
158
155
151
153
155
153
151
152
151
147
144
150
155
157
156
157
160
164
165
167
164
161
151
145
142
137
135
129
124
116
109
108
121
131
142
150
156
153
145
138
132
169
234
228
222
198
220
224
226
226
227
210
210
199
219
218
214
198
219
215
220
222
223
224
212
221
218
219
220
223
219
208
220
217
211
215
213
213
207
216
214
206
216
214
210
208
212
211
201
213
215
212
211
213
212
202
204
206
202
204
203
208
206
202
209
202
209
212
210
207
190
188
173
179
178
175
169
159
150
137
137
127
121
119
117
75
77
78
80
138
70
103
145
135
138
146
135
132
133
129
124
100
79
75
100
105
100
94
90
89
88
87
84
83
82
80
104
138
138
141
128
129
141
142
142
141
138
127
129
141
142
144
139
138
131
133
143
145
147
146
146
135
132
135
136
102
76
89
89
89
91
93
95
96
91
88
88
89
90
88
106
123
127
161
174
166
156
139
120
174
194
198
197
192
183
176
173
174
174
175
177
177
179
177
176
173
172
170
169
165
164
157
153
149
148
151
152
153
156
156
165
174
176
177
179
181
181
183
182
179
174
171
170
165
163
160
158
155
151
151
152
151
150
150
154
155
150
145
149
151
153
155
153
156
160
166
167
165
159
157
157
154
148
144
139
134
130
133
132
137
149
152
155
152
145
141
133
173
231
230
228
198
225
225
227
227
227
228
212
225
228
227
226
227
228
212
220
226
226
227
227
225
217
217
223
224
223
224
223
215
207
223
225
227
225
224
222
198
224
223
226
225
224
226
195
224
223
226
226
225
224
206
217
228
227
227
222
227
218
208
228
210
190
167
147
129
116
110
108
107
108
107
108
107
108
109
107
106
106
107
107
75
78
73
112
114
80
119
150
134
144
141
134
134
136
130
112
90
69
85
104
102
96
93
90
88
85
84
84
81
82
81
128
147
148
152
143
141
152
154
157
160
158
148
141
147
147
148
148
148
143
146
152
151
153
156
159
149
139
146
143
112
67
87
89
93
96
96
93
90
90
90
91
89
86
100
125
126
154
186
195
186
174
160
150
192
196
198
193
190
184
179
176
172
170
171
171
171
172
171
171
171
170
166
163
159
157
154
153
153
154
157
156
157
161
172
179
179
181
180
181
183
183
180
176
176
172
171
166
164
162
160
156
155
152
147
146
147
150
150
152
156
159
155
153
153
155
153
153
153
154
156
162
163
161
160
159
158
156
151
143
139
143
145
146
149
151
152
153
152
146
141
132
170
235
232
228
201
227
224
225
227
225
229
207
229
228
228
226
224
226
211
221
224
224
226
226
225
217
219
223
224
224
224
224
216
210
223
225
226
223
224
223
203
226
224
224
226
225
228
195
224
224
227
229
226
225
204
220
229
230
228
225
217
188
149
128
107
102
104
108
107
106
104
105
105
108
105
103
103
105
107
103
104
104
107
105
75
79
70
136
77
100
142
145
137
146
140
140
134
134
125
101
74
67
96
104
101
95
91
89
87
86
85
82
80
80
88
143
146
148
150
146
138
148
149
153
154
161
156
146
150
151
149
149
150
144
146
155
153
157
161
163
152
136
143
142
123
70
94
96
95
93
91
89
90
91
89
88
84
90
126
127
126
169
166
164
189
187
180
177
195
196
197
192
191
184
181
179
176
173
174
174
174
174
174
173
171
171
170
168
164
164
163
163
160
162
164
164
168
173
178
180
184
184
185
186
184
180
176
173
171
170
170
169
166
162
160
158
154
149
143
142
143
146
149
151
155
157
159
159
156
158
164
165
165
163
161
159
159
159
160
160
156
157
157
149
150
149
151
151
155
155
153
151
153
146
141
136
157
224
167
132
133
183
224
224
226
225
228
210
229
228
228
226
224
226
211
221
222
224
228
226
223
214
219
222
223
223
225
223
212
212
224
225
226
225
223
223
205
225
223
223
224
224
226
196
224
223
226
227
227
228
204
223
226
227
209
162
119
107
109
104
102
102
104
106
105
102
100
104
104
105
103
104
105
104
103
105
105
105
105
104
78
77
99
132
81
116
154
136
146
142
144
139
137
133
115
87
69
79
103
104
99
94
91
87
85
84
80
78
78
76
105
146
144
145
146
142
135
144
143
143
141
147
143
143
154
153
148
148
147
142
146
159
151
155
157
157
151
133
144
144
133
77
97
95
91
90
91
92
90
87
87
86
84
118
127
127
126
178
173
170
175
185
189
188
196
197
196
194
190
186
183
181
179
179
179
179
178
178
177
179
178
178
177
173
171
168
168
170
169
169
170
175
178
179
182
185
186
188
188
188
183
176
172
172
172
171
171
168
166
165
166
158
154
150
143
140
138
145
152
152
156
156
158
162
165
162
165
170
171
170
170
170
171
169
167
167
165
166
163
161
162
158
156
158
156
154
153
149
150
146
141
137
137
133
130
138
138
134
185
225
226
227
228
209
227
225
227
226
223
225
209
221
222
222
223
223
222
212
219
224
223
220
222
221
211
214
224
224
223
223
223
220
206
224
222
224
223
222
225
198
225
226
226
226
223
223
205
225
220
166
107
101
102
105
103
100
102
104
106
106
102
102
103
103
105
104
103
103
104
104
104
104
106
104
103
105
82
79
138
100
92
137
150
138
154
142
144
137
133
127
105
76
63
93
106
101
96
95
90
86
84
82
79
77
78
77
124
139
139
140
140
139
130
138
138
136
132
134
131
129
146
153
144
142
141
139
136
148
145
145
145
145
143
131
141
140
135
78
93
93
92
93
91
90
87
87
85
83
98
130
129
129
129
190
173
170
176
189
193
188
195
197
196
193
187
187
184
185
185
182
180
180
181
181
182
181
179
178
177
176
176
176
178
177
175
178
178
179
181
182
185
187
187
192
194
189
181
175
170
174
174
174
173
172
172
169
166
160
155
150
143
137
134
141
144
155
156
157
158
161
167
167
166
166
171
175
173
174
175
175
173
172
170
171
169
167
165
163
164
162
158
155
152
152
150
146
141
137
133
135
143
146
143
133
151
220
218
220
220
202
217
219
218
219
219
219
204
217
217
218
217
216
216
206
214
218
219
217
217
216
204
207
215
215
216
216
214
210
199
215
213
214
215
213
212
195
216
215
215
214
212
211
195
203
131
100
100
103
105
103
100
99
103
104
104
101
102
100
103
106
103
103
101
103
103
103
104
104
103
103
105
104
85
89
146
76
109
152
143
143
145
141
143
139
135
120
92
66
75
102
104
99
94
90
86
82
82
80
78
75
83
111
125
112
122
132
133
131
118
127
129
129
128
128
123
118
133
137
138
136
134
125
122
133
134
137
137
138
137
123
134
134
134
81
94
93
92
94
90
88
88
87
87
83
119
130
131
129
134
191
171
176
176
201
202
188
195
196
195
191
192
191
189
189
187
185
186
183
184
183
181
182
180
178
179
179
179
179
178
180
180
180
181
180
181
183
186
188
191
198
195
189
178
172
173
174
176
178
178
179
175
170
168
166
159
154
146
142
135
134
139
156
161
160
163
164
166
165
167
168
168
170
173
175
174
175
173
172
172
172
172
171
169
168
164
162
158
152
152
151
149
146
141
138
131
142
145
144
143
145
153
220
222
223
222
200
219
219
219
220
219
219
199
216
215
216
215
215
216
200
212
213
213
212
211
214
201
210
215
214
216
216
215
208
201
214
215
216
218
218
219
202
221
222
220
220
219
221
183
112
97
97
99
103
104
99
100
101
104
103
101
101
102
102
102
106
103
101
102
101
101
101
102
104
103
104
103
105
80
121
120
82
125
156
142
150
147
147
145
138
131
107
79
60
87
103
100
95
90
85
82
79
74
74
76
91
130
135
123
85
83
124
142
140
126
139
139
140
141
142
139
128
141
143
145
148
145
139
127
142
143
147
148
149
147
130
147
146
146
89
90
93
92
91
89
89
88
86
87
94
131
130
132
129
134
191
169
184
180
207
199
190
192
196
195
195
196
192
193
191
190
187
190
190
186
184
184
184
180
181
179
178
179
179
180
181
180
180
181
183
183
185
187
192
196
200
193
180
174
177
178
179
181
183
183
183
178
174
173
172
163
157
152
144
137
131
135
150
165
168
169
171
170
168
167
168
169
169
169
170
171
173
173
175
172
170
174
173
171
169
166
163
160
157
153
152
149
146
142
137
130
145
140
140
156
158
155
224
231
229
231
205
231
231
230
230
231
230
206
223
223
223
222
222
222
204
222
223
222
221
219
221
204
215
222
222
221
219
223
212
209
219
220
221
221
222
221
206
225
225
223
224
223
207
116
98
97
98
103
103
99
101
101
103
103
103
100
99
101
103
104
105
100
101
101
103
102
103
104
103
102
104
104
106
80
144
78
96
148
150
143
151
141
142
142
136
128
95
67
67
98
102
98
92
89
83
79
69
59
84
102
137
139
124
93
84
89
88
136
137
126
137
137
139
140
143
140
128
143
143
143
144
144
140
127
141
149
151
148
148
147
126
145
144
146
96
86
92
92
90
89
90
89
87
86
115
133
131
132
131
137
193
167
181
184
207
198
187
193
195
200
200
200
197
196
195
194
192
192
191
185
185
185
182
181
182
183
182
182
182
183
182
180
181
183
187
188
190
193
198
199
190
177
173
181
191
196
197
192
191
190
188
186
182
179
176
174
166
159
151
143
137
131
135
156
172
177
177
176
176
172
169
170
171
170
169
168
171
169
170
169
169
173
173
173
169
170
166
163
158
157
153
149
145
140
137
130
137
139
145
157
160
160
211
230
229
229
205
229
231
231
228
231
232
206
224
223
223
224
222
222
204
221
222
222
222
221
219
204
216
220
219
219
220
222
209
212
223
222
221
222
225
220
208
223
225
223
223
217
130
99
97
99
102
104
99
98
100
104
104
103
100
99
101
102
103
103
101
102
101
103
101
102
104
103
101
103
105
104
107
96
136
70
114
157
144
150
143
137
142
138
133
116
81
58
79
101
100
95
89
85
82
77
78
84
100
128
131
125
93
78
81
85
81
116
136
124
138
137
139
141
145
146
136
150
148
143
142
140
140
128
147
152
148
145
146
147
127
144
144
144
100
83
91
91
92
89
89
88
89
89
129
133
132
131
132
137
193
167
178
190
203
197
189
193
197
202
202
202
201
197
197
195
193
191
190
185
187
188
187
187
183
185
184
187
187
184
184
184
186
188
189
192
195
198
196
190
174
174
180
197
205
207
212
205
196
198
202
199
196
189
183
177
169
160
157
151
145
141
138
138
160
180
184
185
181
176
175
173
171
171
170
171
172
172
171
170
172
173
171
170
168
170
169
167
161
159
152
147
143
140
135
130
141
146
146
164
161
161
166
178
183
187
181
202
211
218
221
229
231
206
226
223
224
225
225
223
202
224
220
221
222
219
220
202
215
219
220
221
221
221
207
213
222
224
223
221
224
219
210
225
224
223
223
164
101
97
99
102
103
101
99
98
101
104
102
99
98
99
101
101
103
101
100
100
101
102
101
103
104
101
100
102
105
106
106
132
102
87
134
152
140
155
141
141
138
134
126
100
70
59
90
102
98
91
84
80
81
84
96
115
125
122
119
93
74
73
79
81
81
90
144
139
152
154
155
156
159
157
144
158
161
159
142
153
154
139
151
148
146
143
146
146
125
140
141
141
106
83
93
91
92
90
91
89
89
100
134
133
132
129
130
135
191
171
167
199
197
194
186
192
197
199
202
203
202
200
198
199
197
195
193
191
186
187
189
187
188
187
186
186
186
185
185
187
189
189
193
197
200
195
184
177
179
188
199
202
201
197
195
201
202
202
217
223
214
211
193
181
167
160
158
157
155
152
146
143
145
167
182
189
186
183
181
179
175
171
171
173
173
175
175
175
174
172
171
170
170
168
169
167
164
160
152
149
142
137
134
128
142
147
145
162
159
161
125
78
80
83
84
86
92
104
124
146
171
182
210
219
224
225
223
222
200
221
222
223
222
221
222
201
218
222
222
221
222
221
207
216
220
217
216
212
212
201
193
203
197
192
175
103
97
99
102
103
101
98
99
101
102
102
101
98
99
101
103
101
101
99
100
100
101
100
99
102
102
102
101
102
104
106
105
146
69
104
151
145
145
150
142
140
145
135
118
88
57
66
97
98
92
88
82
81
82
82
95
114
116
97
73
72
72
75
81
80
82
84
121
135
140
142
143
142
141
141
135
146
151
144
130
145
142
129
135
138
135
132
133
131
119
129
132
131
108
85
94
92
93
93
92
91
91
115
133
129
130
129
128
128
179
178
163
202
195
190
184
187
192
199
200
201
202
200
200
199
192
195
195
194
193
192
193
191
189
189
187
187
188
188
188
191
192
196
197
199
195
188
178
183
196
202
206
197
194
192
190
191
200
198
202
196
198
195
191
182
164
157
157
157
161
162
156
149
147
154
175
187
190
190
187
183
179
175
177
176
174
173
173
173
175
172
170
169
170
171
170
167
166
162
156
151
145
138
134
133
149
150
143
165
153
161
140
136
138
143
141
137
131
127
120
110
96
87
99
130
164
186
198
200
180
191
187
186
183
180
172
156
159
153
149
144
136
130
122
117
116
111
110
106
100
90
86
88
84
87
107
100
95
98
103
102
99
98
98
102
103
100
97
98
99
101
102
100
99
99
100
102
100
98
101
101
101
101
101
103
105
104
105
130
73
122
159
141
159
143
144
138
138
130
110
78
55
81
100
96
88
85
81
81
77
88
137
145
123
76
66
73
77
80
82
84
83
87
100
142
153
151
153
156
155
155
142
160
164
153
143
159
156
137
148
149
149
146
146
143
131
143
144
142
121
85
97
96
96
94
92
92
91
125
131
130
130
130
129
126
159
186
181
197
191
184
182
190
190
195
190
201
204
200
199
200
201
194
195
197
194
194
194
191
190
187
188
189
188
190
192
194
194
199
199
196
191
183
179
197
204
201
197
191
190
186
186
187
191
195
193
189
187
185
181
171
157
153
156
159
162
165
163
160
156
151
171
185
190
192
190
191
187
180
176
175
175
173
174
173
174
175
171
172
169
170
167
167
165
161
154
153
145
138
132
143
159
154
146
154
147
157
148
149
153
154
153
155
157
159
156
152
150
145
130
113
91
84
93
94
86
88
83
80
78
80
80
81
82
84
80
80
82
83
83
82
84
88
89
87
83
79
79
80
80
95
106
95
98
104
101
99
98
98
102
103
100
96
96
99
102
101
102
97
99
98
101
100
99
100
100
99
100
101
101
103
106
106
104
84
90
143
155
146
155
141
143
139
133
126
97
68
60
91
102
94
90
88
82
81
67
109
145
151
138
86
59
70
78
84
85
87
86
87
88
120
148
148
151
154
154
156
145
156
160
145
144
157
156
140
147
147
145
144
146
141
129
141
143
141
123
84
99
97
97
96
93
93
95
134
134
132
131
129
127
127
136
187
191
190
182
180
185
187
196
198
192
198
200
201
199
201
199
196
196
195
194
193
192
194
193
194
191
191
192
195
196
195
197
199
197
193
189
181
180
198
198
192
180
156
140
144
157
182
188
189
187
185
183
181
175
162
151
136
117
113
127
152
164
166
158
149
168
182
188
195
195
192
191
189
183
178
177
175
175
171
174
175
174
173
172
170
167
166
165
163
149
150
143
137
130
154
161
160
155
144
142
156
150
149
152
152
154
157
160
161
160
159
161
160
157
155
149
130
105
88
87
88
85
91
91
96
99
89
83
83
78
77
76
74
72
75
81
83
83
76
74
74
72
72
76
100
98
97
101
102
98
97
98
100
102
101
97
96
99
100
102
102
99
97
97
98
101
98
99
99
97
99
98
100
100
104
106
105
103
64
106
161
151
152
151
146
140
138
132
118
86
57
72
97
102
94
88
84
78
73
65
122
149
152
125
74
55
77
87
79
82
85
83
81
81
105
147
148
150
153
152
154
140
151
157
139
148
158
154
141
146
147
145
144
144
142
128
141
139
138
121
88
100
99
96
95
92
94
102
134
131
132
132
130
129
127
132
177
196
183
173
172
185
188
195
202
198
197
199
202
202
199
200
196
194
192
197
196
192
194
195
191
191
193
194
195
195
194
197
198
194
191
188
183
180
192
191
181
158
145
134
114
111
134
180
183
181
178
177
175
168
149
128
98
106
134
151
161
170
170
153
152
174
183
189
193
195
193
192
190
190
183
182
178
176
175
175
174
175
172
170
168
166
165
161
162
154
147
143
140
130
156
161
161
161
145
146
153
151
153
153
155
155
155
159
160
162
163
164
163
164
164
161
156
145
127
91
79
70
69
68
70
72
74
72
69
70
71
70
69
72
77
82
81
77
72
74
73
71
74
80
101
99
102
100
99
95
97
98
102
101
96
96
96
99
101
101
100
98
97
98
97
98
98
99
99
97
99
99
103
104
105
104
101
102
77
129
164
146
157
149
145
144
137
130
105
77
60
87
103
101
91
85
79
77
66
68
124
125
132
92
67
65
106
91
84
84
81
77
71
73
105
144
148
149
149
148
147
140
150
153
137
147
154
150
139
145
146
146
145
144
142
127
140
139
137
117
90
100
97
98
96
96
95
114
134
131
130
132
130
128
127
128
156
199
178
164
159
165
183
194
200
199
197
199
203
199
199
198
195
196
193
191
194
194
196
197
196
193
191
194
195
196
199
196
196
189
187
191
184
178
181
186
181
174
173
168
153
149
163
164
179
174
172
171
166
145
135
144
131
137
158
173
173
175
159
148
161
180
184
188
192
195
195
194
192
191
187
181
179
179
177
176
175
176
172
172
168
166
166
159
158
153
147
140
143
131
160
162
163
164
151
147
147
148
149
151
151
155
158
160
160
162
163
166
168
170
169
166
164
159
146
119
92
82
79
75
74
74
72
72
73
73
70
71
73
76
82
87
79
76
76
75
77
77
79
88
99
99
102
99
96
95
96
101
101
99
96
96
97
99
103
101
98
97
97
98
98
97
98
98
96
96
100
101
104
105
104
100
102
99
92
153
155
150
152
151
147
143
140
125
97
70
67
96
102
94
88
81
77
73
55
65
118
135
127
87
83
87
75
71
78
77
74
70
64
84
109
132
136
136
136
136
137
133
134
135
122
135
137
136
128
132
138
138
137
136
131
119
124
126
126
92
93
101
100
98
98
98
98
122
133
133
132
132
130
127
126
124
141
194
189
163
157
163
170
193
195
199
195
199
201
199
198
199
198
195
196
194
195
193
195
193
194
194
192
196
196
198
198
196
195
190
191
191
187
179
174
176
179
179
177
182
178
173
183
179
177
170
166
163
150
141
153
154
149
156
153
155
158
151
146
159
170
178
183
186
186
192
193
193
192
192
189
184
181
180
178
177
176
174
172
171
171
167
165
162
155
149
151
141
136
132
162
161
157
160
152
145
130
118
116
118
118
122
125
127
130
134
138
140
146
147
148
138
129
112
89
73
71
74
84
96
89
86
81
81
82
81
78
79
83
87
88
83
79
81
77
77
79
80
79
95
99
99
98
94
92
94
97
100
100
96
97
97
99
102
102
97
96
97
97
97
95
98
97
97
99
98
98
102
102
102
101
100
98
99
111
160
150
158
150
150
146
141
132
117
84
61
74
99
96
93
88
81
78
72
54
64
97
105
91
75
62
85
56
62
67
49
54
56
67
112
138
135
144
145
148
147
149
141
135
138
131
144
144
144
142
141
147
145
144
146
147
136
137
133
110
66
101
108
107
103
102
102
102
130
134
134
134
132
130
128
125
123
127
173
196
194
198
190
173
192
192
197
196
195
200
200
199
199
200
199
198
197
197
197
196
197
196
197
195
197
196
195
197
194
190
191
191
187
184
179
178
172
172
170
170
176
179
180
183
177
174
170
164
158
154
155
157
155
154
151
145
143
147
150
161
164
170
173
178
182
185
189
192
192
191
192
191
184
183
180
177
176
174
174
173
169
169
165
162
162
157
152
150
139
128
136
153
145
146
153
148
140
95
68
70
71
73
69
67
66
65
64
67
68
69
68
68
70
68
70
73
75
77
82
85
89
78
75
75
76
73
74
75
77
84
86
84
80
79
78
77
77
81
78
81
99
101
100
93
91
92
96
98
99
98
96
98
100
102
102
99
96
96
97
99
95
97
97
97
95
95
96
100
103
104
103
101
99
98
100
131
156
148
165
155
151
142
138
130
104
74
55
84
99
94
91
85
80
77
67
58
69
92
89
83
67
52
76
94
59
56
58
56
56
55
106
130
132
147
149
150
148
142
138
129
133
132
136
138
144
137
134
138
128
134
142
141
130
118
86
68
81
100
106
110
112
113
116
119
135
134
134
134
133
129
128
126
122
120
144
190
186
202
204
199
189
195
194
196
194
197
199
199
201
199
199
200
200
198
198
198
199
197
196
196
197
197
196
196
191
190
190
188
186
184
182
181
181
178
174
174
176
174
180
176
176
180
184
181
178
173
167
167
159
157
151
150
151
154
156
159
164
168
169
173
177
181
185
189
192
191
190
189
187
184
181
179
178
172
174
174
171
167
166
158
162
158
156
147
135
124
126
132
131
140
150
143
128
74
68
70
70
71
68
66
66
66
67
70
72
72
74
76
75
71
81
83
85
89
92
90
80
76
76
77
77
77
79
80
87
92
87
82
80
80
79
81
80
81
78
84
100
98
94
91
90
92
96
98
94
95
98
100
101
103
100
95
95
98
98
95
97
97
97
95
95
97
97
103
103
101
101
98
99
98
99
159
163
162
161
152
149
142
135
121
91
65
62
89
99
92
91
84
80
78
63
65
85
98
79
70
59
56
46
61
66
70
64
58
55
55
76
132
129
143
145
146
145
139
135
121
131
134
137
138
139
134
128
125
121
118
132
126
94
67
71
87
94
102
107
116
122
127
131
136
140
135
134
132
132
129
127
125
123
119
122
174
189
195
204
201
188
194
190
195
200
198
202
200
201
200
201
199
198
198
198
198
199
199
194
194
196
195
195
193
190
189
187
186
186
183
179
183
182
180
175
169
177
168
168
168
175
175
187
188
181
176
168
162
158
152
153
145
148
149
156
159
161
165
168
169
172
177
180
184
187
191
189
185
184
184
182
179
182
177
174
173
171
169
167
162
155
161
154
146
134
123
132
144
145
149
143
142
100
73
76
72
73
73
70
69
70
69
72
72
71
73
76
78
72
70
82
85
86
90
92
89
79
71
90
85
80
80
84
85
89
89
79
77
75
71
73
76
77
75
76
83
94
99
90
89
91
94
95
93
93
96
101
102
102
102
97
93
96
98
96
94
96
97
96
94
95
95
98
99
101
99
97
98
98
97
97
173
163
168
153
145
147
140
130
114
82
57
72
97
99
93
88
85
82
78
62
68
100
84
66
66
59
53
63
61
67
72
57
56
55
56
61
116
120
136
141
143
138
140
136
123
135
139
139
140
140
133
118
121
117
107
84
63
69
85
91
91
93
94
97
102
109
120
132
140
141
136
134
132
130
129
128
125
124
119
117
133
191
199
200
199
188
194
191
197
201
200
202
201
200
200
199
200
199
198
198
196
197
199
195
192
193
194
194
192
189
189
187
187
184
180
181
183
177
176
171
159
159
163
163
176
174
184
184
187
184
170
156
158
154
154
143
141
139
148
150
157
161
159
162
165
172
173
177
181
184
185
186
184
183
180
183
180
179
178
177
170
168
168
168
166
159
158
153
142
132
123
147
153
146
140
145
111
77
74
72
71
72
71
69
69
70
70
70
70
71
73
77
76
67
70
81
85
87
89
88
87
81
70
62
61
62
63
69
75
75
71
66
66
65
66
67
68
69
70
74
76
80
85
86
88
92
94
93
92
95
98
100
102
100
98
94
93
93
93
92
93
95
93
94
93
95
96
99
99
98
96
95
95
97
96
94
171
162
171
155
149
141
138
127
104
72
54
84
101
98
91
88
87
85
72
61
71
108
76
51
53
63
61
54
57
68
72
58
56
56
57
55
89
116
129
133
133
131
129
128
118
130
131
131
129
128
123
112
105
85
58
51
57
72
85
92
91
90
91
92
92
95
102
111
123
140
133
133
131
131
129
128
127
122
117
119
119
156
199
199
196
192
190
193
197
198
203
202
201
197
194
200
200
197
198
197
198
197
197
196
196
192
191
190
189
186
184
186
187
184
185
184
181
172
168
164
144
150
154
159
163
171
167
173
186
183
179
172
164
160
153
150
140
131
138
139
149
157
158
163
162
167
171
173
178
181
181
182
182
180
180
182
182
179
176
169
171
170
167
168
166
158
154
147
141
124
126
140
149
143
149
128
76
72
73
68
67
67
67
65
66
70
69
68
67
70
72
72
71
63
67
74
77
77
78
75
74
76
76
72
68
73
75
80
82
76
72
72
72
69
72
74
72
72
79
84
81
77
74
81
89
93
92
91
90
93
101
102
101
94
92
89
90
91
90
91
90
89
88
88
89
90
96
95
94
93
92
90
94
94
95
96
164
167
163
151
144
139
131
120
94
67
63
95
104
99
92
89
83
79
64
62
85
106
73
52
52
52
51
48
48
68
71
60
58
56
52
53
72
120
131
132
133
136
135
134
122
133
134
133
131
125
111
85
59
49
52
55
55
55
54
69
86
95
95
96
94
94
92
93
104
141
135
131
132
132
131
130
127
123
120
119
118
124
192
204
199
193
193
195
198
200
201
201
198
187
188
199
199
194
198
198
197
195
197
195
196
195
192
190
190
187
185
187
188
184
180
182
171
166
164
157
152
149
160
172
172
173
171
184
192
186
171
175
172
165
155
146
136
128
130
124
140
152
151
156
162
161
166
170
175
177
178
179
180
180
178
182
183
179
175
161
166
172
166
159
159
156
152
144
134
120
128
137
140
140
141
92
68
66
64
63
63
63
63
61
63
65
64
62
65
65
66
65
65
61
63
69
69
70
69
69
69
70
68
69
71
79
82
81
79
74
74
74
70
71
75
74
73
75
82
84
77
75
75
76
78
77
77
77
86
106
114
103
85
80
76
76
78
77
79
80
81
79
79
78
78
83
83
84
82
79
83
83
87
107
126
137
158
170
157
149
145
137
129
111
87
59
76
101
101
96
89
87
80
77
64
72
102
94
73
50
49
49
50
84
128
115
67
60
56
53
53
55
63
120
133
135
136
137
138
137
120
135
134
130
117
90
60
47
51
54
55
51
51
53
53
55
59
80
96
102
104
102
99
91
101
139
134
133
132
133
132
128
127
126
123
122
119
115
166
200
195
193
190
193
194
198
199
202
200
199
199
200
201
201
201
197
197
198
200
198
197
195
191
189
191
189
186
185
184
173
174
169
164
158
164
152
169
166
173
179
170
177
174
176
188
182
183
179
174
158
151
153
152
148
132
132
136
146
143
134
155
153
161
166
168
176
178
177
176
176
174
176
178
177
174
171
172
165
161
145
155
156
146
139
138
119
134
136
137
133
113
67
63
62
59
58
56
55
57
58
60
58
60
61
63
61
62
61
60
62
65
66
67
67
67
68
66
62
66
67
70
76
78
77
69
69
71
70
73
75
77
78
79
82
85
81
75
73
73
75
74
73
68
71
87
131
144
107
75
73
76
85
91
97
98
97
97
101
104
102
102
108
105
104
102
103
102
102
101
104
105
104
162
177
156
150
147
137
120
105
79
58
83
101
99
92
87
83
82
77
72
80
113
76
57
46
46
49
49
109
136
125
59
56
57
55
54
57
60
119
132
135
137
137
137
135
121
132
122
94
62
48
50
52
53
52
54
52
53
53
56
59
64
71
77
97
109
110
111
100
109
139
134
133
132
133
134
131
128
126
123
120
119
118
120
172
187
182
188
195
196
193
195
201
203
199
203
201
202
202
198
199
197
198
200
198
196
194
189
191
192
185
181
181
177
178
166
166
161
157
164
167
177
176
175
166
165
170
168
164
170
166
168
167
163
160
154
149
155
147
135
131
147
155
141
126
134
155
149
169
174
174
173
178
173
171
172
173
171
174
174
172
165
156
158
156
154
154
144
135
137
122
141
138
133
116
73
72
69
70
68
68
69
70
71
72
73
74
75
75
78
79
80
81
85
85
88
89
92
94
95
96
95
95
95
100
104
113
113
111
112
113
109
111
114
113
113
114
116
116
114
107
103
107
108
106
103
97
94
103
96
116
130
91
85
97
114
122
112
105
99
94
93
93
97
95
99
98
98
94
91
94
95
94
93
88
90
89
173
161
152
144
141
141
121
98
73
61
93
100
96
90
88
87
85
74
73
86
107
70
48
46
49
47
52
126
131
121
58
58
59
55
57
57
57
113
131
132
136
135
135
132
115
96
61
48
49
51
52
53
53
52
52
54
55
58
64
69
73
77
79
81
96
113
117
113
109
137
132
133
132
134
133
131
128
126
124
120
118
115
113
113
123
130
187
191
193
195
199
202
201
199
203
204
202
202
200
200
197
201
198
198
196
193
193
188
193
178
179
179
182
175
163
171
167
169
178
178
179
186
183
179
183
175
170
165
160
159
163
171
173
169
167
166
165
160
158
159
154
154
148
140
132
139
153
158
175
171
170
172
174
169
170
171
173
169
161
165
158
145
152
157
158
149
142
138
126
123
149
145
132
102
101
103
102
102
101
102
101
102
101
102
101
103
105
105
104
102
102
103
105
107
104
102
105
104
102
101
101
102
102
104
108
107
104
99
101
101
98
99
101
98
95
98
103
104
97
91
89
96
100
95
89
93
99
107
103
104
101
89
85
93
99
98
90
90
93
89
87
88
92
98
98
97
94
89
89
91
94
91
92
88
91
89
181
157
152
146
139
131
112
90
63
67
96
99
96
92
90
87
82
64
69
97
94
71
49
47
47
44
68
126
123
109
58
57
59
58
59
57
56
106
124
128
130
129
118
93
65
49
49
53
54
55
53
51
54
54
57
61
66
68
73
78
84
86
84
88
82
90
112
113
118
135
133
133
133
134
133
130
128
125
123
121
118
117
115
112
112
109
182
188
192
197
201
201
200
204
204
204
204
203
199
200
199
199
196
196
192
193
187
182
180
175
176
182
189
181
180
177
180
183
183
187
182
177
177
178
177
179
177
178
180
174
165
162
158
157
156
156
158
161
165
163
166
162
155
150
142
137
152
162
157
164
171
165
168
166
166
167
170
169
158
162
160
155
152
155
159
146
138
131
124
125
135
126
100
88
89
90
87
87
87
87
88
91
92
91
93
92
94
91
91
92
92
95
95
94
95
94
94
93
93
91
91
92
96
101
101
96
90
93
91
92
93
95
93
92
95
97
97
99
94
91
95
97
95
87
88
89
102
104
101
97
91
89
89
90
89
94
93
88
92
92
91
90
93
98
100
99
96
92
91
92
95
95
93
90
92
91
180
163
150
144
136
125
108
81
54
81
102
103
97
92
88
83
72
61
70
101
80
63
45
43
44
49
98
125
122
109
60
61
59
59
57
55
56
105
127
130
114
92
66
51
48
51
52
54
51
52
53
57
58
63
65
71
76
80
79
83
87
87
89
83
71
60
64
79
95
134
130
133
134
135
133
130
128
124
124
121
119
117
114
111
111
111
173
187
194
196
199
197
198
201
204
204
204
202
199
200
198
199
197
189
188
188
173
177
170
164
171
182
188
188
205
203
194
189
182
176
172
169
171
171
168
167
165
166
165
161
157
156
152
150
145
151
148
149
151
151
155
158
159
159
153
146
145
156
154
159
169
173
167
165
158
163
167
170
165
165
158
154
152
151
159
142
131
129
126
116
86
88
85
86
85
83
84
83
83
84
86
88
85
86
90
91
91
87
87
90
90
92
93
90
90
89
91
90
90
88
88
91
99
100
95
90
89
88
88
92
91
95
92
91
94
95
91
94
93
92
98
97
94
89
92
96
104
105
94
96
90
90
88
89
87
92
96
90
94
92
91
94
93
100
98
97
95
92
93
91
95
96
92
94
94
90
167
159
150
144
132
122
100
76
64
92
106
102
93
89
83
80
69
68
76
104
68
51
42
41
43
51
122
133
133
105
61
60
59
58
59
59
55
113
119
97
66
50
47
48
52
53
52
53
52
55
58
60
64
69
77
79
82
82
82
83
84
82
86
71
57
50
50
50
68
135
131
133
135
136
134
132
129
128
127
124
118
117
114
112
113
111
156
191
194
189
196
196
187
201
205
205
204
201
203
195
189
199
200
179
182
176
178
168
168
176
179
186
197
199
191
180
174
170
168
161
159
156
152
155
154
156
160
153
153
149
145
145
145
144
144
141
137
134
135
140
142
144
143
149
156
150
154
153
157
162
165
168
175
170
162
159
165
167
167
163
151
146
150
150
148
138
131
129
129
106
86
87
82
81
81
81
80
80
81
83
83
84
83
87
87
88
86
85
88
88
88
89
88
88
87
87
86
87
86
88
88
95
98
94
90
88
86
86
88
91
91
94
91
93
101
95
89
89
91
93
98
96
92
93
97
104
101
104
94
90
90
92
91
88
88
90
93
89
90
93
91
95
93
99
95
94
94
92
93
92
92
92
91
92
91
91
157
152
145
146
134
121
95
72
73
98
102
95
89
87
83
80
63
66
84
92
66
45
43
43
46
70
131
133
133
97
58
57
59
60
59
55
50
86
67
50
47
48
49
52
51
52
51
52
56
59
63
69
76
78
80
83
82
79
78
74
74
80
80
60
51
49
48
50
77
138
130
136
136
136
134
134
133
130
123
121
119
117
117
114
111
112
139
194
197
198
195
202
197
201
202
203
202
200
203
198
199
202
198
188
170
177
177
174
175
171
169
177
183
170
165
161
156
154
150
149
148
145
144
145
146
145
147
149
150
148
146
146
153
156
156
172
172
168
152
158
137
129
129
131
134
135
138
148
166
175
167
172
176
169
171
155
161
162
162
162
152
146
147
151
148
133
137
132
131
96
85
86
80
78
79
77
79
82
82
81
82
82
84
85
85
83
83
86
88
88
88
86
85
86
85
85
85
85
85
87
93
94
95
89
88
87
86
85
87
89
90
92
95
97
95
91
91
91
95
94
95
95
92
94
97
105
101
97
91
89
89
90
92
90
93
92
92
90
90
92
92
95
96
93
92
92
91
94
93
93
90
90
91
91
90
92
159
150
144
144
134
113
87
65
78
98
98
92
90
86
81
72
58
65
91
79
61
43
46
44
49
95
132
135
132
87
63
59
60
58
56
57
50
45
45
46
49
50
50
50
52
52
54
56
65
68
77
81
81
82
82
80
78
72
68
63
64
71
67
50
48
49
50
56
65
133
130
132
135
138
137
136
132
127
126
121
117
116
114
113
112
112
119
193
195
197
200
202
205
206
194
199
201
201
203
202
203
204
197
194
182
182
177
171
165
139
131
135
134
141
138
140
160
162
178
178
190
201
196
216
224
234
226
210
195
209
216
221
217
215
194
214
199
194
185
221
186
141
127
113
98
109
116
128
157
175
171
177
173
170
167
161
158
155
157
153
145
144
148
151
140
138
135
135
129
89
82
82
75
77
77
75
80
80
81
81
82
83
84
84
81
82
84
86
88
86
85
85
85
87
85
84
83
83
86
91
94
92
88
86
86
85
83
83
87
89
88
91
102
98
92
89
91
92
96
95
92
93
91
96
101
105
99
93
91
88
88
89
91
89
92
93
89
90
91
94
94
95
96
94
91
93
94
93
92
91
90
91
91
90
89
89
156
150
144
140
129
102
75
58
83
99
97
93
89
85
77
66
60
66
95
72
56
44
46
47
50
114
128
124
126
78
60
58
57
57
56
56
49
45
50
51
52
51
53
51
54
56
62
65
74
78
82
83
85
81
76
74
69
62
56
55
53
56
53
48
49
50
47
49
54
132
133
137
138
137
137
136
131
129
125
122
118
118
116
114
114
116
113
180
197
200
194
201
201
202
198
201
201
196
201
202
202
205
196
191
185
186
178
168
157
127
124
125
115
123
140
186
203
162
205
211
218
219
206
230
243
243
225
219
207
226
237
227
228
220
192
216
199
193
158
198
180
141
120
103
112
117
127
136
159
170
182
181
178
168
167
167
158
155
157
151
147
151
149
152
140
138
134
133
123
83
82
79
75
75
75
76
79
79
79
81
82
84
83
81
80
82
83
86
85
83
85
84
84
84
83
82
84
85
88
94
93
89
85
85
82
81
82
87
88
87
87
90
98
96
89
88
91
92
94
95
90
92
93
103
103
101
94
89
89
89
87
88
89
91
91
91
89
89
90
92
96
93
94
93
92
91
93
92
89
89
90
91
89
88
89
88
157
147
140
136
123
93
69
63
91
100
95
89
84
78
74
58
64
78
96
67
49
46
45
47
65
122
119
120
124
73
59
56
55
57
54
54
49
49
52
53
50
51
54
53
60
65
73
77
83
85
86
84
81
75
67
62
54
52
47
48
45
51
47
48
48
48
46
49
53
127
136
135
136
138
137
133
132
130
126
123
119
117
118
117
115
115
116
161
195
197
199
200
202
202
204
200
198
199
203
205
206
203
196
192
188
183
158
164
166
161
156
147
144
143
140
149
144
142
171
196
180
206
229
211
206
205
211
205
187
211
220
208
211
194
171
162
190
152
131
128
126
121
122
125
125
135
152
159
173
179
180
181
184
171
165
163
160
151
152
151
152
150
153
148
139
136
138
137
110
78
80
80
73
75
75
76
78
79
79
81
81
81
79
79
81
83
82
84
84
82
84
85
85
82
81
83
81
86
91
92
91
87
86
83
82
85
86
89
87
86
90
90
95
91
90
90
93
92
92
91
87
94
104
105
102
96
90
89
89
87
87
86
88
89
89
88
88
91
89
95
96
94
92
92
90
91
92
90
90
88
88
89
88
89
88
90
153
146
140
135
115
86
63
73
97
97
92
86
80
76
72
58
64
96
89
66
46
46
44
46
89
134
124
126
123
64
55
58
56
55
54
54
50
52
51
51
49
53
57
61
66
75
81
83
85
84
83
79
70
61
56
53
49
43
44
41
44
47
48
49
47
45
44
51
52
117
135
134
135
137
135
131
131
128
125
122
120
120
119
118
118
117
117
136
193
197
198
200
202
203
200
202
199
201
200
205
205
202
202
196
191
184
184
184
182
179
182
181
170
163
160
161
155
153
154
153
151
152
158
181
160
163
172
166
162
172
169
158
156
153
144
145
138
134
131
133
133
127
126
128
136
154
164
168
172
181
185
185
180
175
168
162
162
151
145
156
155
152
151
147
139
135
136
131
95
80
82
78
74
73
75
77
77
76
79
82
80
78
79
77
79
83
81
81
82
82
82
84
83
80
82
82
85
91
92
89
86
84
85
83
83
87
89
90
87
89
91
89
88
88
89
91
93
92
90
90
88
98
103
104
95
91
88
88
88
88
88
87
89
88
87
89
89
89
93
95
96
92
90
92
90
90
90
87
88
87
86
87
89
86
89
88
148
143
141
130
108
79
57
79
95
92
90
86
82
76
67
62
70
112
74
60
44
41
45
46
110
131
119
98
92
58
58
58
57
53
53
54
48
51
51
54
54
59
65
72
77
77
80
79
78
76
72
61
55
53
48
46
44
43
40
43
46
47
46
49
48
42
46
53
56
94
136
130
133
135
137
132
130
127
124
123
123
121
119
119
118
114
116
117
182
196
196
198
200
203
198
198
201
201
201
205
201
203
201
199
192
188
189
189
188
189
188
194
191
185
175
175
171
164
165
158
157
154
153
153
151
147
148
150
152
152
154
156
157
158
154
153
153
142
137
132
133
129
132
141
150
151
159
168
176
181
184
185
179
170
170
163
160
152
153
158
152
156
150
143
140
138
136
124
81
77
81
77
74
74
73
75
76
76
78
78
77
76
78
78
77
78
80
80
79
81
82
79
80
79
82
85
92
91
90
83
84
84
79
80
85
88
88
86
88
90
90
88
85
85
90
93
90
91
85
91
91
101
104
99
93
92
86
87
89
87
86
87
88
88
86
90
90
91
91
94
94
92
90
91
89
89
90
86
86
86
87
86
88
86
87
87
144
139
136
125
97
71
58
86
96
94
91
86
82
77
62
64
79
109
66
47
43
44
42
56
119
104
70
49
82
56
57
56
55
55
56
54
50
51
54
57
62
68
75
78
78
76
76
75
68
63
58
53
47
46
42
40
41
43
47
47
44
43
48
47
44
41
48
51
52
59
125
128
130
134
134
133
128
126
121
118
115
114
112
112
108
109
113
109
151
192
198
198
199
200
201
199
197
198
200
198
201
200
200
198
195
195
193
192
189
189
190
187
194
194
193
188
182
173
170
170
162
162
163
165
160
160
158
157
158
158
157
160
161
162
151
154
152
147
141
138
138
142
150
150
152
149
152
167
176
179
180
181
178
176
169
160
156
154
151
152
152
152
148
142
139
135
132
106
73
75
77
73
72
73
74
73
76
77
76
77
74
75
76
78
79
78
79
78
78
81
79
78
80
80
81
87
93
91
86
83
84
83
79
84
86
87
86
86
90
91
89
86
85
86
89
93
90
88
87
93
99
104
103
95
89
87
85
86
87
88
87
86
86
86
87
88
90
91
93
94
92
91
89
91
89
90
86
85
87
85
84
85
88
88
85
86
144
137
126
115
89
61
68
94
96
95
90
86
78
74
56
65
92
96
61
42
41
40
40
62
72
49
40
41
83
54
55
57
56
55
54
51
50
55
59
65
70
73
76
76
76
72
67
65
59
55
49
45
43
41
42
43
44
49
48
42
42
44
48
48
46
45
50
49
51
50
92
133
124
122
124
120
116
114
113
108
108
107
108
106
108
108
106
104
111
188
192
193
198
199
201
200
200
200
199
198
192
198
200
196
197
195
194
196
195
192
190
190
192
194
194
192
193
188
181
176
169
168
168
172
174
172
168
163
164
163
163
165
166
165
160
157
152
147
151
151
152
153
154
152
153
149
151
165
173
177
181
180
177
174
169
160
155
153
149
151
150
149
146
141
138
134
126
84
74
74
72
70
71
72
72
73
74
74
75
73
72
75
75
76
77
76
77
77
78
78
80
78
80
82
84
88
91
87
83
84
83
81
82
85
88
84
84
87
90
90
83
84
84
86
91
91
86
88
88
98
99
103
98
91
89
86
89
85
87
86
87
86
85
84
86
89
92
91
93
91
87
89
86
88
86
86
83
82
86
83
84
83
86
83
85
84
140
135
126
109
82
57
81
97
95
92
87
82
74
67
56
67
99
76
58
40
39
40
40
43
34
35
41
46
83
53
54
56
59
56
56
53
51
61
67
72
74
75
76
76
69
65
61
56
53
47
44
41
41
42
45
43
54
52
42
41
42
46
49
48
46
43
47
48
49
53
51
100
117
108
107
100
96
96
97
98
99
99
100
101
100
100
101
104
104
154
194
194
197
199
198
199
199
200
199
197
198
196
200
199
199
195
197
197
197
195
191
191
190
189
191
192
194
192
191
189
185
179
177
177
177
180
177
171
170
172
168
167
163
164
166
161
160
163
163
161
158
157
157
154
154
154
161
164
172
175
175
176
173
170
166
152
152
147
151
150
150
150
141
139
136
133
109
64
63
67
71
73
72
71
72
74
75
74
73
71
74
75
75
75
75
76
77
78
79
78
79
78
79
83
88
90
86
83
83
82
80
81
85
89
85
83
87
89
89
85
83
83
83
88
89
90
85
88
93
101
103
98
93
88
84
85
85
86
88
88
86
83
84
86
88
90
90
92
91
88
88
87
85
85
84
85
81
83
84
82
86
85
86
85
87
84
143
137
124
99
74
57
86
96
94
91
87
82
75
68
58
79
86
61
47
36
38
38
37
34
39
46
48
52
85
54
58
58
61
58
55
53
51
70
70
74
73
72
70
67
63
58
54
49
45
42
42
43
46
44
41
40
55
50
40
39
45
51
50
49
42
46
50
63
84
100
110
119
120
112
82
96
90
84
85
95
93
91
88
87
84
87
94
93
93
110
188
190
196
197
199
200
200
199
193
192
196
197
198
199
198
200
196
197
198
197
193
191
192
190
192
193
192
190
190
191
189
186
187
185
181
179
175
175
172
170
168
171
169
170
170
173
174
173
169
165
161
158
159
157
156
161
164
164
169
174
175
174
167
164
155
150
146
152
147
148
149
145
141
138
131
123
82
68
68
71
75
75
79
82
84
84
82
77
73
73
73
74
74
73
75
76
77
77
77
76
77
79
80
85
89
87
83
80
80
78
81
82
88
88
84
86
88
88
85
83
81
84
86
87
85
85
87
94
99
100
99
94
90
87
83
84
86
85
88
89
87
86
88
85
87
88
91
88
89
88
84
84
83
83
82
82
83
82
80
80
81
85
85
85
87
90
141
135
126
96
69
65
92
96
93
88
86
79
73
66
61
77
57
58
39
37
36
38
40
45
48
50
50
56
84
56
57
59
62
56
54
51
52
72
73
74
70
66
64
61
56
50
48
43
41
41
44
46
42
40
41
43
54
49
39
42
45
48
54
77
101
117
129
135
131
132
129
128
126
109
97
114
113
111
110
116
113
107
97
106
104
103
101
103
103
121
191
185
192
194
197
198
198
200
198
195
195
198
199
200
200
196
197
196
197
198
193
192
194
193
193
194
194
189
191
188
187
186
186
185
186
183
182
182
180
180
177
178
179
178
177
174
174
168
167
167
162
161
162
161
162
162
163
163
167
170
172
171
167
160
154
146
142
152
141
147
147
145
139
133
124
100
71
72
72
74
71
71
75
78
80
76
77
80
84
87
86
85
80
73
74
77
75
76
76
76
78
80
85
89
88
82
80
79
78
78
81
84
87
83
83
87
88
86
82
84
82
82
86
86
82
85
89
97
102
101
92
90
87
87
84
86
86
86
87
87
83
84
85
84
87
91
87
88
84
84
82
81
83
83
83
83
82
83
80
81
83
80
82
82
87
90
137
131
113
87
62
74
94
96
90
87
81
79
71
66
62
58
53
54
35
34
36
36
45
48
48
50
47
60
79
56
60
59
63
61
56
51
54
72
70
67
62
60
59
51
51
47
44
41
42
47
41
40
41
42
42
41
57
50
43
56
88
113
130
136
135
132
130
127
127
125
124
122
120
100
108
111
110
110
111
111
114
107
111
112
104
112
109
110
111
138
198
188
186
192
195
196
198
198
198
198
195
199
201
201
199
198
198
198
198
197
196
192
194
194
194
194
192
194
194
189
189
189
188
185
181
182
177
174
176
178
174
178
176
178
176
175
175
172
173
171
165
166
163
163
163
161
163
163
167
165
167
166
164
155
150
146
152
148
148
149
146
142
135
125
112
76
74
73
73
73
73
75
75
78
76
75
77
78
80
82
82
85
88
89
89
83
75
75
76
79
79
83
89
91
82
79
79
78
76
78
82
82
83
81
85
88
87
83
83
82
80
85
85
80
78
85
96
103
105
98
86
87
84
85
84
85
87
85
88
87
80
85
87
87
89
89
86
85
83
83
81
83
81
81
82
81
81
82
79
81
81
81
82
83
91
87
132
123
101
76
56
80
95
93
90
84
81
77
70
64
59
54
52
45
33
35
38
40
49
48
48
47
47
64
75
57
61
60
61
61
55
52
55
69
63
62
60
55
51
47
45
45
41
46
45
40
39
41
39
40
38
45
64
96
119
135
137
132
128
125
125
126
124
121
121
117
120
119
123
118
114
121
113
111
109
117
111
112
121
107
110
115
110
111
113
148
197
198
185
184
190
186
195
199
197
196
193
200
201
201
202
200
198
198
200
196
197
194
194
195
195
196
195
193
192
192
193
191
190
186
186
185
180
173
172
169
160
169
176
182
181
179
177
175
175
173
165
167
167
164
163
161
162
162
162
162
160
158
159
156
149
142
153
149
144
147
142
135
127
114
85
75
79
82
82
79
81
81
82
79
76
75
80
80
81
82
85
84
85
86
88
93
92
87
81
78
79
84
87
83
79
80
79
75
78
83
83
81
81
82
88
89
83
80
83
80
83
85
84
81
82
86
98
102
100
93
85
83
84
87
88
84
87
86
83
84
82
83
85
84
89
89
86
83
82
80
83
80
82
79
83
81
78
81
80
81
81
81
80
83
88
87
127
117
94
68
59
84
93
89
87
82
77
70
67
62
57
50
50
37
36
34
36
45
50
46
46
46
48
72
64
55
60
59
61
60
55
53
53
62
59
57
51
50
47
46
42
46
46
41
40
39
39
38
39
41
77
117
138
139
136
129
127
124
122
119
118
118
110
115
122
117
123
121
123
115
116
134
110
110
114
126
106
113
130
109
112
124
112
108
111
159
197
199
197
181
184
183
190
196
197
197
192
199
198
200
198
202
200
200
198
197
197
195
193
195
194
192
192
192
191
193
195
194
195
192
189
185
179
169
164
160
161
149
172
178
183
182
181
179
177
173
170
168
168
165
161
161
157
159
157
160
159
158
156
152
147
141
156
149
144
142
135
127
113
89
74
74
77
81
83
78
83
84
85
82
86
84
84
84
85
87
87
87
87
89
90
91
89
90
94
96
91
84
82
79
79
78
75
74
77
83
82
80
81
86
87
84
81
83
83
83
83
83
83
78
82
94
99
103
97
89
82
82
84
85
85
83
85
82
80
82
83
83
82
85
86
86
81
80
81
82
80
80
78
79
80
81
78
80
76
79
79
80
81
83
89
84
122
109
84
55
64
88
92
88
84
81
74
69
62
61
53
47
53
37
36
35
37
48
47
45
46
46
46
79
57
59
62
59
59
59
55
50
57
61
54
52
47
46
45
43
46
45
39
39
40
39
40
44
87
124
139
134
130
125
125
122
120
118
114
114
112
111
114
124
114
122
123
119
116
110
128
129
111
111
120
123
106
117
126
101
113
121
113
103
114
172
197
199
199
195
180
183
190
196
197
194
198
199
197
201
201
203
202
201
200
198
197
195
193
194
194
194
191
193
192
194
196
196
193
190
188
186
184
173
167
166
164
165
154
172
179
182
180
179
176
173
171
169
167
165
160
159
154
153
157
159
160
155
151
150
149
148
152
146
143
136
129
113
100
82
80
80
81
83
85
79
84
81
81
78
79
88
86
89
89
95
89
91
89
91
89
91
91
91
95
100
103
100
88
77
78
76
72
76
79
81
81
81
83
86
82
80
80
81
83
82
84
81
80
82
89
99
101
99
91
85
82
83
84
84
84
84
85
81
82
82
82
84
85
87
85
85
83
80
80
81
78
77
76
79
79
77
76
79
77
78
79
77
84
83
86
83
115
97
73
52
71
90
88
85
81
78
72
68
60
59
51
49
44
31
35
34
40
47
46
48
47
47
48
80
55
56
60
59
60
58
59
51
51
52
49
45
43
41
43
47
40
39
37
37
38
40
85
128
136
126
122
119
118
118
114
127
127
120
114
113
112
111
112
114
117
128
123
121
110
113
134
124
120
116
120
123
108
122
115
107
110
118
111
104
111
181
198
199
199
199
197
178
184
190
194
196
195
197
196
199
203
202
201
201
201
200
200
198
196
197
195
192
190
190
189
190
190
188
187
186
185
185
183
174
177
177
170
172
171
168
171
174
171
173
169
170
171
168
166
164
160
155
154
152
156
158
157
150
152
148
147
147
146
142
138
128
114
115
102
84
82
79
82
84
84
82
84
82
82
83
82
85
86
91
93
95
88
89
93
97
95
92
94
94
98
102
101
97
100
97
82
74
75
79
80
79
78
80
84
84
79
81
80
80
83
82
82
79
79
85
98
101
98
95
88
81
87
83
83
81
83
83
85
80
82
81
81
82
87
87
84
82
80
80
80
80
77
77
75
80
79
76
74
76
76
78
77
77
84
84
82
78
108
88
66
53
76
89
87
82
78
78
72
66
58
56
49
48
37
31
34
34
44
46
45
45
45
50
54
78
53
56
59
59
57
56
57
51
46
46
45
42
41
42
43
38
37
38
38
40
74
126
134
122
121
118
121
125
119
124
131
132
114
116
111
114
114
111
112
111
111
125
124
116
107
115
129
127
119
116
112
115
105
109
109
108
107
111
108
105
113
189
198
198
200
199
200
196
178
184
192
194
197
196
199
201
201
202
202
200
202
201
199
199
196
197
197
195
193
190
186
188
187
186
185
182
182
178
176
178
173
175
169
174
170
167
171
169
167
166
168
168
169
169
164
161
157
156
155
154
156
156
152
151
150
145
143
143
142
137
125
113
120
123
107
82
81
79
81
83
84
83
81
80
83
83
84
86
92
87
90
94
92
93
95
97
97
97
100
98
106
102
99
94
97
98
96
88
78
77
79
78
78
83
84
80
78
79
79
80
83
83
78
78
81
88
98
99
93
90
84
82
84
85
80
82
83
82
83
78
81
81
80
82
84
84
83
79
78
78
82
80
77
77
77
79
75
77
75
76
78
78
78
83
84
88
83
76
102
80
57
57
82
88
84
80
76
75
73
64
54
50
46
48
34
32
33
38
45
44
44
46
48
58
65
84
54
55
57
59
59
56
56
48
46
45
44
41
45
40
37
37
38
39
54
115
140
131
125
121
102
106
126
121
122
118
125
123
107
115
113
114
115
113
112
109
113
116
123
111
107
118
121
124
118
112
108
115
111
117
112
103
102
106
107
102
123
193
196
199
200
200
198
198
196
183
179
187
193
190
195
195
200
201
201
202
203
201
198
198
198
196
196
196
196
193
189
189
186
185
185
184
179
176
175
177
174
174
175
175
172
170
168
169
168
164
165
168
168
167
164
160
157
154
155
157
153
153
149
146
144
142
138
138
136
122
114
130
131
123
110
80
80
77
79
80
85
82
78
80
82
83
84
84
93
88
88
92
94
90
93
93
95
99
103
104
107
102
97
97
98
97
94
99
99
84
79
77
78
82
80
79
78
77
77
82
81
79
77
79
87
97
99
94
87
86
81
81
84
82
82
80
82
80
83
80
80
82
80
83
83
80
79
78
78
77
81
80
78
79
75
77
74
76
74
78
79
79
79
85
85
81
80
74
95
69
49
64
86
85
83
77
76
75
68
62
53
50
46
41
32
32
35
41
45
45
46
51
59
62
71
78
54
56
61
60
55
55
50
47
43
42
44
46
41
40
37
38
38
79
137
141
130
127
127
125
123
129
119
114
118
115
126
116
110
116
112
114
114
113
111
110
114
117
121
106
110
118
120
120
114
107
105
114
109
113
110
97
103
107
105
100
137
194
197
199
200
201
200
198
196
195
186
178
185
188
192
192
197
199
198
201
203
201
200
199
200
198
198
197
196
194
195
194
188
187
186
186
185
182
182
180
179
181
175
174
172
171
168
169
168
167
166
166
169
166
162
161
158
155
156
156
154
151
148
144
141
137
134
131
118
117
133
134
132
124
110
77
78
76
79
81
80
81
76
82
83
80
85
85
89
89
89
91
93
92
91
94
95
99
102
107
106
102
99
96
99
98
99
101
100
100
88
75
81
81
78
76
77
78
81
82
78
78
77
82
95
99
96
89
84
80
83
82
85
83
81
80
81
79
80
80
79
79
81
85
81
79
78
77
77
77
76
79
76
78
76
77
75
78
76
79
77
77
80
84
82
78
76
73
87
61
50
75
86
86
81
74
73
71
67
57
50
47
46
35
32
34
34
44
45
47
52
59
61
65
76
71
57
54
58
58
56
53
50
49
41
45
46
38
37
37
38
42
103
145
138
130
123
130
130
122
135
129
111
118
118
117
126
111
111
116
113
113
116
112
109
110
114
117
116
105
114
119
115
116
111
104
106
112
107
109
109
96
101
104
102
95
150
194
197
199
200
199
200
199
197
193
192
187
175
181
188
191
192
194
198
201
200
202
201
202
204
199
202
201
199
197
194
194
192
190
189
188
186
187
185
185
184
183
182
179
177
175
170
171
168
166
165
168
167
166
162
159
160
155
154
155
150
146
142
142
136
127
123
114
123
139
136
136
134
127
109
73
75
75
76
76
74
75
73
78
77
79
82
83
85
88
87
87
90
92
90
94
97
100
106
104
96
101
101
96
99
98
101
104
101
98
99
96
81
76
77
76
76
78
81
80
76
75
77
88
97
97
89
84
77
76
83
81
83
82
82
81
81
79
78
80
79
80
82
82
80
79
79
74
76
78
75
77
74
78
74
76
74
75
76
76
79
79
81
84
82
78
75
71
75
59
54
78
86
85
80
69
71
68
64
57
51
44
43
33
34
33
37
45
46
52
60
64
64
64
77
63
54
54
56
59
58
54
50
46
45
42
38
38
36
38
43
118
151
138
128
128
125
129
130
130
133
125
116
119
118
121
125
110
115
114
113
114
114
109
108
111
112
115
114
108
111
114
108
112
111
100
99
107
104
106
104
95
101
103
97
93
161
192
197
198
198
199
199
199
196
195
193
192
188
177
176
184
188
188
193
196
200
203
202
205
203
204
203
201
199
199
197
195
190
193
190
190
190
191
186
186
188
185
186
184
176
178
177
173
171
166
165
166
164
168
165
163
157
157
149
149
148
143
137
133
126
117
117
130
141
142
140
137
136
131
112
59
63
71
71
72
71
75
72
74
74
75
80
80
83
86
84
85
88
92
88
92
97
101
103
98
97
100
97
95
95
100
96
98
101
99
99
102
99
76
74
76
77
78
80
77
74
76
86
92
97
93
86
79
76
78
82
83
81
81
80
84
80
77
78
78
78
79
79
81
79
77
79
77
76
77
75
77
74
78
76
71
71
73
75
75
77
79
80
83
82
77
75
72
71
51
61
83
86
84
78
66
69
67
60
55
50
42
40
29
32
33
42
48
50
59
64
65
62
62
81
55
53
55
56
58
56
52
47
44
39
35
34
37
36
45
125
149
135
131
132
126
130
129
127
124
128
123
118
117
118
121
117
114
114
111
112
110
111
109
106
110
108
117
109
107
108
106
104
108
109
95
98
105
100
103
103
90
80
68
79
85
172
193
197
197
197
197
198
198
197
195
194
193
191
188
185
178
179
186
186
193
198
200
200
200
201
199
200
201
199
198
200
198
197
196
195
191
196
193
185
189
186
191
190
190
185
185
179
167
171
167
164
163
166
168
161
163
155
154
141
144
146
136
130
121
113
125
138
141
143
146
143
140
138
131
114
67
50
63
63
61
62
70
70
72
71
72
74
76
81
82
80
83
84
88
85
89
95
100
93
94
95
99
97
95
95
104
97
92
94
100
103
103
97
92
75
75
75
78
74
73
74
81
91
95
95
85
79
76
76
78
81
80
80
83
80
82
80
77
79
78
79
80
79
78
78
79
79
77
76
75
73
77
76
77
75
71
71
73
75
76
77
80
81
82
79
72
71
70
64
46
69
88
86
84
77
63
68
65
58
50
44
43
39
29
31
33
49
50
56
61
64
65
62
59
84
50
53
55
56
58
54
51
46
40
34
35
36
39
40
120
147
130
130
132
131
121
129
125
122
124
127
119
117
117
119
121
121
115
114
110
111
110
108
110
107
109
107
113
105
101
102
103
102
104
105
94
97
99
97
97
79
60
76
88
97
78
183
194
196
197
197
197
199
197
197
195
194
193
191
189
187
186
180
176
181
187
190
194
195
196
195
196
197
199
197
197
196
199
196
197
194
190
191
188
184
181
181
184
189
190
182
177
174
169
172
162
164
163
168
163
158
156
154
149
146
137
139
124
119
114
131
138
141
145
147
146
146
142
139
130
115
101
82
56
59
61
59
55
53
58
64
72
76
77
77
80
80
80
80
84
85
89
91
93
90
93
93
94
94
98
97
100
97
91
92
101
99
101
96
96
89
74
77
77
73
74
75
86
94
95
88
82
76
74
76
78
81
79
81
82
79
81
82
79
78
78
80
79
78
78
78
76
78
76
76
75
73
75
76
74
73
74
74
74
76
78
80
80
80
81
77
71
71
69
56
49
77
90
89
83
77
61
65
60
52
49
43
43
33
29
30
41
50
52
58
64
63
60
57
57
79
50
55
55
56
57
55
50
43
37
36
36
38
38
111
140
127
127
126
132
123
125
123
123
121
129
126
118
118
116
115
122
121
113
109
106
108
105
104
109
107
108
106
106
98
98
97
98
96
100
102
87
75
72
82
70
59
74
86
100
93
77
188
194
195
197
196
196
197
195
196
195
195
191
192
190
187
188
185
179
176
178
177
184
186
190
186
193
195
197
193
193
193
191
196
194
192
189
189
188
184
183
178
183
189
182
180
172
166
170
174
166
165
161
165
161
153
140
147
138
138
122
115
111
123
137
141
147
148
150
152
151
149
144
139
129
114
108
104
83
59
63
60
61
60
55
54
57
67
69
72
74
81
79
80
84
88
87
89
87
88
90
90
90
95
99
97
97
96
91
94
99
94
92
97
96
97
90
75
76
72
75
81
94
95
92
82
76
73
73
74
76
81
81
78
81
78
78
80
79
76
79
79
78
74
75
76
75
73
74
73
72
75
76
76
73
76
74
73
74
74
77
82
82
81
80
73
69
69
68
47
56
84
90
90
84
76
59
59
56
48
45
38
37
30
30
30
43
49
51
60
62
62
55
57
56
84
52
54
52
55
55
54
51
44
38
37
40
40
94
146
125
125
117
133
128
126
125
125
124
122
129
126
118
116
116
114
119
116
110
106
104
104
105
104
111
106
105
102
101
97
97
96
91
90
79
69
70
60
87
66
61
78
80
98
98
88
95
193
194
195
197
197
195
197
195
195
194
195
193
194
192
190
188
186
186
181
177
171
162
163
175
181
184
189
187
183
191
189
184
188
183
183
183
184
188
184
179
174
184
185
180
176
169
162
170
168
166
157
163
157
151
145
129
135
124
118
99
102
131
141
146
150
154
154
155
153
154
152
146
139
129
118
110
111
109
81
61
59
60
62
62
63
51
56
58
61
54
55
60
65
71
78
77
78
79
82
85
84
87
93
96
96
94
97
93
93
98
90
89
93
95
98
99
77
71
73
77
87
93
92
86
79
74
74
73
74
75
78
77
82
79
76
78
79
78
77
81
79
77
73
74
76
77
76
74
71
71
74
75
74
74
75
74
74
73
76
78
80
82
79
76
69
69
68
67
46
65
90
92
88
85
74
54
59
56
49
43
38
34
30
30
33
46
49
53
62
59
54
51
50
55
75
54
53
55
57
57
57
51
45
37
37
40
60
142
128
123
123
126
135
127
124
121
124
123
121
128
125
115
113
112
111
114
113
105
105
103
105
104
102
106
104
99
100
92
80
66
63
82
63
52
53
58
67
81
55
68
77
88
97
96
85
114
193
193
194
196
197
195
194
193
194
194
193
195
192
193
191
190
186
188
185
185
180
169
149
151
168
169
170
171
174
183
179
177
182
179
179
181
177
182
181
177
176
182
182
178
172
167
167
158
167
162
146
142
151
131
117
113
102
108
101
109
132
143
152
153
157
154
157
157
156
156
152
148
139
130
120
108
113
115
107
67
60
64
66
61
62
62
54
57
60
61
59
63
61
65
66
64
59
58
61
62
65
77
87
94
91
86
89
94
93
95
91
88
92
95
96
95
87
70
71
84
93
95
88
79
74
73
74
75
76
74
79
80
75
74
75
80
79
78
78
81
77
73
74
74
75
75
75
71
69
71
73
74
73
73
73
73
74
73
77
79
79
78
77
74
69
69
69
64
46
74
94
92
89
87
73
52
56
51
48
39
39
32
30
30
36
47
49
58
62
54
48
46
46
60
70
54
55
53
55
55
54
53
48
39
35
37
122
133
126
124
121
134
134
123
122
122
122
120
122
124
120
112
111
106
109
111
109
102
103
102
104
102
100
101
93
77
61
54
49
49
91
78
49
49
54
67
84
71
55
74
80
88
96
97
82
129
190
193
193
195
194
195
195
195
195
194
195
192
194
194
192
192
191
191
189
184
183
183
178
167
161
152
144
149
150
155
167
166
166
170
173
175
171
173
171
170
165
166
167
169
164
160
161
140
162
152
117
115
118
102
91
89
97
110
123
138
150
156
156
159
158
160
162
161
159
154
152
146
140
132
120
105
114
120
117
95
62
64
64
61
60
62
57
54
54
62
60
62
70
70
68
62
58
60
59
59
62
64
66
68
71
74
84
91
93
92
89
85
87
94
92
89
92
85
78
89
94
90
84
79
73
71
72
74
73
74
80
80
77
76
76
76
77
76
78
76
74
74
73
73
71
74
73
69
72
72
74
74
72
71
71
73
74
72
75
77
80
79
75
70
70
69
67
66
51
84
94
91
86
82
72
52
52
48
42
39
37
31
33
33
41
47
47
62
62
52
43
42
42
69
66
56
54
54
59
58
56
52
42
35
35
84
139
126
126
122
134
135
130
122
122
121
121
117
118
122
115
108
104
107
109
108
106
102
102
101
102
100
100
86
63
54
46
46
45
62
85
66
46
45
65
77
77
72
57
75
78
88
97
95
76
139
189
191
191
193
194
194
195
195
194
195
194
193
193
192
192
192
192
193
190
185
187
187
188
183
177
165
163
146
132
123
131
130
137
141
143
157
159
160
157
157
165
160
155
156
153
151
144
123
127
116
91
86
93
97
93
101
127
133
141
152
155
159
159
162
163
162
164
160
157
154
152
148
141
132
121
105
113
123
122
103
68
61
59
61
61
63
62
53
60
59
60
64
64
67
66
64
57
53
56
57
62
65
63
63
62
69
72
68
66
74
78
83
88
91
90
86
87
93
92
93
92
84
78
74
71
74
74
74
75
74
80
77
75
72
76
76
78
76
76
74
70
72
73
73
71
72
72
70
71
71
74
71
71
71
69
71
73
73
75
78
77
76
71
68
67
67
67
66
62
91
96
91
86
84
75
48
48
40
40
37
36
30
29
33
37
43
52
63
59
48
40
40
37
73
63
57
54
54
57
57
55
48
38
35
42
132
136
129
125
122
133
133
127
122
122
120
119
113
116
117
109
104
102
99
107
106
105
102
102
101
101
95
77
61
58
53
49
45
42
57
81
59
43
47
69
79
75
79
58
74
82
87
91
92
79
134
190
190
190
193
194
193
193
193
192
194
193
193
193
193
193
193
192
193
192
190
187
189
189
188
188
185
183
179
163
157
143
131
124
119
113
119
112
121
130
125
134
138
134
122
116
106
103
93
86
89
90
103
114
114
121
133
139
141
148
157
159
160
162
165
165
166
163
160
157
156
153
146
138
131
123
106
114
123
122
107
66
63
60
61
61
63
58
55
60
59
64
69
66
62
66
66
58
51
54
59
64
62
61
63
65
71
72
69
67
65
66
68
71
76
80
85
86
98
103
94
86
81
75
71
71
71
73
73
74
74
75
74
73
73
73
75
77
76
75
75
69
73
73
72
72
71
72
70
70
71
69
73
69
73
71
72
70
71
76
79
76
72
68
66
66
65
67
66
72
93
96
90
87
82
77
47
42
37
38
37
34
30
29
34
37
47
61
58
50
42
39
38
38
74
60
58
57
53
56
54
52
48
37
35
98
140
127
123
111
125
123
128
124
120
119
120
115
109
113
113
106
103
101
100
105
102
96
100
100
83
73
67
61
61
62
58
49
44
47
51
80
55
43
46
68
79
74
70
63
74
82
85
86
90
79
114
189
189
190
192
193
194
192
193
192
192
193
192
193
194
192
191
191
192
192
189
192
190
189
189
190
189
188
187
181
179
176
167
153
148
140
130
120
124
123
118
98
103
105
110
101
105
100
106
103
114
124
132
132
132
132
136
143
148
153
157
161
162
167
170
169
166
163
161
157
154
153
148
139
132
121
107
112
120
117
103
63
60
58
59
63
60
57
55
60
63
67
70
64
69
69
67
55
53
58
64
70
69
64
66
71
74
72
65
66
62
64
65
66
62
58
63
75
91
100
99
80
76
72
72
71
72
72
71
72
73
76
76
74
72
74
75
76
77
77
71
68
71
71
71
70
69
70
71
70
70
67
71
72
71
70
69
70
77
78
76
73
72
66
64
68
64
66
64
86
97
94
88
88
85
80
47
39
37
34
34
30
31
30
35
49
46
58
54
44
41
37
36
37
79
63
63
58
55
52
49
49
46
37
44
133
129
121
120
121
123
122
124
119
116
115
114
109
105
110
110
104
100
100
90
82
72
98
93
76
71
65
61
61
60
68
75
59
42
42
49
80
56
42
45
63
76
80
78
66
68
74
79
84
89
83
87
183
187
189
189
191
192
193
193
193
190
191
192
192
193
192
191
191
191
190
191
189
190
191
191
186
188
187
186
187
184
178
176
172
162
158
151
149
146
137
133
126
122
123
123
126
129
137
135
132
133
137
136
132
134
140
139
149
155
158
160
164
168
169
168
168
166
162
161
157
155
153
145
138
132
122
107
112
118
112
95
64
60
58
59
62
60
52
57
62
68
68
67
68
66
65
57
57
58
64
66
64
61
61
71
75
68
67
67
67
62
62
64
61
58
56
59
76
83
83
80
74
71
71
73
72
71
71
71
73
72
72
78
73
72
72
76
75
75
74
73
69
70
71
72
71
69
69
69
70
69
68
68
69
69
68
69
73
77
78
74
73
69
68
67
65
64
65
65
91
98
94
87
87
86
81
50
36
33
32
32
29
28
29
37
44
53
56
48
41
38
35
35
42
81
68
62
58
53
48
48
47
46
41
85
137
124
117
115
122
124
121
121
115
112
111
109
107
102
105
97
89
80
71
68
70
89
97
86
68
58
57
58
62
64
69
82
72
49
41
54
82
56
45
49
60
73
80
84
70
56
72
77
83
83
88
69
165
188
188
188
190
193
192
192
192
190
192
191
190
192
191
192
192
191
190
190
188
190
189
189
187
186
184
184
186
182
179
178
175
172
170
168
164
160
154
153
153
149
142
149
145
146
144
144
146
139
138
134
135
133
138
147
154
156
161
170
170
170
167
169
167
165
161
160
157
155
151
144
138
132
122
107
111
115
109
82
64
57
54
59
63
61
54
63
67
70
69
67
68
64
59
55
57
61
65
63
63
69
75
79
76
67
61
64
66
65
65
61
58
57
57
64
79
81
76
71
68
61
64
68
71
69
70
70
70
69
69
73
73
73
71
75
76
73
72
70
69
71
70
69
69
65
68
69
68
67
66
68
68
67
69
67
75
78
77
74
69
68
65
64
64
64
62
64
94
96
94
90
90
89
83
53
33
30
31
32
31
30
30
35
45
56
52
41
38
36
35
36
49
78
64
61
57
50
47
50
48
44
40
118
125
120
111
113
116
121
120
118
112
110
105
98
93
83
70
69
68
67
68
65
77
104
94
78
55
52
53
59
60
63
68
79
77
64
53
60
78
52
43
45
60
76
78
84
72
55
69
74
79
84
88
71
124
187
188
189
190
192
192
191
191
191
192
193
190
191
192
193
195
193
192
191
190
190
191
190
187
186
186
184
182
181
181
176
175
174
173
170
168
170
167
165
157
159
158
158
152
153
154
150
142
136
139
133
137
139
145
154
157
161
168
172
171
169
171
169
168
163
162
161
157
153
149
144
137
132
122
108
107
108
104
66
65
56
54
59
60
56
57
67
66
70
66
67
65
65
57
60
62
63
62
62
66
72
76
76
69
62
59
66
63
65
66
61
56
56
60
72
81
81
79
69
64
61
63
65
64
62
66
69
70
67
70
76
73
71
71
76
75
70
69
70
67
69
68
68
69
67
68
71
68
67
66
66
68
67
68
73
77
79
77
72
66
62
63
63
64
60
61
65
95
96
93
92
92
92
87
56
34
30
33
30
28
31
33
42
57
54
46
40
37
38
36
38
59
71
64
60
55
57
48
48
46
39
72
128
121
115
114
118
110
122
118
110
100
91
79
66
67
61
66
67
67
66
65
67
98
83
96
67
52
48
52
56
60
63
68
75
79
73
64
77
75
54
45
50
63
68
69
76
77
59
63
71
79
83
81
79
74
172
188
188
190
191
192
190
191
191
193
193
191
192
193
194
193
193
193
191
190
191
189
189
187
186
185
184
181
180
176
175
176
175
170
171
170
168
168
169
165
162
157
155
154
157
152
146
141
142
141
143
145
146
154
159
163
168
171
172
174
173
172
170
167
163
161
160
157
152
148
144
137
131
124
108
100
101
86
64
60
51
57
59
59
52
60
66
67
64
65
62
65
62
62
65
69
64
60
64
69
73
74
74
63
56
57
64
65
65
63
59
64
66
74
80
84
80
76
66
62
64
62
64
63
65
64
63
64
65
70
74
73
71
72
74
71
67
69
71
67
69
66
67
66
69
66
67
68
66
68
65
69
68
67
72
77
78
75
67
64
63
64
60
62
59
63
63
98
96
95
92
92
91
87
61
33
28
29
28
28
28
39
53
51
47
43
39
38
38
37
37
68
67
63
61
58
55
49
47
42
36
101
124
113
120
118
114
105
92
85
75
67
67
67
66
62
67
66
67
66
67
82
97
86
87
94
63
51
48
49
56
57
60
67
71
75
71
64
79
69
53
49
51
60
60
63
73
75
65
55
69
77
83
77
80
66
123
186
189
190
191
192
193
192
192
191
190
191
192
194
193
193
191
192
192
192
189
188
188
187
185
183
183
181
179
177
177
178
176
175
173
169
169
167
165
163
161
159
155
152
148
145
146
143
146
146
146
149
155
158
166
169
172
173
174
174
172
171
168
164
163
160
158
155
151
147
142
137
133
125
109
90
95
66
63
54
51
58
59
59
53
62
67
67
66
66
61
65
62
66
69
75
72
70
71
71
74
72
66
58
56
63
66
64
61
58
58
58
60
73
76
75
69
65
66
67
64
65
63
61
62
63
65
61
60
62
62
69
72
73
74
70
66
66
67
66
68
69
65
64
67
67
66
66
64
67
68
66
66
68
71
73
75
73
68
62
63
60
59
61
60
64
64
99
96
96
94
92
91
89
68
30
29
29
28
29
38
54
51
47
43
43
39
38
37
35
40
73
64
66
64
58
53
45
44
41
46
118
114
101
101
89
82
77
72
63
65
63
61
63
66
64
67
69
74
87
101
92
77
78
101
82
59
50
49
50
53
54
59
69
71
72
71
63
82
67
60
51
48
54
56
57
68
74
68
56
68
72
78
74
77
81
69
158
188
191
191
193
193
192
192
192
192
192
192
192
192
194
191
190
190
189
190
189
189
188
185
182
181
180
181
179
175
173
172
174
173
172
172
171
166
166
163
158
157
153
152
151
151
150
148
150
148
151
159
166
171
172
173
175
176
175
172
169
168
165
163
159
156
153
149
145
141
137
135
125
100
82
77
62
57
49
54
58
60
54
59
66
68
65
67
61
64
61
64
68
74
77
73
71
71
73
72
65
56
53
57
64
66
64
58
55
55
54
67
76
77
76
71
61
61
62
67
68
63
62
61
62
62
60
60
59
61
60
67
68
74
68
64
64
64
66
65
65
63
62
65
66
63
65
65
67
68
65
66
69
73
73
71
69
65
62
60
60
59
59
59
62
62
99
96
96
96
95
92
91
74
30
29
29
28
41
50
51
47
43
43
40
37
36
34
35
47
76
67
67
60
56
53
51
66
75
81
93
87
83
79
74
75
68
65
61
63
62
64
68
70
79
84
88
86
85
79
80
85
82
95
67
57
49
49
52
53
55
57
63
70
73
68
64
87
71
57
47
45
51
55
56
65
75
74
61
56
71
74
76
76
77
71
95
175
191
190
190
191
193
191
192
191
192
192
193
192
191
192
192
190
189
191
189
188
188
187
184
181
180
180
179
175
176
176
176
174
172
172
172
169
166
162
160
159
156
154
155
153
154
153
153
154
159
167
171
173
175
175
175
175
173
171
170
167
165
161
158
155
152
148
143
140
138
133
119
91
75
63
58
49
50
56
58
56
53
66
68
68
64
61
63
65
63
69
72
73
74
71
67
73
70
63
54
53
57
62
64
65
61
56
53
52
62
74
78
75
75
67
63
67
68
67
65
66
68
69
68
65
63
61
60
61
68
68
67
63
63
67
68
62
64
60
59
60
64
63
62
63
60
62
64
63
65
62
68
70
73
67
66
61
59
58
58
57
56
60
63
60
96
97
100
97
96
94
91
80
33
28
30
44
51
49
48
44
41
40
36
35
33
35
41
56
76
68
69
73
80
88
89
85
78
80
82
80
78
73
66
66
64
62
60
64
67
79
85
100
97
80
70
72
75
79
77
72
90
89
67
57
50
48
50
53
52
55
62
69
71
70
69
89
69
54
46
44
49
54
54
62
73
73
61
50
62
68
72
70
70
81
71
131
184
191
191
191
192
191
192
191
192
192
192
191
192
192
192
191
190
190
191
189
188
185
186
183
180
180
179
178
175
174
174
172
173
171
170
168
166
163
160
161
158
158
158
156
156
155
157
159
169
172
174
174
175
175
175
175
172
169
168
164
164
160
157
155
151
147
144
141
137
129
108
81
65
61
52
49
53
59
58
51
61
68
69
66
62
58
62
61
64
68
73
71
72
71
69
70
64
58
53
55
56
63
66
62
52
51
53
60
70
76
79
75
73
67
67
68
67
63
62
59
60
59
63
63
64
63
67
65
72
70
68
69
70
69
65
69
67
67
60
62
63
63
63
64
62
63
66
67
71
69
75
72
72
70
66
62
61
57
58
60
61
64
65
63
98
98
101
102
97
93
82
51
27
36
45
48
46
45
43
40
38
37
37
34
31
38
47
63
89
93
98
88
79
71
69
72
74
79
78
76
70
67
65
63
63
66
72
87
99
91
85
80
74
79
83
74
71
71
68
79
103
82
63
54
50
47
50
51
52
55
60
70
72
75
74
88
65
53
46
43
46
53
52
59
63
72
61
51
56
67
68
73
70
73
84
70
149
187
190
192
191
191
191
190
192
192
193
192
193
192
192
192
191
189
191
191
189
188
186
183
181
182
180
179
178
176
175
174
174
173
170
168
167
164
164
162
162
160
159
158
159
157
161
167
171
174
174
176
178
178
175
175
173
170
167
164
163
158
156
151
147
145
143
140
135
118
89
67
60
53
48
53
57
58
54
56
65
65
66
68
61
58
58
64
64
68
71
70
67
70
70
66
55
53
51
57
61
62
59
54
48
50
57
69
78
82
81
73
69
67
65
64
60
58
57
60
60
63
60
59
57
58
59
60
63
60
59
58
58
57
59
62
68
69
66
66
65
65
64
68
63
63
66
65
72
73
72
71
71
69
65
60
60
60
61
58
63
62
62
63
97
99
102
96
79
51
32
33
41
43
43
43
43
41
41
37
37
36
33
35
49
81
97
103
97
91
82
70
63
64
66
70
75
71
69
67
63
62
67
71
74
97
94
76
69
69
74
81
78
76
73
72
70
69
75
97
97
73
57
51
48
49
50
51
53
56
58
69
74
72
74
84
64
55
46
43
47
50
54
55
61
65
57
53
49
66
67
74
74
71
76
75
77
162
189
189
190
191
192
191
192
192
193
192
193
192
192
193
192
191
191
190
190
188
188
186
183
182
180
179
177
177
174
175
173
174
172
169
168
168
167
166
162
161
160
159
160
164
167
171
172
173
176
176
177
176
176
175
170
170
168
164
160
158
153
149
146
145
142
139
128
101
78
61
57
47
50
57
57
53
54
62
68
67
66
63
56
60
59
62
65
68
65
63
64
64
67
58
52
52
54
59
59
58
52
47
49
55
63
78
83
82
79
71
67
63
61
63
58
56
61
64
63
61
56
58
55
55
55
57
57
58
56
58
56
59
57
59
59
58
68
70
68
66
68
70
67
64
65
66
72
74
73
72
68
65
64
62
61
58
58
58
62
63
62
64
91
87
76
64
52
39
40
40
41
40
42
42
40
37
38
36
38
58
81
97
108
109
97
85
85
84
81
81
84
72
68
64
67
65
67
67
76
88
90
83
82
80
80
79
74
74
76
77
79
76
67
69
72
74
84
105
88
72
56
51
47
45
48
52
54
56
61
67
69
66
74
80
66
56
47
45
47
50
50
49
56
67
55
52
50
55
69
73
76
75
67
72
70
92
167
187
190
190
191
192
192
193
192
191
192
192
192
192
193
191
190
190
189
189
188
186
184
183
181
178
176
175
174
174
172
174
174
172
170
168
167
167
164
162
162
163
166
168
170
172
175
176
175
178
178
176
175
173
170
170
167
164
158
153
150
146
147
146
141
129
105
79
59
59
49
48
53
54
56
51
63
65
67
66
63
56
55
57
60
66
66
65
62
60
60
62
58
53
47
50
52
55
50
51
48
49
52
62
76
85
85
80
73
69
62
61
61
59
57
57
59
58
57
57
56
56
56
53
55
58
61
55
56
56
55
54
55
57
60
62
65
66
68
70
66
66
72
68
64
68
73
74
74
71
65
65
62
63
59
57
55
58
59
62
60
62
65
63
54
43
40
38
40
41
40
41
41
40
38
38
43
71
100
100
105
107
109
104
91
85
77
80
80
79
71
65
63
63
58
60
74
76
71
65
59
69
81
90
77
70
66
67
69
74
76
73
69
69
75
81
98
100
83
68
55
50
49
48
49
53
54
58
63
64
63
62
81
82
66
56
49
44
46
48
48
47
53
65
62
58
52
49
65
73
73
72
63
66
76
67
97
166
189
191
193
192
192
194
192
192
192
192
192
191
189
190
190
189
187
186
186
185
183
183
181
181
179
177
175
175
174
174
173
172
170
169
170
168
166
165
167
167
169
171
173
173
175
176
178
179
178
177
174
175
171
168
162
157
156
151
148
148
148
143
131
108
80
62
58
49
47
51
55
55
50
58
66
64
64
62
59
55
59
61
60
67
67
64
59
61
58
60
54
50
49
50
48
48
51
52
49
53
63
75
80
83
78
75
69
60
60
57
60
56
53
56
57
55
57
53
54
55
52
53
55
57
52
53
53
54
53
54
58
62
61
64
66
68
68
72
73
77
74
70
66
67
74
73
68
69
64
62
60
59
56
56
56
62
60
58
60
58
42
39
40
39
39
42
40
43
42
42
39
37
39
76
109
96
80
97
107
94
84
66
58
58
58
58
58
61
58
58
52
47
45
48
50
50
54
64
74
82
86
82
65
63
70
68
67
67
72
71
73
74
81
96
103
96
81
66
55
51
51
50
49
56
57
59
57
58
62
64
82
81
65
54
49
43
43
45
43
48
52
65
64
57
57
56
54
65
67
69
67
63
68
76
62
103
167
186
192
191
192
192
192
192
192
192
191
192
191
189
187
187
189
187
185
184
182
182
182
179
178
178
178
177
175
175
174
173
174
174
171
170
168
165
168
168
169
172
174
174
177
177
178
178
176
177
174
173
168
164
161
157
154
151
149
149
144
132
110
78
62
56
49
47
51
52
54
54
51
60
67
65
64
59
58
57
59
63
65
66
62
59
56
57
58
55
51
48
50
48
51
51
53
52
55
60
69
76
81
85
75
68
57
52
51
54
50
50
49
53
55
54
52
54
55
53
53
53
54
54
52
52
52
55
55
55
60
59
62
67
69
72
75
74
75
75
68
60
67
75
74
71
68
67
62
60
58
58
54
55
56
59
59
60
59
62
38
39
39
40
39
40
42
40
41
39
37
70
105
118
115
120
104
76
90
82
70
65
60
59
57
58
59
61
58
60
52
48
45
48
50
55
61
66
73
78
79
70
58
58
62
66
67
65
69
69
74
80
91
96
97
89
78
64
54
51
49
49
53
58
58
51
51
53
61
62
83
82
65
56
48
43
41
41
46
48
51
63
67
63
64
57
50
48
64
66
69
67
61
68
78
64
97
158
183
190
191
192
192
192
192
192
191
191
190
191
188
188
188
185
184
185
183
179
179
177
176
175
176
176
175
175
173
172
173
172
169
169
167
168
169
171
174
172
175
176
178
179
179
178
177
176
172
171
167
162
158
154
152
152
150
145
129
110
77
60
55
48
47
50
53
55
53
52
61
66
65
62
59
55
55
60
63
65
64
62
59
54
54
58
56
53
49
50
47
49
54
53
51
54
61
66
72
78
80
73
62
51
49
48
51
53
51
52
54
56
54
50
53
53
52
51
54
56
56
53
52
53
52
52
54
57
60
63
67
71
72
70
66
61
60
59
69
76
83
84
86
83
69
64
58
58
55
58
56
58
57
60
57
60
60
57
39
39
40
40
39
40
40
40
37
60
99
107
105
102
101
112
114
89
90
92
74
63
56
54
54
53
53
53
57
55
53
50
48
48
50
55
62
67
69
71
72
70
62
55
58
64
66
67
65
70
77
88
99
99
93
81
72
64
55
49
49
50
54
54
52
49
52
53
58
62
87
81
66
55
48
42
41
43
44
46
52
61
71
69
64
58
48
45
50
62
67
69
62
64
71
74
67
96
148
177
185
190
191
191
191
191
190
189
188
189
190
189
188
185
186
185
182
181
179
179
177
176
174
174
174
174
175
173
172
170
170
170
169
167
172
174
175
177
178
177
180
180
179
178
178
176
170
166
161
160
157
154
152
151
144
123
104
68
56
52
49
44
47
51
50
52
51
60
65
65
60
58
54
55
58
60
63
63
63
59
56
54
56
57
55
51
47
51
47
50
52
53
54
61
63
68
76
76
68
57
53
48
47
50
54
52
51
51
54
53
50
51
51
53
54
53
54
56
55
52
51
52
52
52
52
61
63
66
68
66
61
55
46
53
63
69
74
76
84
87
87
79
79
70
57
57
54
57
55
55
57
58
58
59
60
60
38
40
40
41
40
39
40
48
84
97
96
98
101
99
97
102
103
107
96
96
90
82
74
68
58
50
47
49
52
53
55
51
49
49
53
56
62
63
62
66
67
64
58
55
56
57
67
66
66
70
84
95
99
94
91
83
71
64
56
52
50
50
49
49
50
48
50
52
55
62
86
80
67
52
45
41
39
45
47
46
51
63
72
71
65
59
55
48
42
49
65
69
69
69
65
66
78
71
88
135
167
182
187
189
190
190
190
189
188
189
188
189
187
184
183
183
182
181
180
180
178
178
177
176
176
175
173
172
172
171
172
171
171
173
176
175
177
177
179
182
180
180
178
176
175
172
167
164
159
157
155
154
150
140
122
92
59
56
49
45
45
47
49
50
47
48
55
66
67
61
57
52
56
54
58
61
61
61
57
53
51
53
53
54
50
50
48
50
50
51
51
56
62
63
65
73
72
67
61
58
53
48
49
50
49
49
48
49
52
53
52
50
55
54
52
53
57
58
53
51
49
51
50
56
55
60
66
59
53
50
47
49
58
65
70
73
76
76
79
83
75
73
74
71
68
63
56
55
55
56
58
58
58
58
58
56
40
42
39
38
39
38
68
95
95
96
95
94
95
99
104
104
93
92
96
99
99
92
90
83
71
60
47
45
45
51
52
51
51
53
51
52
53
57
59
59
63
58
53
54
56
59
62
64
69
71
86
95
96
94
87
81
70
63
60
57
52
45
46
47
49
49
47
51
53
60
85
80
67
52
44
40
40
42
45
47
54
61
68
66
64
64
57
49
42
44
54
66
70
68
69
66
66
75
68
77
118
156
174
183
186
189
190
188
187
187
189
188
186
185
184
185
182
182
180
178
177
179
179
178
177
176
175
174
174
171
172
172
174
175
177
177
178
178
180
182
181
180
178
175
173
168
163
161
158
155
152
146
132
112
74
58
51
47
46
48
48
50
50
47
48
60
68
68
59
55
52
54
56
57
57
60
59
58
53
49
49
52
54
51
48
49
50
52
52
50
53
58
66
60
66
72
69
65
58
52
46
47
50
52
52
50
51
52
52
54
50
51
54
54
54
54
57
54
51
50
50
49
49
56
57
64
58
50
48
49
50
56
64
67
71
71
71
72
70
70
69
69
71
71
75
72
66
59
56
57
57
58
57
58
58
56
39
39
39
37
49
91
101
100
97
97
92
80
72
70
79
94
106
101
92
98
101
93
103
94
80
69
62
52
47
47
50
52
52
50
46
47
50
51
57
56
55
52
55
56
59
60
63
66
69
74
87
99
98
96
88
78
67
63
62
57
48
43
44
46
47
49
48
51
53
57
84
79
66
55
46
42
42
43
48
53
56
57
63
65
67
66
62
54
47
48
49
59
72
71
70
68
62
61
68
68
70
107
137
161
174
182
186
187
187
186
187
187
187
185
183
182
183
183
180
179
178
180
179
178
176
176
177
176
174
173
175
176
176
176
177
179
179
180
182
181
181
180
177
174
171
165
161
158
155
147
136
124
93
59
56
47
45
45
45
47
49
49
46
50
58
63
65
62
53
53
55
54
53
53
57
57
56
51
47
46
50
50
49
49
47
47
46
51
52
53
58
61
58
62
66
66
65
60
57
48
46
50
50
51
49
48
51
52
51
50
51
51
53
51
54
57
55
51
49
51
48
49
51
55
59
60
52
48
51
50
57
61
67
70
71
65
63
66
65
66
66
65
65
63
70
68
73
71
65
57
55
56
57
55
58
56
38
39
43
78
100
106
102
100
99
90
85
75
66
66
64
68
86
104
100
97
99
91
96
98
94
88
70
60
53
50
53
51
49
47
46
46
49
52
52
53
55
54
56
58
61
63
60
63
68
74
85
95
97
94
88
79
74
65
59
52
45
41
45
46
47
49
52
51
53
54
79
75
66
55
48
43
44
45
51
52
52
53
59
63
66
65
68
56
49
49
53
51
61
69
69
69
65
60
60
66
68
65
89
118
142
164
174
181
185
184
186
186
186
186
185
184
183
182
182
180
181
180
179
177
178
178
177
177
175
177
176
177
177
178
179
179
182
183
182
182
180
178
177
172
166
161
156
150
137
126
106
67
54
51
46
43
43
43
47
47
47
44
50
56
64
64
62
54
54
54
57
53
51
50
51
49
48
45
43
46
51
49
50
47
47
46
45
52
53
56
60
61
56
66
66
67
63
60
52
49
48
50
52
53
50
50
54
56
52
52
53
53
52
54
54
55
53
49
48
48
49
50
52
57
62
49
47
48
50
56
59
67
66
68
61
58
61
62
66
64
70
67
68
68
68
69
67
70
73
71
61
55
57
56
55
52
48
86
108
108
105
105
100
95
89
82
78
69
64
66
60
62
68
83
100
99
94
96
94
100
104
89
85
74
62
54
51
48
47
47
49
47
50
49
52
55
58
57
57
62
61
61
60
60
66
73
84
89
94
90
88
84
74
63
55
46
45
42
43
44
47
49
51
49
50
53
76
76
64
56
50
45
45
49
50
49
48
50
56
64
65
67
66
60
56
48
50
56
56
59
66
66
66
65
65
58
62
68
66
71
101
127
146
161
172
179
183
184
184
183
183
184
183
183
182
182
181
181
180
178
176
175
176
176
176
177
177
178
178
181
183
182
184
184
184
182
179
177
175
166
161
153
142
127
105
74
57
53
46
44
41
44
45
46
47
45
48
49
54
59
63
60
51
50
55
54
51
48
49
48
50
47
44
43
45
45
48
50
49
46
46
45
47
52
52
56
60
60
61
68
69
65
61
56
50
49
48
49
50
52
53
55
52
53
52
52
54
53
54
53
55
54
51
50
47
47
51
52
54
59
55
46
47
48
53
56
61
63
65
62
56
57
58
64
66
70
74
74
72
74
69
66
67
65
66
70
71
64
56
57
55
54
104
111
110
105
104
101
89
87
78
74
70
65
63
64
65
62
67
64
80
91
97
94
98
99
109
102
93
83
70
55
49
45
46
47
49
48
48
54
56
58
58
58
59
59
60
60
60
60
65
72
80
87
94
98
92
84
72
58
54
50
45
41
43
46
51
50
48
48
49
54
78
77
65
57
52
48
47
47
47
48
44
50
57
64
66
69
66
63
57
48
48
58
61
55
56
64
66
67
65
62
61
56
60
71
69
78
103
122
140
156
168
174
178
180
183
181
180
182
183
183
181
180
179
178
176
175
177
176
177
179
179
181
181
183
183
183
183
183
182
180
177
173
165
155
142
125
98
69
58
55
48
42
41
41
44
44
45
47
45
48
54
56
59
60
57
51
53
53
48
45
45
44
47
47
48
46
45
43
46
46
46
48
46
47
46
46
50
54
54
58
62
57
64
67
66
62
58
51
46
49
49
50
51
51
51
53
51
54
53
57
54
52
53
54
53
51
51
50
48
50
52
56
57
61
56
50
49
52
55
59
62
63
63
60
58
58
59
66
72
73
77
73
74
71
67
68
65
63
65
67
69
69
68
55
52
55
110
107
107
107
100
89
83
82
71
69
67
68
63
64
61
59
56
55
62
76
89
97
100
104
110
106
94
85
75
64
51
47
46
47
47
50
52
54
57
59
58
57
59
60
61
59
58
61
59
66
74
82
93
96
95
82
68
61
54
50
44
43
46
46
46
48
46
44
47
54
73
76
66
59
53
51
47
46
45
45
44
49
56
60
64
67
71
67
63
53
48
55
57
62
55
52
61
65
65
63
63
62
59
64
68
68
63
71
94
117
135
146
158
165
171
172
173
173
175
178
176
176
176
176
176
175
177
178
177
178
180
182
182
183
183
183
182
181
178
173
167
154
139
117
88
62
58
53
48
42
40
41
40
42
43
44
43
46
53
57
55
55
56
54
55
53
48
45
43
42
42
47
46
47
46
44
41
45
47
50
50
45
47
47
46
47
49
51
55
57
58
62
67
67
64
58
57
50
49
50
53
51
52
51
54
54
54
54
53
54
52
53
53
56
57
49
49
47
50
49
54
59
63
61
55
53
51
50
53
59
62
67
68
62
58
58
63
67
72
77
76
74
73
68
64
61
64
63
65
68
67
70
68
70
58
53
111
107
103
95
89
84
78
76
72
66
68
63
64
64
60
59
55
55
60
64
79
96
108
107
110
113
99
84
74
66
56
51
44
42
46
49
53
56
56
60
58
60
59
60
62
58
60
59
57
59
70
84
89
95
93
81
71
61
52
48
45
47
46
45
45
44
46
43
49
50
72
76
67
60
54
49
42
44
42
44
47
48
52
63
64
67
71
69
66
55
47
46
51
57
62
57
49
63
64
65
67
67
65
61
58
59
62
65
62
64
81
104
124
135
142
148
152
156
159
161
161
163
162
164
165
166
168
171
171
172
174
176
177
177
176
174
171
164
156
145
122
95
68
57
53
53
45
47
41
40
43
41
41
43
43
43
50
55
54
52
51
54
55
55
48
45
42
42
41
41
46
48
50
47
45
44
44
45
49
50
49
47
46
45
48
48
50
51
56
57
56
68
68
66
60
58
52
49
49
52
51
53
51
52
53
53
52
53
53
53
53
53
53
55
54
52
50
49
49
53
56
63
65
55
53
53
54
47
54
61
63
69
66
65
56
59
68
73
79
78
76
71
68
61
59
61
64
66
67
67
64
65
64
66
67
62
107
101
93
86
89
81
74
73
74
66
63
61
62
62
61
58
57
58
55
58
67
80
99
110
110
114
100
84
76
69
64
56
45
41
44
47
51
57
59
56
58
57
54
57
56
58
58
57
54
59
70
76
80
85
89
82
75
61
51
50
49
47
44
44
42
44
43
44
45
50
70
76
70
60
54
45
40
40
45
46
47
47
49
59
67
70
74
71
66
57
49
43
47
53
60
65
60
50
56
64
69
69
67
63
57
54
54
54
58
63
65
61
66
83
95
107
116
122
126
129
130
133
135
133
135
137
138
140
140
141
145
145
144
143
141
134
122
107
88
61
55
53
54
50
44
44
43
43
40
42
42
42
42
39
42
55
55
50
51
51
54
59
52
44
44
42
43
42
39
42
48
50
51
48
46
46
48
49
50
49
49
47
49
46
46
47
49
51
57
56
62
66
65
62
59
55
49
47
52
53
53
53
51
53
53
52
50
49
52
56
55
51
56
53
52
49
49
49
52
55
60
61
62
51
55
56
53
46
54
59
64
67
64
58
57
63
73
77
80
76
72
67
61
62
62
64
63
62
60
58
59
67
67
68
70
71
95
91
87
84
87
78
75
77
74
68
60
53
53
57
62
65
62
63
55
58
55
66
85
100
110
113
102
77
72
69
72
61
52
46
45
46
48
54
58
56
57
52
52
53
55
56
54
53
56
60
61
66
75
82
88
80
71
58
53
51
47
44
42
42
43
44
43
45
43
52
70
79
73
60
49
44
42
44
44
45
47
47
50
60
67
71
73
72
68
58
50
42
44
50
56
61
64
60
54
54
65
67
63
62
59
59
57
53
49
49
56
59
63
62
60
58
58
62
75
83
87
95
99
103
103
104
107
108
108
107
103
101
92
84
72
61
58
63
58
52
47
46
42
44
43
43
41
41
41
42
40
39
40
43
43
44
45
47
49
50
50
51
46
42
41
40
42
43
42
46
51
51
49
48
46
48
50
53
52
49
46
48
47
47
46
46
51
53
55
57
67
66
62
58
54
49
49
51
52
52
52
53
53
52
53
52
51
54
56
54
53
54
55
53
50
47
51
54
54
58
57
61
59
54
55
56
48
49
55
62
64
66
61
56
58
64
72
79
76
75
66
60
61
60
63
60
54
55
58
65
71
74
77
73
74
70
97
92
91
87
85
83
76
75
73
68
61
53
50
51
59
66
64
70
64
60
60
60
68
89
106
111
96
69
60
68
76
72
59
50
45
46
46
50
53
55
53
49
50
53
54
54
55
57
57
54
55
65
74
83
85
77
67
54
52
50
45
42
42
45
45
46
43
45
47
51
72
79
68
59
49
44
41
42
43
48
46
49
52
56
66
70
71
68
71
59
51
44
44
47
49
57
60
66
65
59
50
55
62
62
63
62
58
58
53
51
53
49
50
51
56
55
57
57
59
61
56
56
56
54
52
53
55
59
54
55
58
57
58
54
53
53
57
54
46
43
42
42
42
43
42
44
41
41
41
39
39
42
44
46
45
41
37
41
45
51
49
50
44
41
43
43
44
42
47
53
53
50
50
49
49
49
51
50
51
50
49
48
49
48
44
45
49
55
55
61
65
64
60
57
54
49
50
51
53
55
52
52
52
53
54
55
57
56
57
55
56
56
55
49
50
51
54
57
60
60
59
60
57
55
59
55
48
51
61
66
66
64
60
55
61
67
80
76
72
68
60
60
62
60
57
53
54
63
72
74
76
75
73
68
63
61
89
80
82
80
85
80
77
71
73
70
66
55
48
48
52
62
71
74
80
72
61
59
57
69
89
107
92
60
53
59
73
84
73
58
52
46
47
48
50
54
50
49
47
49
52
55
56
55
53
50
56
68
75
83
82
74
60
54
49
44
42
41
42
42
45
44
45
46
52
55
67
74
64
58
50
44
42
43
45
46
48
51
52
56
65
69
70
67
66
61
55
46
45
43
45
48
57
66
69
62
56
45
45
54
58
60
59
60
57
55
54
53
48
50
51
49
50
54
53
51
51
50
50
47
47
50
49
50
49
49
49
49
47
47
45
48
49
44
45
40
42
43
43
44
45
45
44
39
37
43
45
46
49
49
47
45
39
40
46
48
48
44
46
43
43
44
42
46
52
54
53
51
49
49
49
53
52
53
50
49
47
44
45
46
44
47
53
54
58
68
68
64
60
53
48
49
52
55
56
54
52
53
52
52
57
56
57
57
55
53
56
57
55
48
50
57
58
59
60
62
58
59
57
57
57
53
48
51
59
64
63
64
58
52
67
77
79
74
68
62
63
60
56
51
52
58
68
76
79
73
71
62
63
63
68
71
83
77
77
76
78
76
67
67
66
72
76
63
54
51
50
55
63
74
80
79
69
61
58
66
75
90
103
64
47
52
61
80
84
71
52
47
46
45
47
49
52
49
47
48
55
56
54
51
49
51
58
67
77
78
75
62
57
51
44
42
40
42
43
44
45
45
47
48
53
55
63
68
66
56
49
44
41
42
44
50
50
51
52
56
65
68
66
64
66
63
58
51
45
42
45
47
56
66
68
65
62
58
48
47
44
50
58
60
58
57
53
56
51
53
48
47
48
49
49
46
45
45
45
43
42
44
46
43
45
44
45
46
46
45
47
50
44
42
42
44
45
45
46
46
45
40
38
40
47
47
48
50
53
51
46
45
44
44
47
47
45
47
42
45
44
46
47
50
55
53
51
51
49
49
49
56
54
52
53
52
50
48
46
46
44
49
53
58
65
66
63
59
53
48
45
48
58
56
58
56
54
55
60
56
57
56
58
57
57
57
59
56
52
54
57
59
60
60
58
61
55
60
56
54
55
52
50
53
58
65
67
64
52
62
76
78
73
66
64
61
61
58
50
52
61
70
75
75
70
63
59
59
65
72
73
74
75
73
75
82
77
72
62
58
62
71
78
77
65
52
53
54
58
67
74
82
78
68
61
61
68
77
109
72
47
47
52
65
82
82
63
47
45
43
44
48
52
49
49
52
55
53
47
49
51
55
61
69
74
72
67
59
51
42
41
41
43
43
42
44
44
46
49
52
49
48
60
68
63
57
50
45
42
43
44
49
50
54
54
55
60
64
64
64
62
62
59
53
46
44
44
47
55
61
64
64
64
64
55
46
46
47
44
46
50
54
55
55
53
52
52
52
51
48
48
46
46
45
45
43
43
42
44
44
45
48
44
45
45
50
48
48
47
46
44
44
45
45
44
42
42
43
45
46
51
49
49
53
51
50
49
47
47
47
47
45
45
44
44
46
43
48
48
55
57
52
50
51
51
50
53
56
56
54
54
52
51
50
47
47
45
51
54
62
66
66
60
55
51
44
48
52
56
53
56
54
54
58
58
58
58
59
60
57
58
55
57
52
53
58
59
60
57
58
59
59
58
60
54
54
55
50
53
56
58
62
66
57
58
76
75
71
66
64
59
58
54
50
59
69
74
71
69
63
60
61
66
69
74
72
68
67
73
62
68
78
77
74
62
54
53
68
81
81
76
60
53
52
51
55
67
77
81
68
64
62
63
71
109
76
51
43
47
59
75
87
70
56
46
45
49
49
49
51
52
50
50
51
47
53
54
57
66
74
70
69
63
55
46
37
40
43
42
44
42
43
45
51
52
47
45
48
57
66
64
58
48
45
45
47
47
50
52
51
52
54
56
61
62
65
63
64
59
55
48
46
47
47
52
54
60
61
63
64
58
54
47
49
49
49
47
46
45
49
55
54
54
52
52
49
49
49
47
44
45
44
45
47
46
46
47
48
48
48
48
52
48
46
45
44
40
40
41
41
44
46
48
48
48
51
48
47
49
47
49
47
48
48
51
50
48
40
42
44
45
45
46
47
51
54
55
53
49
50
49
51
54
55
54
52
54
53
52
47
47
44
48
52
57
65
63
66
56
53
45
45
52
56
56
58
54
55
58
62
60
58
58
60
58
58
55
54
53
51
56
58
61
58
56
58
57
58
58
58
53
55
55
52
52
58
61
65
60
51
70
76
72
66
62
62
58
52
52
59
70
72
69
64
60
61
64
65
66
70
68
67
66
63
65
52
58
67
80
76
64
52
47
60
81
90
88
72
60
52
44
50
61
73
79
73
67
62
62
66
109
79
57
43
43
50
65
86
74
57
51
47
48
49
49
53
52
49
49
51
51
54
56
64
69
70
65
60
54
45
40
39
40
44
44
46
46
45
49
50
48
44
44
48
57
66
64
56
48
45
45
47
46
49
50
50
52
51
53
57
60
62
63
61
60
56
50
49
48
47
43
48
56
57
61
61
63
58
52
50
48
48
49
54
50
48
45
45
48
47
47
46
47
51
47
46
47
46
47
46
46
50
48
45
49
53
50
48
43
42
42
41
43
46
48
49
48
47
49
46
46
44
49
48
47
47
48
49
47
51
50
50
44
42
43
43
43
43
42
50
51
53
51
50
51
48
50
53
53
52
48
49
53
51
49
48
47
46
50
55
61
65
65
61
56
49
46
45
50
55
59
58
57
56
57
59
59
58
58
56
58
56
58
54
52
57
61
60
61
58
57
59
60
56
56
58
53
55
55
54
54
59
66
66
52
64
74
70
64
61
63
56
51
56
63
69
68
67
59
61
60
64
66
66
65
64
66
65
63
59
67
49
49
65
80
79
67
54
48
53
73
92
95
78
65
53
46
45
61
67
69
70
70
62
63
62
108
86
62
48
43
48
57
80
80
59
52
45
48
49
53
50
45
46
48
49
51
55
58
65
70
68
60
53
47
38
38
40
41
43
42
47
48
49
48
46
45
45
45
47
55
64
62
55
50
48
46
47
51
52
53
49
50
50
52
56
60
61
63
63
60
58
54
53
48
45
44
45
51
55
59
62
64
63
60
55
49
47
47
52
53
51
51
54
56
52
50
47
43
41
41
39
42
44
43
43
43
45
47
45
47
49
49
46
44
48
48
50
50
51
50
49
48
49
48
47
44
44
46
46
46
48
45
50
50
52
51
45
43
44
44
42
43
45
48
51
51
50
49
48
49
48
52
50
50
48
47
49
49
51
48
47
44
47
52
57
66
69
64
61
56
46
41
44
50
55
56
55
56
56
55
62
58
58
58
59
55
57
56
56
55
60
63
61
60
59
59
59
61
59
55
53
54
55
54
52
53
62
65
51
61
72
70
62
65
61
54
52
61
69
69
63
62
57
58
60
62
62
65
64
64
65
66
61
52
55
73
48
46
59
76
78
66
56
52
51
64
79
89
88
72
57
52
50
58
61
64
68
70
66
63
61
96
86
62
46
42
42
53
73
87
60
52
50
50
51
48
47
46
45
46
48
52
52
61
68
65
60
53
47
39
38
39
40
41
42
44
48
49
49
45
43
41
44
44
48
57
65
64
56
54
48
44
48
48
50
50
49
48
48
51
58
62
61
61
62
64
62
59
51
47
47
44
44
48
49
53
58
62
65
64
57
52
50
45
47
54
54
52
50
52
53
53
55
54
53
54
54
50
51
51
51
53
53
52
55
56
56
52
49
50
51
51
49
50
50
50
50
49
53
48
46
44
47
46
46
45
45
48
53
54
54
52
46
42
41
42
42
39
44
49
53
51
47
48
47
48
51
51
51
50
48
47
46
47
48
49
46
44
46
54
59
67
66
63
54
49
43
44
44
51
54
53
55
55
58
57
58
61
59
60
59
56
55
55
54
57
60
61
58
57
56
59
60
61
58
58
53
54
53
50
51
59
66
56
57
66
67
62
62
57
54
56
66
68
71
65
59
54
59
62
63
64
64
63
65
63
63
57
58
60
66
80
53
40
50
72
78
71
56
51
54
59
77
84
89
89
67
55
46
49
59
64
63
63
64
64
56
95
87
63
49
40
43
51
71
85
63
53
53
50
45
45
46
47
47
48
50
54
59
66
64
60
52
50
40
38
41
42
40
40
47
53
49
47
45
42
40
43
43
46
49
54
65
63
59
52
48
46
47
47
48
49
47
47
50
50
54
59
59
60
64
66
64
58
52
49
44
44
45
48
49
52
59
60
62
61
64
59
53
46
46
52
53
53
47
47
51
51
53
54
55
52
52
54
53
54
56
55
54
57
57
59
57
51
51
51
51
48
49
52
50
51
49
49
47
47
46
42
44
45
42
45
44
47
53
57
57
55
50
46
40
41
41
41
46
48
51
47
47
48
47
47
50
52
52
54
51
48
49
49
48
48
48
46
50
57
67
68
62
57
50
44
40
41
45
51
55
57
54
59
60
58
60
61
61
57
55
55
54
54
55
60
60
60
56
55
59
62
60
61
61
59
53
52
51
50
58
61
61
54
61
66
59
58
56
56
63
68
68
67
64
56
56
60
60
62
62
64
62
62
60
57
56
59
64
70
74
87
53
43
48
69
84
84
64
49
47
51
63
76
91
85
73
54
50
42
54
62
63
63
63
62
60
90
86
64
53
43
42
50
69
81
67
59
53
47
43
45
43
45
45
47
51
58
65
65
60
53
51
43
39
42
43
43
44
47
49
51
50
45
41
41
42
43
43
45
45
53
66
64
60
52
48
49
47
45
46
47
46
46
48
53
54
55
59
60
64
64
64
56
52
48
46
45
44
45
48
50
55
59
59
62
64
62
57
50
48
52
49
48
46
46
46
49
50
55
53
52
53
54
56
59
58
58
55
55
56
55
53
53
52
51
49
51
52
51
49
49
48
49
46
49
44
46
46
42
42
45
44
48
53
55
55
52
51
50
46
44
46
47
52
53
50
50
45
47
48
51
52
52
50
49
50
49
49
47
46
45
45
47
52
62
66
67
61
55
46
41
40
41
46
52
53
56
56
59
61
59
60
61
62
58
56
55
55
56
58
61
59
58
55
61
61
62
59
57
61
57
51
49
46
55
62
64
48
53
63
58
57
58
59
67
72
71
67
63
55
56
62
61
61
64
67
66
62
58
52
56
64
67
70
68
69
92
52
42
47
68
85
80
63
46
43
47
56
77
88
91
79
62
48
44
52
59
63
61
60
59
57
86
87
66
50
44
42
49
71
80
66
56
47
45
44
43
47
45
47
50
57
62
61
59
53
49
46
37
41
42
44
48
48
51
51
48
47
43
43
41
42
42
44
47
46
54
65
63
60
51
50
46
44
44
46
47
47
47
50
53
52
54
57
61
64
63
62
58
53
49
44
43
43
43
46
50
53
56
57
58
64
60
60
59
54
52
46
46
43
44
45
45
49
51
51
52
53
52
54
55
55
56
55
56
55
52
52
49
51
49
48
50
50
50
51
48
48
46
49
47
46
47
48
44
43
43
45
48
54
53
53
51
54
51
50
50
49
53
55
52
46
47
44
45
45
52
49
47
49
49
48
47
47
49
47
44
44
47
60
68
67
63
59
55
44
38
41
43
46
51
52
54
52
57
61
59
60
62
62
57
57
54
55
55
59
61
59
57
55
62
65
61
60
60
56
55
46
41
51
60
63
57
44
58
59
56
56
62
67
71
65
66
61
59
58
58
60
63
64
65
67
61
54
54
61
66
69
67
63
63
54
92
54
43
47
62
81
82
61
50
43
43
55
66
76
81
82
65
54
48
50
58
61
63
59
58
55
80
86
65
55
46
39
49
74
80
63
52
48
46
46
47
45
46
52
55
59
60
58
55
50
44
40
39
41
42
46
50
52
49
48
45
44
41
43
44
41
44
45
50
48
54
62
62
60
53
49
42
42
43
46
46
46
46
48
50
53
55
60
61
61
61
60
58
58
50
46
42
43
42
46
49
49
51
55
58
59
63
63
63
59
51
47
43
44
43
45
45
48
48
50
53
54
54
55
54
54
59
56
55
52
49
47
48
50
50
50
48
50
50
49
52
49
48
48
48
48
46
44
44
43
44
45
48
50
47
49
55
54
52
52
52
51
56
53
50
46
43
45
45
48
49
50
48
48
50
48
48
48
45
44
43
46
50
66
71
67
60
55
49
42
39
42
43
48
52
53
53
57
55
58
60
60
61
61
58
55
55
54
57
59
60
58
55
53
62
63
65
62
59
58
54
43
49
55
61
58
46
62
60
49
52
65
71
75
66
63
60
61
59
59
58
60
61
64
64
60
49
55
65
70
68
63
59
54
45
48
96
62
46
49
59
77
79
65
50
44
41
53
61
68
78
81
78
60
49
49
60
59
59
59
58
56
77
88
68
56
48
43
50
68
76
60
51
48
45
44
44
45
49
59
58
60
57
54
50
46
39
39
41
42
45
50
51
51
46
45
43
40
43
41
41
42
44
45
48
51
49
63
64
57
51
47
42
42
41
46
45
45
47
49
50
51
55
60
59
63
59
61
58
57
52
46
45
43
45
46
45
47
52
53
55
61
60
62
63
60
56
46
43
42
44
43
43
44
47
49
49
53
53
54
55
54
57
55
51
50
50
48
50
48
49
47
49
47
48
48
47
49
49
47
46
46
47
45
43
43
43
46
50
47
45
45
51
50
51
52
54
55
54
54
50
50
46
45
48
50
49
48
47
48
47
48
49
46
45
45
44
45
55
69
71
65
57
54
46
42
41
41
45
47
51
54
54
55
56
58
61
63
60
60
56
56
54
55
57
59
59
55
55
52
61
63
63
63
61
58
56
48
55
59
62
51
57
61
51
49
60
71
70
69
66
61
58
57
60
59
60
63
66
63
58
52
63
70
66
64
59
55
50
50
56
65
103
72
44
44
57
72
78
67
50
41
42
52
61
60
68
74
77
69
50
49
54
59
59
56
55
55
68
90
73
54
53
42
48
64
74
58
53
47
46
43
45
49
52
55
55
55
54
51
49
42
39
42
39
43
49
48
44
44
42
42
42
41
44
41
44
43
45
47
49
49
51
68
66
60
52
46
41
41
44
44
45
46
46
47
49
54
57
57
58
58
60
60
58
56
53
49
45
46
46
45
45
49
51
52
52
58
61
63
63
59
55
50
45
42
44
43
44
45
44
46
51
52
55
53
55
54
56
54
49
50
50
51
47
51
50
49
49
47
49
48
49
49
48
48
49
47
49
49
46
46
46
47
45
43
44
46
48
48
51
52
55
54
53
50
52
49
47
48
51
48
49
45
47
47
49
48
48
47
45
43
44
48
61
71
66
62
55
50
41
41
42
42
46
48
52
50
53
55
56
58
61
61
58
60
59
56
57
54
59
61
55
57
54
55
61
60
60
62
60
58
54
48
53
59
56
55
63
55
45
53
75
73
63
62
61
58
59
56
61
64
63
65
63
54
55
65
71
67
63
58
54
54
52
58
65
69
92
82
47
42
56
71
79
68
53
44
40
51
62
60
63
70
77
74
59
52
51
56
58
59
58
59
65
91
72
57
52
37
41
68
73
61
53
48
45
48
48
51
55
54
56
56
51
49
44
38
39
41
44
47
50
46
45
41
41
40
43
42
42
42
41
43
45
49
47
50
52
65
62
58
50
44
41
39
39
41
45
46
44
48
50
53
53
55
57
56
57
59
58
57
55
51
49
46
45
44
45
47
49
48
51
57
61
62
60
60
60
55
47
43
44
45
44
45
45
48
50
52
51
54
57
56
56
53
49
48
49
49
49
50
48
51
49
48
47
47
48
46
47
47
48
47
48
48
46
46
49
45
42
40
45
46
45
46
47
51
53
53
52
48
46
46
46
50
52
50
46
46
46
47
47
48
49
47
44
43
44
52
69
71
66
59
50
46
42
40
42
44
46
49
52
52
53
55
57
57
60
61
56
59
60
58
54
53
59
60
57
55
51
57
59
61
59
59
62
60
56
47
56
58
54
63
59
50
49
69
73
67
64
61
58
56
61
64
66
64
64
60
53
59
68
65
65
60
53
56
56
60
63
66
64
62
83
87
57
38
52
71
75
66
52
38
40
52
59
61
56
66
74
72
66
55
49
53
54
55
60
59
62
85
70
60
50
34
43
70
72
60
51
46
48
51
53
52
52
53
52
52
49
45
36
39
39
43
45
51
49
42
42
43
43
41
42
42
46
41
44
46
46
47
46
51
53
61
61
57
52
42
40
38
40
43
45
46
44
49
50
51
52
52
54
56
56
57
57
56
56
51
49
48
43
44
46
47
48
49
53
54
57
58
57
61
57
56
50
46
44
43
43
43
47
48
48
49
51
52
54
54
53
51
51
48
48
48
48
49
48
50
47
46
48
48
46
45
49
47
45
48
49
50
48
49
48
46
40
41
42
42
43
45
46
48
50
51
48
49
46
47
48
50
50
50
46
47
48
48
51
46
48
46
43
43
46
57
71
68
60
54
48
44
40
42
41
42
46
50
53
54
54
55
57
58
59
59
56
57
61
57
50
57
57
55
55
55
51
56
58
60
62
60
63
61
52
47
56
56
57
61
53
44
63
72
67
65
59
57
57
63
65
61
64
66
58
55
59
67
67
66
57
55
53
57
61
64
67
59
55
56
65
89
69
41
47
68
73
67
53
42
38
48
61
65
60
57
66
70
66
61
55
53
51
56
59
59
66
85
73
55
46
34
40
72
69
58
53
50
52
53
52
54
51
53
51
49
48
38
36
39
43
50
48
47
43
42
42
44
42
46
44
45
45
47
47
46
46
45
48
47
50
61
62
56
50
43
40
39
41
42
46
45
47
50
49
51
51
52
55
55
55
55
56
57
55
53
48
46
44
44
45
46
45
49
54
52
53
55
56
55
57
56
53
48
47
42
41
45
45
47
46
49
50
54
54
52
50
49
48
48
47
49
49
49
49
47
49
47
48
48
47
49
47
47
46
48
48
47
49
48
45
40
40
41
41
41
45
45
46
49
49
47
46
45
45
46
49
49
49
46
47
48
48
47
45
48
47
44
45
45
53
64
70
67
59
51
45
41
41
42
43
43
45
50
54
55
56
53
56
57
58
60
58
56
58
56
54
58
58
57
55
54
47
53
58
59
58
59
61
62
49
51
58
52
60
60
50
55
68
64
63
59
59
62
66
63
63
61
65
59
50
58
66
64
61
56
51
55
61
63
64
61
60
57
58
63
51
80
79
51
43
70
67
65
54
46
38
47
61
65
64
54
59
66
64
64
64
55
53
54
57
64
61
81
66
56
46
36
38
64
71
59
54
55
57
52
52
51
53
51
53
50
41
36
39
43
49
50
49
44
42
42
42
43
44
44
44
44
46
47
47
48
49
46
47
46
45
58
62
56
51
44
38
39
41
44
44
47
49
50
49
48
51
50
51
55
57
57
55
58
57
54
51
47
45
44
45
45
46
49
51
50
50
54
56
56
58
57
56
53
47
45
46
45
43
46
45
47
49
52
51
50
50
50
48
46
48
47
47
45
47
48
48
49
48
47
49
50
46
49
47
49
48
50
51
47
44
41
41
41
41
41
44
46
48
47
47
46
43
44
42
47
48
51
48
47
47
48
48
48
47
47
43
43
45
48
61
67
72
64
57
46
43
45
46
44
42
43
45
49
51
52
52
52
53
57
57
57
55
55
54
53
58
60
60
57
55
54
48
51
60
62
58
61
62
59
49
54
60
58
65
56
51
62
62
65
58
60
68
67
61
63
61
59
59
54
60
62
64
61
56
54
56
57
60
66
65
60
60
60
59
61
43
63
82
66
41
71
69
58
52
47
37
48
63
68
62
56
56
62
64
64
62
61
55
57
56
59
57
79
66
53
49
36
36
72
71
62
57
55
53
50
50
52
53
50
49
42
36
40
44
49
49
48
45
42
42
44
44
44
42
45
45
48
47
48
48
51
48
46
44
42
47
54
59
59
48
44
39
37
40
42
44
47
46
47
49
48
50
50
51
52
53
55
59
58
56
54
49
47
47
42
43
46
50
50
52
49
48
52
51
52
52
57
58
52
50
46
44
45
42
43
45
49
51
48
49
47
50
46
48
47
46
48
46
46
50
48
47
47
47
46
49
49
50
48
49
50
49
52
51
47
45
42
42
42
42
41
42
46
46
47
44
44
41
45
44
46
51
52
50
48
46
47
47
48
47
49
45
45
45
53
64
68
67
59
55
46
44
45
42
43
41
44
45
50
51
55
52
55
53
56
54
53
57
53
54
54
55
61
58
53
54
52
49
48
56
58
59
56
60
61
48
53
53
57
57
55
61
61
57
59
60
66
65
61
59
57
60
60
53
56
63
64
61
55
54
55
63
65
66
70
65
60
59
61
60
59
45
51
70
72
47
64
72
58
55
48
41
46
60
66
59
55
54
58
60
64
60
61
66
63
58
51
55
80
68
56
48
34
35
72
73
64
57
52
50
49
51
51
52
51
46
39
40
45
46
49
47
44
43
42
43
44
44
44
46
46
47
48
45
48
52
49
51
50
47
45
45
54
59
55
49
43
38
38
38
43
48
46
44
46
47
49
51
50
50
51
52
56
58
58
54
54
52
50
46
46
44
50
51
50
50
48
48
51
54
53
56
52
54
57
53
51
45
44
43
43
48
49
47
43
45
46
46
47
48
48
47
47
47
46
45
49
45
44
48
49
47
48
47
50
50
48
52
52
50
48
43
43
42
42
42
40
44
46
46
44
45
44
42
45
50
49
49
50
50
48
49
49
47
47
48
46
46
45
49
59
66
70
67
57
51
43
42
43
43
40
41
42
43
49
54
53
56
55
54
51
53
52
53
54
56
51
55
63
55
52
54
52
49
47
54
58
56
59
62
58
49
54
53
57
58
58
54
56
58
65
66
63
60
55
60
59
57
51
57
62
62
58
54
57
60
66
66
66
65
62
57
55
56
56
59
65
55
42
52
71
59
51
75
59
52
47
43
44
57
67
66
58
56
56
62
60
62
65
63
58
55
51
56
75
68
55
49
36
41
75
69
60
56
52
52
53
54
52
49
48
41
40
43
48
49
48
45
45
45
44
44
45
44
43
45
45
46
46
46
48
49
51
50
48
44
45
45
51
59
57
49
42
38
37
43
43
46
46
43
44
46
48
51
49
51
52
54
55
58
57
53
53
51
51
47
47
46
48
48
47
46
48
46
49
49
52
55
52
56
58
57
54
49
46
43
45
45
47
43
44
44
45
44
45
45
48
46
45
45
45
45
46
45
46
47
48
49
48
49
48
49
51
52
51
47
47
45
44
43
44
42
44
46
46
44
45
46
43
46
47
50
51
49
49
48
47
48
47
48
49
47
46
44
45
52
64
69
68
62
53
47
41
44
43
44
42
43
42
44
47
50
56
54
54
53
53
52
51
54
52
55
54
56
56
58
53
52
52
46
45
52
56
59
60
59
59
49
53
55
58
58
57
52
57
65
65
60
58
56
61
60
60
49
55
62
57
53
59
63
67
61
62
61
60
61
57
57
55
56
59
65
68
72
57
48
61
64
45
73
59
51
43
42
48
58
63
57
58
58
57
61
60
63
60
58
58
55
53
53
76
66
55
49
41
42
75
68
60
53
54
57
56
52
52
50
45
39
44
48
49
47
43
45
46
47
46
45
45
44
44
47
47
46
48
51
53
52
50
50
47
46
45
46
50
60
55
49
43
37
39
42
43
45
43
42
45
46
46
49
48
48
52
57
55
56
55
56
54
52
48
49
49
49
47
46
45
45
45
46
48
48
49
52
55
56
58
58
57
52
48
48
46
44
43
40
44
43
44
44
46
47
45
47
46
45
45
44
46
45
47
46
47
48
47
48
49
51
52
52
51
48
48
49
47
45
42
44
43
46
48
45
46
42
42
46
49
50
51
49
48
46
47
49
48
46
47
45
46
45
49
57
66
65
65
59
53
43
40
44
41
42
41
41
42
45
48
52
53
53
55
54
51
49
48
52
54
54
53
56
56
57
53
48
50
47
45
50
56
57
57
57
56
49
49
56
57
58
50
53
66
62
59
57
56
61
61
58
49
56
58
57
64
66
65
61
63
63
60
58
59
60
59
59
61
63
62
64
61
77
65
54
50
57
52
67
63
51
42
44
50
57
67
59
59
57
60
62
64
57
58
55
58
56
54
53
74
67
60
51
44
40
75
68
58
55
53
53
52
51
49
48
41
46
48
49
45
46
45
45
45
44
46
44
44
46
45
46
46
52
55
54
54
56
51
48
47
45
46
45
51
60
55
47
43
38
40
41
45
43
44
43
44
46
47
46
47
51
54
54
55
55
56
53
54
52
51
51
50
48
45
44
45
45
43
45
47
46
49
55
53
55
55
56
59
54
52
50
47
44
40
40
41
42
40
43
45
46
46
45
45
45
44
44
45
44
47
47
48
47
47
48
50
53
53
52
49
48
49
47
47
44
46
46
47
50
48
46
46
45
46
50
50
52
51
48
49
47
47
50
46
46
46
44
46
49
52
59
66
64
64
57
49
43
39
44
43
42
42
42
41
46
50
53
51
50
53
53
51
51
50
51
53
53
53
55
56
54
49
48
49
46
45
49
51
54
54
55
56
52
47
57
55
52
50
64
61
60
56
58
61
59
56
49
55
56
61
61
61
60
61
58
59
58
59
57
58
62
61
60
63
63
58
56
51
67
72
66
53
51
49
50
68
52
44
43
50
61
69
62
58
62
63
63
60
56
55
56
54
57
55
50
73
69
60
52
42
38
69
65
57
50
50
54
53
51
47
47
44
47
45
47
47
48
48
45
48
46
48
47
45
47
44
47
49
53
53
52
52
52
50
48
45
45
44
47
47
61
56
50
46
40
41
43
42
43
44
44
45
47
46
48
48
51
51
52
54
54
55
55
55
56
55
52
49
47
43
44
44
44
44
47
48
47
48
51
53
55
56
56
58
57
54
52
46
41
40
40
40
39
41
41
44
44
43
42
44
43
44
45
45
47
47
47
46
47
48
50
52
55
53
50
49
47
48
50
47
46
46
49
49
51
47
45
47
44
48
52
51
49
51
49
50
49
48
50
48
48
44
46
45
49
59
64
62
63
61
52
48
42
41
45
44
42
42
42
45
47
50
51
50
53
51
49
51
50
48
49
54
51
55
57
57
55
50
50
52
48
44
46
45
50
53
53
47
46
47
56
55
51
56
60
59
56
59
63
59
54
49
57
60
62
60
58
61
62
61
56
58
58
60
59
66
66
65
61
59
54
51
53
62
59
66
74
64
54
49
41
66
56
47
46
50
56
64
61
62
63
62
60
58
56
57
55
55
55
53
51
73
71
59
52
38
30
72
67
58
52
50
53
53
50
47
44
45
44
46
47
47
47
48
46
50
51
50
51
49
45
44
50
54
53
54
54
55
51
48
47
47
44
44
45
44
59
55
51
47
41
41
41
40
42
41
42
45
45
46
47
51
50
49
52
54
53
56
54
57
57
53
51
46
45
45
44
44
45
46
44
47
46
49
51
54
54
56
57
55
58
58
53
45
40
38
41
39
41
40
41
42
43
41
45
44
43
45
44
43
43
45
47
46
46
49
51
52
53
52
50
48
48
47
48
48
47
51
50
50
48
49
46
48
46
48
52
52
49
49
49
48
47
46
46
46
48
44
43
46
57
62
65
63
63
56
47
45
42
41
42
41
42
41
43
44
45
50
48
51
53
52
49
52
49
49
48
51
52
55
57
56
55
53
48
48
46
43
45
50
50
55
53
46
46
43
52
51
57
57
57
57
61
59
60
51
48
54
60
62
59
59
57
59
59
58
57
56
59
65
67
70
67
65
55
51
55
64
65
67
48
55
71
73
61
56
41
55
66
49
45
47
58
63
67
65
61
56
58
58
56
57
59
54
56
57
54
75
68
61
51
40
37
69
67
57
52
53
53
52
51
45
45
44
43
45
47
47
48
49
48
49
48
52
51
49
48
48
50
53
54
54
54
52
52
49
48
42
43
43
43
45
58
55
53
47
40
39
40
41
41
42
41
43
45
47
49
51
49
49
51
55
56
55
55
54
57
56
50
49
45
44
45
44
44
44
46
45
47
49
52
54
53
54
55
58
59
57
53
45
39
40
39
39
38
38
40
40
42
43
43
41
44
44
42
43
45
45
47
48
46
48
52
54
51
51
49
48
48
47
46
48
50
50
48
51
49
49
48
47
50
50
52
50
49
48
49
48
47
46
46
47
47
45
44
49
59
61
58
60
58
51
46
45
41
42
43
42
42
44
42
46
49
48
50
50
52
51
49
50
50
47
50
51
52
55
57
55
54
49
49
49
44
43
42
44
49
53
54
46
41
47
49
53
54
54
57
60
58
57
47
45
55
58
59
56
57
58
59
58
56
57
57
62
62
64
67
68
58
52
51
61
65
63
61
60
40
51
59
70
69
57
49
39
68
54
43
42
56
63
66
63
57
58
59
58
59
57
56
56
56
56
56
75
67
58
48
39
39
71
64
60
51
51
54
53
49
41
43
44
44
45
51
51
49
50
50
51
52
52
52
50
49
51
53
53
53
53
52
52
54
50
47
45
43
43
42
46
60
58
53
46
38
38
40
41
41
43
40
43
43
48
48
48
47
50
51
53
57
58
56
58
57
54
47
46
45
45
44
45
45
44
44
46
47
48
52
51
54
54
56
56
59
58
53
50
43
42
40
38
39
41
39
39
40
41
41
41
43
44
45
47
47
46
46
46
47
47
50
52
50
49
48
48
46
48
48
48
47
50
51
51
50
49
46
50
51
52
51
49
47
46
48
48
46
47
46
46
46
44
46
52
61
64
60
59
57
49
46
44
42
42
41
42
41
44
45
49
47
47
50
48
49
47
49
48
48
48
49
48
50
56
56
55
56
47
44
45
45
44
41
41
47
51
51
42
39
43
54
52
49
53
60
62
58
44
37
54
56
57
56
55
56
56
57
57
58
62
63
64
64
64
65
55
54
57
67
64
59
60
61
58
37
43
52
62
67
65
53
44
59
60
47
44
55
61
64
64
57
57
60
59
57
55
57
58
56
57
54
69
64
54
46
37
39
71
62
55
51
50
53
52
44
38
44
46
48
47
49
49
50
49
51
51
53
53
50
49
49
49
52
54
54
53
54
53
53
49
46
45
43
42
44
47
58
57
51
43
38
39
42
42
41
41
39
44
45
48
49
47
48
49
50
52
54
59
60
57
57
52
48
45
46
44
45
45
46
44
46
46
47
49
49
49
49
54
58
58
54
55
53
49
47
41
38
39
40
39
39
38
40
41
43
41
45
48
43
44
44
44
45
47
50
51
51
47
48
45
47
47
46
46
47
47
48
51
49
47
48
51
50
52
52
52
49
47
48
46
46
45
46
44
44
46
45
44
45
57
61
61
58
58
54
47
47
45
41
41
42
43
42
44
43
46
47
46
47
48
48
48
49
48
46
44
44
48
50
55
58
52
55
47
45
45
43
42
41
40
47
50
49
39
35
44
50
48
51
58
61
61
47
38
53
58
54
56
56
56
57
56
57
59
60
64
63
62
59
53
52
59
66
62
64
62
62
59
60
60
40
38
44
57
64
68
62
50
42
66
56
45
51
57
60
62
57
56
59
55
57
55
59
60
57
55
50
69
64
52
47
35
41
69
63
55
54
53
54
46
37
38
40
48
49
51
50
49
50
52
54
55
55
52
51
51
52
52
50
53
52
56
53
54
54
51
46
43
43
43
47
48
59
58
52
45
39
39
40
40
41
40
39
42
42
44
49
47
46
51
50
52
54
57
58
58
54
51
48
44
44
45
45
45
46
45
45
47
46
46
46
49
48
52
56
56
51
52
53
53
48
43
38
38
38
39
38
38
38
38
38
39
41
41
43
42
43
44
45
45
51
49
48
48
47
46
46
46
46
43
46
49
49
48
47
45
46
47
48
50
52
51
48
46
47
48
46
48
47
44
43
44
45
46
52
60
60
61
59
55
51
46
45
46
39
41
39
40
41
41
44
44
45
45
49
48
47
48
46
45
45
44
44
46
50
55
55
54
53
47
41
43
43
41
40
38
46
47
47
37
38
46
47
46
54
59
60
49
36
48
55
55
57
56
55
58
55
54
60
62
62
60
59
54
50
51
58
66
64
62
63
58
57
58
62
65
54
40
39
49
61
67
62
56
42
65
60
46
50
54
58
58
57
56
57
55
56
60
60
60
60
55
50
70
63
53
47
38
46
70
66
60
57
52
48
39
39
40
46
48
49
50
51
54
51
53
53
55
55
54
54
52
52
51
52
51
53
54
54
54
51
51
48
45
42
44
44
47
58
56
51
44
39
35
40
41
42
42
43
44
44
48
49
48
46
47
48
52
57
58
57
56
52
47
47
42
45
46
47
45
44
46
46
48
49
50
47
47
47
53
52
53
51
51
53
53
52
45
40
38
39
38
39
38
38
39
39
40
41
43
42
44
41
42
46
46
52
51
45
47
47
45
46
48
44
44
46
46
47
45
46
45
46
48
48
51
52
49
48
47
46
46
47
48
47
46
44
44
44
49
57
60
60
58
57
55
53
46
45
44
41
41
41
40
38
40
43
43
43
45
48
49
47
47
46
45
47
45
44
45
50
56
57
57
53
46
41
41
41
40
36
39
45
50
41
36
33
46
45
47
54
63
56
41
49
55
54
57
56
55
57
58
60
55
58
60
60
55
51
51
57
63
65
64
61
60
60
59
59
58
61
66
61
53
38
41
55
63
64
64
54
53
61
46
47
54
57
62
57
54
56
58
60
62
59
57
58
52
50
68
59
53
46
38
51
70
63
58
53
48
41
38
38
41
46
45
47
50
52
53
50
53
54
55
55
54
54
51
54
51
52
51
52
56
56
53
50
47
46
44
41
47
46
48
56
56
51
46
40
36
38
40
41
42
43
44
45
44
47
45
47
46
50
54
58
55
54
52
51
46
44
44
44
46
44
44
44
47
47
48
49
48
46
47
50
52
52
53
50
52
50
51
49
49
45
40
40
38
38
36
38
38
39
40
43
41
40
42
43
49
48
47
48
46
47
48
47
45
46
45
47
43
44
46
43
43
44
44
45
44
48
47
48
48
46
47
45
45
45
43
42
47
44
45
46
50
58
60
55
56
56
52
48
44
44
41
39
40
39
40
39
40
40
42
43
43
45
44
42
43
42
41
45
43
42
46
54
55
57
55
50
42
36
40
40
38
36
36
44
48
40
35
35
40
46
49
56
58
48
50
53
55
55
54
56
54
58
55
57
56
56
58
53
49
56
60
61
62
65
63
59
61
58
59
61
62
63
59
62
61
49
39
46
58
66
66
58
40
56
49
42
49
53
56
58
54
57
61
61
59
57
54
55
52
50
68
64
51
45
39
55
72
69
61
49
45
37
35
41
42
49
47
48
49
52
55
53
53
55
58
57
54
51
50
50
51
52
55
54
57
52
52
50
49
47
45
45
44
47
49
53
57
51
46
38
34
38
40
42
43
43
42
47
46
44
46
46
50
52
56
54
54
53
53
48
47
47
45
43
42
44
44
44
49
49
50
48
49
49
49
49
47
45
48
48
49
49
52
51
49
50
42
41
37
36
35
35
37
37
41
42
43
42
45
42
45
49
47
47
47
45
45
44
45
44
43
45
45
46
48
44
44
44
45
45
46
46
49
47
44
45
43
45
45
45
45
44
44
43
45
48
55
60
59
56
55
54
49
47
45
43
40
37
38
38
39
38
42
43
42
44
43
43
44
44
43
42
45
43
41
41
45
53
55
54
54
50
42
36
39
37
35
35
37
41
46
39
36
32
41
42
46
56
50
49
53
52
53
54
52
54
54
53
52
56
56
51
51
53
58
62
57
61
62
62
62
60
59
59
60
57
50
51
52
51
61
62
45
41
52
61
61
59
47
47
56
48
48
50
55
61
56
60
61
58
59
57
54
53
53
52
65
61
50
44
41
61
74
67
56
50
40
35
37
41
45
49
52
53
51
53
55
53
51
56
55
56
54
53
50
49
53
51
54
56
53
53
51
48
48
46
45
45
45
46
48
54
58
52
43
37
35
38
41
42
44
41
43
46
48
44
45
47
50
52
52
53
50
51
49
49
49
46
42
43
44
45
47
47
46
49
48
49
49
50
49
48
46
46
45
48
47
47
49
52
50
51
41
42
35
38
38
37
36
39
38
39
40
42
43
42
46
49
47
46
45
47
46
45
48
46
44
46
48
47
46
46
45
44
44
47
48
48
48
46
45
46
45
46
47
45
44
44
44
44
46
54
58
62
57
57
52
51
47
46
44
43
42
36
38
37
40
39
42
44
44
44
44
45
43
43
43
41
41
41
42
41
46
52
57
57
55
47
41
38
37
37
37
34
34
39
45
34
34
30
37
43
48
46
49
51
53
52
52
52
52
49
51
52
55
55
48
51
58
57
63
61
61
60
58
63
61
56
57
56
51
46
47
58
62
47
51
56
63
50
43
48
52
56
51
41
56
49
50
49
54
58
61
59
59
57
55
52
53
54
53
54
64
59
49
44
42
65
69
59
55
46
39
37
38
42
46
49
53
53
55
54
53
51
55
56
55
53
52
53
49
49
51
53
50
52
50
54
50
51
49
45
46
46
46
45
49
55
56
51
43
37
34
39
41
43
42
43
42
45
45
46
45
51
51
52
53
51
49
50
50
48
51
45
43
45
42
44
43
46
47
48
47
47
50
52
49
47
44
44
47
44
48
48
48
50
49
50
44
42
36
37
35
34
37
39
37
37
36
42
41
43
48
48
46
44
46
46
45
46
45
46
44
45
46
47
44
45
42
44
45
49
50
49
46
45
46
43
46
45
46
45
44
43
44
47
49
55
58
58
57
55
52
50
48
46
44
43
40
35
37
38
40
42
44
42
45
44
44
42
41
43
43
43
41
44
41
40
46
53
55
54
52
49
42
35
38
38
36
34
33
41
39
32
34
32
36
40
46
44
52
51
51
52
52
51
49
47
50
54
48
46
54
58
60
57
59
57
56
57
60
59
54
52
48
47
50
54
59
64
62
47
46
55
62
64
45
38
44
49
55
42
49
52
51
47
55
56
61
59
55
54
51
55
54
54
52
53
62
56
51
51
42
67
64
57
54
44
36
37
37
41
46
50
52
53
51
51
52
55
56
55
55
53
51
49
52
52
51
53
52
50
51
55
50
48
45
47
47
46
46
49
48
56
56
50
42
39
36
39
41
41
40
43
42
44
46
46
49
52
52
51
50
49
49
48
49
49
50
46
43
44
45
45
45
46
49
48
46
47
47
48
45
42
44
46
46
43
42
45
47
47
49
46
48
44
36
34
36
35
34
37
36
39
38
40
40
43
47
46
43
44
42
45
45
44
45
43
45
44
45
44
44
44
42
44
47
48
49
47
44
47
44
44
46
44
45
46
46
45
43
47
50
56
58
56
55
53
51
49
47
45
45
42
40
37
35
36
39
41
40
41
42
44
42
42
41
41
42
42
42
42
38
39
47
54
54
51
51
48
41
35
36
37
35
33
35
36
39
33
29
29
31
36
39
47
48
48
47
47
47
46
49
54
49
47
51
54
56
57
54
57
54
56
55
56
57
50
48
45
49
55
57
56
51
47
43
43
48
49
49
56
60
48
39
37
48
50
39
56
55
50
52
54
54
57
54
54
53
52
53
51
52
52
63
59
51
47
44
66
64
55
51
42
37
38
37
44
47
53
53
53
52
52
53
55
56
54
53
50
49
50
49
50
51
51
50
52
50
52
49
47
48
49
47
44
47
47
48
53
55
52
43
37
37
37
43
41
41
41
42
45
46
49
49
50
51
46
45
44
50
49
49
48
48
47
43
44
43
43
45
46
47
47
50
49
50
48
43
45
43
45
44
42
43
43
43
43
43
47
47
44
40
36
36
35
36
35
37
38
38
41
43
46
46
44
42
44
45
45
45
45
46
45
47
49
44
45
42
42
43
44
46
48
49
46
45
46
44
46
47
46
45
43
46
44
46
49
56
58
58
56
53
51
47
48
48
47
44
41
38
34
37
36
38
42
42
43
43
45
42
40
41
41
40
43
41
39
38
41
47
53
56
50
50
47
39
34
36
36
34
33
32
34
35
30
28
26
28
33
42
49
49
45
45
49
48
51
50
44
44
52
55
54
55
55
57
55
53
53
54
52
49
49
51
56
59
51
47
35
38
44
52
40
43
45
39
45
51
58
48
39
36
46
40
54
62
52
51
50
51
51
53
53
54
51
51
55
53
57
65
60
55
46
41
69
63
58
52
42
35
36
39
43
50
52
52
51
48
51
53
54
53
54
53
50
53
49
52
50
50
50
50
48
51
50
50
53
46
48
48
46
47
48
49
53
52
48
45
39
38
38
42
42
43
41
43
49
47
47
49
47
50
46
46
47
45
46
49
46
48
47
43
45
44
44
46
45
43
46
47
50
48
45
44
43
42
43
41
43
43
42
44
42
46
45
45
45
42
39
37
37
36
33
36
36
35
41
44
46
44
44
43
42
42
43
45
45
46
46
46
46
43
41
41
43
44
45
48
48
46
45
42
45
43
46
48
48
46
46
45
45
46
50
56
58
54
55
52
50
49
48
47
46
43
38
38
37
38
38
38
39
40
41
41
44
41
42
41
41
41
41
42
40
40
40
49
52
54
49
48
44
38
31
32
33
31
30
33
34
35
29
29
29
28
34
41
45
47
48
47
49
46
42
41
45
52
56
54
55
53
54
55
50
51
49
49
51
57
58
57
50
41
33
30
42
55
60
64
38
37
41
40
43
46
49
56
45
34
37
45
48
61
54
47
45
47
46
50
54
52
51
50
52
54
59
64
58
47
37
42
66
61
59
52
41
38
38
42
44
50
51
49
51
50
53
54
56
55
54
48
48
51
50
54
51
51
51
50
52
51
53
52
48
47
46
49
46
49
45
46
46
54
53
46
38
36
37
40
40
40
42
45
44
46
48
49
47
47
44
45
47
48
46
48
48
46
46
45
43
44
44
47
46
46
47
50
47
45
45
48
44
44
43
42
41
40
42
42
42
42
44
44
44
41
39
38
38
35
33
34
36
36
41
47
43
42
44
44
43
46
45
44
44
46
46
47
42
42
40
40
44
44
46
48
46
44
44
44
44
44
46
44
47
47
45
45
44
47
53
57
55
52
51
51
49
49
48
47
43
41
42
39
35
37
37
37
36
40
42
41
39
41
40
40
39
40
39
39
39
39
43
48
52
55
49
48
43
36
30
32
30
32
30
33
34
36
30
28
26
27
36
43
45
43
44
42
40
37
40
49
52
49
52
49
51
50
50
47
47
48
50
53
55
52
46
38
30
35
42
54
61
64
59
59
41
41
38
36
39
43
40
48
53
46
39
41
42
51
53
45
44
45
45
53
53
52
51
49
54
54
62
63
55
42
38
42
62
59
60
51
42
38
41
43
44
49
51
50
52
53
54
54
55
54
54
48
51
51
49
52
50
49
49
48
50
51
52
51
47
47
46
49
48
48
48
49
50
55
54
47
41
35
39
40
41
43
42
49
48
50
48
48
45
42
44
43
45
46
46
48
44
47
45
44
44
43
43
46
46
49
48
48
45
45
44
45
44
45
44
43
42
41
42
40
42
40
40
44
44
45
41
40
37
36
34
33
35
36
40
42
42
41
43
43
40
44
44
43
47
47
47
47
42
42
41
41
43
43
44
45
43
45
44
44
45
44
45
45
46
46
45
45
43
51
56
58
55
52
51
50
45
47
47
47
44
40
38
38
36
34
37
37
38
40
41
40
41
39
40
38
38
39
39
38
37
36
42
51
51
50
50
45
43
40
29
29
31
30
30
29
33
34
28
25
26
27
39
42
39
36
38
39
39
42
48
48
50
48
50
50
49
48
48
47
48
54
52
47
42
37
36
36
43
52
59
58
58
57
56
52
48
42
42
35
37
35
33
37
54
53
50
43
37
44
50
48
45
46
45
45
50
48
52
57
56
54
62
57
50
40
35
49
64
60
56
48
43
39
41
41
43
49
52
52
53
56
56
55
52
51
53
53
49
50
52
52
52
49
50
50
51
53
51
46
48
47
47
48
47
48
47
45
50
56
54
48
40
35
37
40
42
43
45
47
49
49
47
45
45
42
42
42
45
45
45
46
50
50
50
46
44
45
46
47
47
46
49
50
43
45
47
44
45
44
44
41
40
39
41
39
41
42
41
42
43
44
41
39
37
36
35
34
35
40
41
40
40
41
46
43
43
43
46
44
46
48
46
47
41
42
43
43
43
46
44
44
41
41
42
44
44
44
45
46
48
45
45
45
48
53
54
56
54
51
49
46
49
46
47
46
43
38
38
42
39
36
37
38
36
39
39
39
40
38
39
38
37
39
38
34
35
37
40
49
52
48
47
47
42
38
28
28
30
31
30
30
34
31
28
23
24
28
35
37
33
35
35
37
44
47
45
47
45
46
48
47
47
46
51
50
46
42
39
40
44
43
49
53
56
53
52
49
50
49
51
46
52
48
50
38
34
36
38
38
47
54
50
45
38
37
48
48
47
45
42
42
44
52
53
58
58
52
59
54
50
40
37
51
67
62
60
49
40
38
40
41
42
48
53
53
53
54
53
53
52
50
51
50
51
52
51
52
48
48
49
50
52
54
51
48
49
49
48
47
48
45
46
45
53
56
53
46
40
36
38
42
42
43
45
50
51
48
47
43
44
42
41
44
48
47
42
46
48
50
44
45
45
44
42
43
47
45
49
47
44
45
48
42
40
44
42
43
39
39
40
40
41
40
42
41
46
45
45
41
38
36
33
36
39
41
39
40
39
40
41
41
42
44
44
46
46
48
46
46
42
39
42
44
43
43
44
39
41
42
42
43
44
43
46
44
46
46
44
44
51
57
53
52
53
51
47
49
47
47
47
45
38
41
37
36
40
39
38
37
38
38
38
37
37
38
40
36
39
38
39
37
34
37
40
48
48
48
47
41
39
35
28
27
26
29
28
30
30
30
27
21
25
28
37
35
31
31
35
44
47
46
48
45
46
44
46
46
48
50
46
47
46
40
41
43
53
55
53
50
46
45
45
44
43
44
46
48
55
52
48
44
42
36
40
41
39
47
48
45
39
35
41
47
47
46
42
40
45
50
54
54
48
51
57
53
42
42
39
49
65
62
56
51
40
36
37
38
43
50
52
50
50
52
51
51
51
50
48
50
53
51
50
49
54
54
57
59
58
54
49
49
48
47
47
47
46
48
48
50
50
54
51
44
39
37
37
40
43
45
46
49
48
48
44
44
43
43
43
41
43
44
46
45
49
50
47
46
46
43
44
46
47
47
46
44
45
46
45
43
43
41
41
40
40
40
38
37
38
41
41
42
44
46
44
41
36
35
35
35
40
40
37
40
40
41
41
40
41
43
44
45
48
47
46
45
44
42
43
43
45
44
42
41
41
42
43
40
42
42
43
44
44
44
45
47
50
55
54
52
53
50
47
49
49
47
45
42
41
39
36
37
38
39
37
37
39
36
36
36
36
38
39
39
37
38
36
36
34
35
41
45
48
47
47
43
36
35
27
26
26
26
25
28
31
30
26
21
23
29
34
30
29
30
37
44
45
46
45
44
46
43
46
51
50
45
45
42
44
48
53
51
48
45
44
42
40
41
42
45
52
54
58
57
55
56
49
43
43
45
43
38
31
38
48
46
45
39
33
46
43
47
44
40
46
49
50
50
48
49
53
50
44
37
35
50
63
59
54
46
39
33
36
40
44
49
48
49
48
50
49
51
49
48
52
52
52
51
52
56
52
51
60
58
56
55
53
51
46
49
47
48
49
46
50
50
51
53
50
45
43
34
37
41
48
49
47
46
47
46
45
45
43
45
43
44
46
45
45
45
48
49
50
47
46
45
46
48
47
44
44
45
47
48
46
42
42
42
43
42
41
41
39
39
37
41
43
41
43
44
44
42
41
35
34
37
38
39
37
35
39
38
40
41
41
43
45
45
47
45
44
43
44
43
43
46
45
44
43
43
42
43
41
42
41
43
42
44
43
43
43
49
54
54
54
52
50
47
47
46
46
44
41
39
39
37
34
35
37
37
37
37
38
40
36
35
36
38
36
38
37
36
36
36
37
36
41
47
47
46
45
45
35
31
24
25
25
26
25
24
27
30
25
23
25
28
28
26
27
36
41
43
42
45
43
42
42
47
48
49
48
46
45
48
45
45
42
42
40
43
47
47
51
53
54
56
63
61
59
57
58
55
53
52
48
47
47
37
31
29
40
46
43
40
37
34
39
39
44
45
43
46
43
45
44
48
51
49
44
37
34
56
62
60
54
48
39
35
37
40
45
49
49
51
48
49
50
51
50
48
48
50
53
53
67
110
134
144
148
140
127
103
63
52
49
60
54
47
44
48
48
50
52
54
52
43
40
37
40
45
47
46
46
45
47
47
44
44
45
44
43
42
45
46
47
45
47
49
50
47
45
44
46
47
43
44
41
46
46
47
46
43
40
42
40
42
42
39
38
37
36
36
40
41
40
42
43
43
41
37
37
37
37
37
35
38
37
37
39
40
40
43
47
45
45
45
46
44
45
46
44
46
46
44
42
42
40
43
39
41
42
43
43
44
43
44
48
51
55
53
52
51
48
45
46
48
47
43
40
38
39
37
35
36
37
37
38
38
37
38
35
35
37
38
37
38
37
36
35
36
35
36
40
46
48
50
47
41
38
32
23
23
24
23
23
23
26
30
25
21
29
31
27
24
30
38
39
40
42
41
43
44
48
46
45
46
46
43
39
40
41
44
43
50
58
55
55
55
53
53
51
51
52
51
49
45
52
56
57
56
49
49
46
41
34
27
30
43
45
42
34
29
33
38
47
49
43
44
44
42
41
50
50
45
43
37
35
56
62
60
53
44
37
34
39
40
44
48
47
47
48
50
50
47
48
50
51
57
49
91
136
150
150
147
146
139
139
138
134
94
83
117
113
87
61
53
48
48
52
56
54
48
41
34
42
47
50
47
44
41
45
45
47
44
44
45
45
42
42
50
47
49
49
48
47
46
45
43
45
46
43
42
43
47
45
45
46
42
41
42
43
43
43
39
37
38
37
35
38
41
41
40
42
45
44
39
39
37
38
36
36
36
36
36
39
40
41
43
48
45
44
42
43
44
45
45
48
45
45
42
43
41
41
39
40
41
44
42
45
43
44
44
50
51
54
53
53
48
48
44
45
47
47
47
39
37
39
37
37
34
35
36
37
36
37
36
35
38
38
39
35
39
37
34
35
35
33
34
41
47
47
44
42
38
34
31
24
23
24
23
25
26
27
27
23
22
29
29
25
25
33
35
40
36
41
42
45
48
46
46
43
35
37
37
37
50
52
54
55
54
52
46
42
40
39
36
39
42
42
45
46
47
49
50
59
58
48
42
46
47
42
30
27
33
42
43
42
36
32
38
45
49
43
38
37
38
38
47
46
45
41
38
34
57
61
56
49
41
38
37
40
41
44
46
50
47
47
49
49
46
44
48
48
52
105
145
151
152
150
145
140
138
140
142
143
140
130
128
111
116
117
89
44
48
51
54
52
47
40
38
41
44
47
44
41
42
46
45
43
44
44
45
44
43
43
46
45
47
47
47
50
49
48
49
47
44
42
44
42
46
44
43
43
41
40
40
40
42
40
40
39
38
36
38
38
40
42
39
43
48
44
40
41
39
35
33
34
34
36
34
41
38
39
42
46
48
43
42
41
44
44
47
45
45
41
41
41
39
40
42
43
42
42
42
44
42
44
44
50
52
52
49
48
47
44
45
45
44
45
43
39
37
40
35
35
34
37
37
35
35
35
35
33
33
32
36
36
39
37
36
34
34
35
35
40
45
43
43
42
40
35
33
23
23
22
25
23
27
25
29
26
23
26
26
22
25
32
31
33
30
38
46
47
44
44
38
37
39
46
49
49
51
49
44
41
39
36
35
37
40
43
47
48
49
54
59
59
59
51
51
52
53
53
38
36
45
47
43
30
25
34
41
43
40
35
33
34
43
36
37
38
37
39
48
46
41
41
38
34
57
58
55
47
45
38
37
35
38
41
42
46
44
46
48
43
46
47
48
47
108
150
155
158
153
147
144
148
147
145
146
144
135
129
130
124
120
117
99
48
47
52
54
52
46
41
41
43
46
44
40
41
43
44
44
43
45
42
44
43
45
45
48
47
46
47
47
47
47
49
48
44
42
42
44
45
43
45
46
42
42
39
40
43
40
42
41
41
38
35
38
37
38
40
39
42
44
45
43
41
39
33
33
32
31
33
37
39
41
40
44
45
44
41
42
44
44
45
44
44
42
40
40
42
39
39
38
41
42
42
42
43
43
45
46
54
52
50
48
49
48
45
44
45
46
44
42
38
36
40
34
34
34
35
35
35
34
36
33
34
33
35
37
37
35
37
37
38
38
34
38
39
44
45
43
41
40
35
30
25
22
23
22
23
26
25
26
26
24
25
24
23
26
28
26
26
33
40
44
42
37
41
47
46
47
43
39
37
35
36
38
48
51
50
52
54
54
54
53
54
56
56
60
56
59
47
49
43
47
50
38
34
37
39
44
36
24
22
36
45
43
42
30
27
37
38
37
38
37
39
45
43
40
38
37
35
58
56
55
51
43
36
36
37
40
41
46
44
47
45
46
47
46
46
49
62
137
156
157
150
158
152
151
147
147
143
145
145
134
133
126
124
122
120
113
95
69
52
54
51
47
45
38
41
43
43
41
42
42
41
42
43
44
43
43
41
44
42
45
45
47
46
46
47
46
47
45
43
42
44
44
43
43
43
46
42
41
41
41
41
41
41
41
40
38
38
38
36
37
38
37
39
41
44
46
42
36
34
32
32
34
33
35
34
40
44
44
44
44
43
45
41
44
46
46
42
41
42
38
40
39
41
41
40
40
42
40
45
46
46
51
56
50
48
47
48
44
44
47
44
45
43
40
42
38
35
33
33
32
34
33
33
33
32
32
33
32
34
35
36
36
38
39
39
35
35
36
38
45
43
44
39
37
33
27
19
22
22
24
21
24
25
24
22
25
27
25
20
20
22
24
29
39
41
37
38
45
47
44
44
39
36
36
40
48
50
54
58
60
57
55
55
54
53
54
52
52
52
53
50
49
40
41
44
43
43
44
40
34
32
35
37
32
29
28
36
43
42
31
26
38
39
36
37
36
40
43
40
39
41
36
40
55
57
57
52
46
38
38
38
39
39
45
45
45
43
44
45
45
45
46
88
147
156
149
150
159
158
154
151
145
146
136
136
131
130
128
124
126
121
126
133
132
53
55
53
51
43
38
39
39
39
37
37
42
44
44
46
45
45
43
42
44
44
43
45
46
45
47
48
46
47
44
43
42
46
42
43
43
43
44
40
42
37
39
40
40
39
40
39
38
39
39
34
37
39
41
37
41
45
45
41
35
35
29
31
31
36
35
39
40
41
43
45
42
43
43
42
43
43
45
42
41
40
41
40
41
41
41
41
42
43
41
43
43
47
50
50
50
47
46
43
43
45
48
47
42
38
39
38
34
32
33
32
35
32
34
35
34
31
30
33
34
35
35
35
34
36
32
36
36
32
35
41
44
45
43
40
34
33
26
22
19
22
21
23
23
23
24
26
29
24
25
18
16
20
21
31
38
36
40
44
44
40
38
40
46
48
49
52
51
54
56
56
54
47
50
47
46
44
44
44
47
45
45
44
46
40
37
39
40
39
43
45
40
33
31
32
37
36
32
29
33
37
35
25
30
39
35
34
37
40
41
40
39
36
34
31
54
56
58
50
46
39
36
38
40
40
46
45
44
44
44
46
48
46
45
111
149
156
159
163
168
163
154
150
143
146
139
137
132
130
129
128
126
123
122
124
124
55
55
53
49
42
38
36
39
40
38
36
41
42
44
47
46
41
44
43
44
41
42
45
43
47
49
46
45
46
45
43
44
43
43
42
41
43
42
42
39
35
38
36
36
38
40
42
40
40
35
36
40
41
39
37
40
43
44
36
40
38
32
32
31
33
37
35
39
42
42
41
44
41
42
41
46
44
44
44
44
37
41
42
41
41
39
39
41
40
40
40
44
49
51
52
51
50
46
42
43
46
45
43
39
37
37
35
34
31
32
33
33
34
36
35
32
32
30
32
32
33
36
35
35
32
34
35
34
31
34
40
42
43
40
39
37
33
26
17
20
21
21
21
22
20
26
29
28
23
21
19
16
17
18
25
34
38
39
41
45
46
46
46
47
46
49
51
50
47
49
53
50
47
45
45
41
42
40
42
44
43
43
46
46
35
40
37
39
40
43
41
46
43
34
34
36
38
33
30
27
29
32
29
30
36
33
33
35
41
41
40
39
39
33
36
55
55
52
49
44
38
35
38
37
41
45
45
44
43
45
45
47
46
47
96
143
151
151
157
163
157
147
144
142
135
136
134
133
135
130
133
117
94
74
65
55
54
54
54
50
41
36
38
38
39
36
38
38
43
47
45
42
45
45
43
41
43
42
41
43
45
45
49
45
43
45
45
43
43
43
41
39
41
39
40
41
38
37
38
36
36
39
40
40
39
37
38
36
37
41
42
39
42
38
41
40
35
32
32
30
30
34
36
39
41
42
44
41
44
42
44
43
44
43
41
39
40
39
40
38
40
42
41
40
40
41
41
47
49
52
51
48
47
42
43
43
46
46
44
41
37
35
34
35
34
33
33
33
32
33
33
32
34
32
31
32
34
35
36
33
36
35
35
34
32
33
38
40
40
39
36
34
27
24
18
19
20
22
23
21
21
26
27
29
21
20
19
16
14
18
27
34
37
42
44
47
49
45
46
46
44
45
48
48
48
49
50
51
44
41
40
41
41
38
45
44
45
45
44
45
36
36
39
37
39
38
38
37
42
45
44
37
36
35
30
25
28
31
29
26
32
35
34
38
40
41
39
38
34
36
34
52
50
51
48
41
38
37
37
36
44
41
40
41
42
43
43
44
44
47
65
133
143
145
155
158
147
144
143
141
135
138
133
132
134
131
135
100
52
47
49
48
53
54
52
47
41
36
35
38
39
35
40
41
45
46
44
47
43
45
47
42
43
42
43
41
44
46
44
42
43
44
43
39
41
40
38
38
41
40
42
38
39
40
35
35
38
39
43
41
37
38
38
36
37
35
39
40
40
41
42
37
35
33
35
35
32
35
34
38
39
38
38
42
44
43
44
45
44
41
40
41
40
40
38
38
41
42
40
40
42
43
42
49
50
52
50
45
47
42
42
44
44
45
43
40
38
33
33
36
34
30
33
31
33
35
33
31
31
29
33
31
32
32
33
33
34
33
34
34
33
34
38
41
41
39
35
32
28
24
18
19
18
20
22
24
20
26
28
29
22
19
19
17
16
19
24
33
41
44
46
45
46
43
44
45
46
49
45
46
48
49
47
46
42
40
42
42
42
41
41
44
48
45
44
44
31
34
33
31
34
33
34
34
35
41
41
42
36
30
28
24
25
28
30
24
28
28
33
36
42
41
37
35
33
32
39
49
51
50
48
41
40
37
36
36
36
39
39
39
42
41
44
42
43
47
46
100
139
146
148
153
150
152
152
147
135
133
136
132
132
132
132
133
89
48
47
50
54
51
50
43
39
34
33
36
37
38
40
42
41
45
45
46
44
45
45
44
42
42
41
44
44
45
42
43
42
42
42
39
42
40
40
39
40
41
40
40
37
38
38
37
36
41
39
42
40
39
38
39
37
39
38
41
38
39
41
39
38
35
31
32
31
34
34
38
38
37
39
41
45
43
44
43
42
43
42
41
41
39
39
38
41
40
39
42
41
42
47
50
47
50
49
46
43
41
44
44
44
46
40
37
37
34
33
32
32
33
32
31
34
33
32
31
32
31
31
32
33
33
35
31
33
33
34
33
32
36
36
39
39
37
34
31
27
21
17
19
18
21
22
21
21
23
30
27
19
18
16
18
16
18
29
41
42
44
44
43
46
47
46
43
46
44
44
45
47
48
46
44
44
44
43
43
39
41
41
42
42
43
43
42
35
36
34
31
31
28
30
34
35
37
38
40
38
29
27
26
25
27
27
26
25
29
31
35
39
37
35
34
33
32
34
50
49
47
46
43
39
35
35
36
35
37
38
40
40
39
39
40
43
44
48
51
95
132
140
145
147
148
142
139
136
132
130
130
130
130
114
117
126
99
49
48
54
54
48
43
36
36
34
38
39
39
41
43
41
41
46
45
47
45
45
45
43
43
45
44
45
45
41
41
43
39
40
40
37
40
41
43
40
42
38
37
37
36
36
37
38
39
40
41
40
41
38
38
39
40
39
39
33
36
37
37
37
37
32
33
33
35
38
37
35
37
40
39
43
42
43
42
41
41
39
41
38
40
40
39
38
41
41
40
38
40
45
49
49
49
48
48
45
43
46
46
43
42
41
39
34
33
32
33
33
33
32
32
34
33
32
33
31
30
27
31
33
32
31
35
32
32
34
33
31
38
38
41
40
39
36
30
28
22
16
16
17
20
22
21
21
27
29
27
19
16
16
17
16
22
30
37
36
42
46
44
46
46
41
43
42
43
45
45
45
50
44
45
43
40
44
43
42
46
49
54
60
54
62
65
36
36
34
33
32
31
32
32
35
37
34
36
36
32
27
27
28
27
31
28
25
29
33
35
38
35
33
36
33
31
35
50
48
47
48
44
39
37
32
33
37
38
39
40
39
38
38
41
41
39
41
45
48
64
96
114
123
130
116
120
130
127
126
129
126
128
110
86
120
123
66
53
55
53
47
38
35
31
32
38
40
39
40
40
43
43
46
45
47
48
43
42
41
43
45
42
41
42
41
42
42
37
39
39
39
40
38
38
38
43
39
40
39
38
36
37
40
38
38
38
37
37
38
37
39
41
40
38
34
35
40
38
37
36
35
33
34
35
35
35
35
35
37
41
44
44
43
42
44
41
40
38
41
40
39
39
41
39
42
41
42
48
48
51
48
46
45
45
42
40
44
45
44
43
39
35
34
33
32
29
32
33
33
31
33
31
30
31
30
29
31
31
31
31
32
34
32
35
33
34
30
35
37
38
40
39
33
31
27
21
16
18
18
18
20
19
20
25
30
27
20
18
16
16
16
21
30
40
47
43
44
45
43
42
43
43
44
43
44
42
42
44
47
46
48
51
55
62
66
93
111
125
141
149
156
164
31
33
31
34
34
33
35
34
34
36
37
37
35
34
32
27
28
27
28
27
26
28
31
31
36
37
36
35
31
30
39
46
47
46
43
41
38
34
32
35
37
39
41
40
39
37
38
39
41
40
42
44
43
45
47
43
48
46
47
73
123
125
125
126
122
124
114
50
72
82
49
50
53
48
45
39
36
34
34
38
40
39
40
39
44
46
46
47
46
46
45
42
41
45
43
41
40
39
42
43
42
38
38
38
37
41
36
39
40
40
38
39
38
38
38
38
40
40
41
39
40
38
39
38
38
39
36
36
35
35
38
37
36
39
34
33
36
36
34
37
34
36
37
39
41
43
42
43
42
39
40
40
38
39
38
39
41
39
40
41
40
45
48
50
47
46
48
45
40
42
43
43
39
39
37
36
33
31
31
33
32
34
32
32
32
33
34
32
29
31
32
33
33
33
33
32
34
29
34
32
33
33
38
38
38
35
31
29
27
20
17
18
18
19
20
20
19
24
28
22
18
16
16
15
15
22
32
41
42
43
44
45
46
45
44
42
41
41
41
48
49
52
56
63
92
116
135
152
165
172
172
173
173
173
173
174
33
28
26
30
33
35
33
33
34
33
35
30
31
35
36
30
29
25
27
27
25
28
27
29
36
35
34
32
32
30
35
43
44
44
43
40
39
34
31
34
35
37
38
41
40
38
37
38
40
40
40
41
44
44
46
46
47
44
48
67
117
117
114
106
119
119
76
49
46
48
49
47
47
48
43
39
34
33
34
36
37
41
40
41
44
47
48
48
47
45
44
44
46
44
45
41
37
42
40
40
37
38
40
43
37
37
36
40
40
38
39
39
38
38
40
38
38
39
39
39
41
37
38
37
39
37
34
35
32
32
36
37
42
36
37
37
34
32
34
34
33
35
35
43
44
45
41
40
41
39
38
39
37
39
38
40
38
36
40
41
45
48
51
51
48
45
45
43
42
43
40
42
41
38
33
34
30
30
32
32
31
30
32
31
32
35
31
31
29
29
30
32
31
32
34
33
32
34
34
31
31
34
36
37
36
35
31
32
25
21
17
17
15
20
21
19
21
28
28
24
17
15
16
16
16
18
26
37
40
42
44
42
44
44
43
42
48
51
54
75
103
134
150
166
172
172
172
175
177
175
177
177
178
178
179
179
39
37
35
32
32
30
29
29
28
30
30
30
31
32
31
33
32
27
26
25
25
26
27
27
36
31
32
31
30
28
35
43
44
44
44
39
35
32
32
34
34
34
39
36
41
38
37
38
38
40
41
41
43
42
43
46
49
46
44
47
70
88
104
86
110
84
52
48
49
51
48
45
44
47
46
38
36
31
33
39
39
38
41
39
42
48
48
47
47
45
47
44
45
44
42
39
38
40
41
40
37
39
38
40
39
39
37
37
41
38
37
40
37
39
38
41
38
37
39
38
42
41
41
40
39
34
34
35
34
34
35
38
37
36
37
35
36
32
33
33
31
36
38
39
42
39
39
37
38
42
40
38
40
38
41
38
37
37
41
40
43
48
51
50
47
42
41
41
41
42
43
40
43
37
34
34
31
31
30
31
31
33
31
31
32
30
30
31
30
29
31
31
33
32
34
32
35
34
34
31
33
35
35
37
36
33
34
30
26
20
16
16
15
18
19
17
22
25
25
21
18
17
15
16
15
14
20
30
39
43
43
40
39
42
47
54
83
118
147
163
171
170
173
177
176
178
180
179
179
179
179
178
178
179
179
177
42
40
43
37
40
34
33
31
28
28
31
30
30
31
31
31
31
28
24
22
21
24
26
29
32
33
30
29
25
25
35
43
45
42
45
39
37
29
31
37
33
35
35
36
37
38
36
38
39
41
41
41
41
43
41
43
46
47
45
44
47
52
96
41
48
47
48
48
48
47
45
44
47
46
45
40
34
33
32
33
37
39
42
43
43
45
47
45
47
48
46
47
46
41
39
40
43
42
42
39
39
41
40
41
39
41
40
40
39
38
38
37
36
39
38
37
39
39
40
39
35
40
40
39
35
34
33
35
34
34
34
35
38
38
36
35
32
33
31
31
32
34
35
36
38
39
38
40
41
40
41
40
39
39
38
37
35
37
37
42
44
49
50
45
45
45
39
41
42
42
42
40
38
35
34
30
31
29
28
30
29
30
32
30
32
30
29
31
30
31
29
33
32
32
35
35
35
35
32
32
32
34
37
39
40
38
32
26
24
20
17
15
16
16
17
18
22
27
23
21
19
16
16
17
14
15
18
24
37
42
44
47
53
71
113
143
161
167
170
172
173
177
178
177
177
180
181
180
180
180
182
181
180
180
180
180
43
43
43
42
42
40
36
32
28
29
30
30
32
30
32
33
30
30
24
21
21
25
29
27
31
33
30
30
28
27
38
44
45
42
40
34
35
31
31
33
32
37
36
36
37
36
36
38
37
39
43
42
39
40
42
43
46
45
45
43
49
62
86
46
45
47
45
47
46
45
45
42
45
41
44
39
35
33
31
33
38
39
43
41
45
43
46
45
46
47
49
46
44
41
39
44
41
42
39
41
37
39
39
40
39
41
42
38
35
39
37
39
36
37
36
37
39
40
40
40
40
40
41
37
33
32
33
33
34
34
34
34
36
37
39
38
33
31
33
32
35
36
40
39
37
35
40
39
41
41
40
39
38
42
40
39
36
38
38
43
47
46
45
44
43
43
39
40
42
43
42
40
36
33
33
33
27
26
27
29
28
30
33
32
28
28
28
30
31
32
31
32
33
32
35
34
32
34
33
31
33
36
38
39
36
34
31
28
23
19
15
16
16
16
15
19
22
24
22
19
17
15
15
16
16
16
16
26
41
46
44
74
124
154
161
165
168
170
172
176
178
180
180
180
180
180
180
181
180
181
183
181
183
181
180
181
40
37
39
40
42
41
40
37
36
34
30
30
28
30
29
31
30
28
23
19
25
28
26
26
33
30
30
31
30
25
36
41
43
38
35
35
33
32
30
32
30
36
38
39
41
39
39
39
39
40
38
40
38
39
45
43
44
43
46
45
47
84
75
46
48
48
47
46
43
47
43
43
44
45
43
39
35
33
31
34
38
41
43
42
45
44
43
44
45
45
47
45
43
42
42
42
41
43
40
39
38
40
38
39
39
39
39
38
37
39
36
36
36
33
35
37
36
39
40
39
41
38
39
36
30
34
33
33
35
34
34
35
35
40
40
38
35
32
32
36
34
37
38
36
38
37
37
39
43
41
40
40
42
42
40
40
41
40
39
43
47
46
45
44
45
41
44
42
42
42
41
35
32
33
32
30
28
27
26
28
27
29
30
31
29
30
28
29
30
31
31
32
30
31
33
30
33
33
32
30
29
34
36
35
37
34
31
27
23
18
16
15
15
16
16
19
23
23
22
20
16
15
17
15
16
15
16
32
47
48
111
151
159
163
165
168
171
174
175
179
180
180
180
180
180
180
180
181
182
182
182
181
181
182
181
181
33
32
36
36
36
39
35
37
35
35
34
34
32
32
32
29
26
26
23
23
24
24
23
23
29
29
28
28
26
28
35
41
40
38
38
38
35
35
30
34
33
35
37
35
39
36
38
36
37
37
35
37
40
41
41
42
40
40
42
39
38
70
48
42
47
47
45
43
43
44
44
42
47
44
41
40
36
30
33
35
36
38
40
42
44
43
43
42
45
44
43
43
41
42
44
43
43
42
40
42
41
40
39
36
36
36
37
36
39
37
38
39
39
35
35
35
37
41
38
39
41
39
35
36
32
33
32
33
33
37
33
35
38
37
37
35
34
33
33
35
33
35
37
36
35
37
38
37
41
39
39
38
39
42
41
41
43
43
43
44
46
46
46
45
43
43
40
40
39
41
40
35
34
33
32
28
28
27
29
25
29
28
29
29
27
26
28
32
29
33
32
30
30
31
36
32
34
30
30
26
30
32
38
36
39
36
29
26
25
16
16
16
16
15
17
19
24
22
20
21
17
15
17
16
17
17
20
35
33
98
150
156
161
166
167
170
172
175
177
179
180
181
181
181
180
179
180
182
182
182
182
182
182
180
180
180
31
31
30
30
27
32
30
31
33
34
31
32
33
32
31
29
26
32
26
25
22
21
23
24
28
28
27
29
28
26
36
42
40
39
38
36
34
34
29
31
31
37
38
41
39
37
35
36
36
37
38
40
44
41
41
40
38
39
37
35
36
61
43
42
41
47
42
42
43
42
42
42
47
46
43
40
36
33
33
37
38
39
40
42
43
39
42
44
42
45
45
44
42
44
41
40
40
41
42
41
42
39
40
40
38
38
37
36
37
38
38
39
37
35
36
37
38
36
35
39
40
34
33
35
34
36
32
33
34
33
31
35
38
37
38
37
34
33
34
36
35
34
36
35
35
37
36
38
39
37
40
39
40
41
41
39
43
43
43
46
46
43
44
46
40
40
43
40
38
39
37
33
32
33
30
28
28
27
27
28
27
29
29
27
29
29
29
31
30
30
29
31
30
34
31
32
33
32
33
28
29
33
36
34
34
35
30
30
22
15
16
14
16
14
17
19
22
22
18
16
16
15
16
16
18
18
26
41
45
110
151
157
161
165
169
171
174
177
179
180
181
182
182
181
181
181
181
182
182
182
182
182
182
180
180
180
33
33
33
30
28
30
30
29
28
29
31
33
33
32
31
28
45
59
34
23
23
23
20
23
29
28
28
29
27
24
34
41
40
38
37
39
32
34
31
29
33
33
41
38
35
37
39
38
36
36
37
40
40
40
39
41
41
39
39
36
35
79
49
51
47
49
51
43
42
43
43
42
47
45
38
37
34
31
31
36
37
39
41
43
42
41
42
42
42
42
44
42
42
42
42
41
40
40
42
40
40
41
41
40
39
38
36
37
36
38
34
36
34
36
36
36
37
34
39
37
37
33
34
33
33
34
33
35
34
33
33
31
36
35
35
35
33
34
34
38
32
34
34
34
35
38
39
38
38
36
38
39
40
41
40
39
42
44
47
48
45
44
41
41
43
40
40
38
38
38
36
33
33
31
28
26
28
30
25
28
28
30
31
29
30
31
27
31
27
29
29
27
32
36
34
31
34
31
31
28
31
35
35
34
34
36
26
26
20
15
15
16
15
15
16
21
23
23
17
17
15
15
16
15
17
21
35
40
45
107
151
157
162
167
169
174
175
178
180
181
182
184
181
181
181
181
182
183
182
182
185
183
183
182
182
182
36
37
38
39
37
38
32
30
29
27
27
31
28
29
25
32
60
64
36
20
23
21
20
23
27
27
26
28
27
26
32
37
38
38
38
37
35
36
31
30
30
32
36
37
36
36
40
38
35
34
37
39
39
37
38
38
38
36
38
40
45
95
88
161
169
185
118
43
40
40
40
41
46
42
41
37
33
32
34
32
38
41
40
41
39
43
43
44
42
41
41
43
42
40
38
42
39
38
39
37
38
41
41
37
35
35
34
35
34
34
37
33
32
33
35
36
35
37
37
37
34
34
33
31
33
34
33
32
32
34
34
35
36
36
36
36
35
34
37
36
35
34
34
34
36
40
38
37
40
40
38
40
39
39
38
40
39
44
46
47
45
46
42
41
37
39
40
36
39
36
34
30
30
28
27
28
27
26
26
24
25
31
26
27
28
30
27
29
28
29
29
31
32
31
30
34
31
31
32
29
29
32
34
34
33
30
26
23
19
17
16
15
14
14
17
22
22
20
18
18
16
14
15
16
18
25
37
40
43
100
151
157
162
167
171
175
175
177
179
180
182
183
183
182
182
183
184
184
184
183
183
183
183
183
182
180
38
37
39
37
38
38
36
39
33
29
28
27
27
25
22
29
63
63
55
23
22
19
19
23
29
30
30
26
25
23
32
36
37
40
37
35
37
32
33
31
30
32
36
31
36
38
34
37
34
36
37
36
36
36
38
37
34
37
39
43
65
94
97
47
53
95
71
42
42
39
40
41
43
42
40
35
34
35
35
35
38
39
37
39
41
42
46
43
39
39
41
42
40
43
40
39
39
39
36
38
37
40
38
34
33
35
37
33
37
35
35
36
33
36
35
33
35
36
36
39
36
35
32
31
31
28
31
32
32
32
35
35
35
34
35
34
35
35
35
33
33
33
32
33
36
37
39
39
39
40
40
37
40
39
37
38
39
45
47
47
45
41
42
43
37
36
38
40
37
34
33
31
31
31
28
28
28
26
25
27
25
29
25
23
26
26
28
28
27
28
26
28
31
31
32
33
33
32
34
30
27
33
35
35
33
29
25
18
19
16
15
14
14
15
16
21
21
18
16
16
16
14
14
16
17
30
38
42
46
87
152
159
164
167
171
174
177
177
179
179
181
182
184
182
183
184
185
186
185
184
185
185
185
183
182
183
33
38
36
37
36
37
39
41
36
37
32
30
27
26
28
29
61
63
64
27
20
21
23
23
28
24
24
23
22
22
32
38
39
36
34
36
35
32
30
31
32
34
37
35
41
37
35
37
36
37
36
36
35
38
37
39
39
39
40
44
83
86
188
163
172
177
42
37
38
40
39
42
41
41
39
36
36
35
34
36
40
37
39
36
40
44
42
43
39
40
39
39
40
42
40
38
40
36
36
36
36
37
37
34
37
36
34
35
35
33
32
32
33
34
33
34
34
36
32
33
32
32
32
28
29
32
30
33
36
35
33
34
36
33
32
36
38
41
38
36
35
34
32
34
34
35
40
38
37
37
36
37
38
38
37
42
42
47
47
45
43
39
38
38
37
39
37
38
35
33
31
27
28
25
26
26
25
26
28
26
24
27
28
25
27
27
25
26
28
27
27
24
30
32
31
31
31
30
28
28
33
33
36
34
35
28
22
19
18
16
14
14
14
15
19
21
22
15
16
18
15
14
16
16
23
34
39
41
46
75
153
160
165
168
170
177
178
177
179
179
182
182
183
181
183
183
183
184
185
185
185
184
185
185
185
185
37
34
37
35
36
37
35
36
38
38
32
33
32
33
33
30
59
61
64
51
21
23
23
22
23
24
23
22
23
23
30
32
36
37
36
35
32
35
32
32
33
34
37
34
34
33
35
37
37
36
35
34
35
36
38
39
41
41
44
49
102
74
93
109
127
121
41
37
39
39
38
43
39
42
41
34
35
33
33
35
39
37
39
36
39
40
39
38
34
41
40
38
38
41
38
36
36
35
37
37
36
37
37
37
38
35
35
38
34
35
33
33
32
34
32
34
33
35
34
34
32
32
32
31
28
32
31
35
33
35
34
35
34
35
36
40
39
39
36
36
34
34
31
32
35
35
39
37
38
37
37
37
38
37
39
40
44
45
46
40
41
42
38
35
35
37
36
35
31
33
31
29
26
24
24
23
25
26
27
30
28
26
26
26
26
25
26
27
26
27
27
29
28
32
32
31
32
31
30
28
32
33
35
36
33
27
23
23
18
16
14
14
14
15
18
20
19
15
16
15
14
16
15
18
29
35
42
41
44
64
150
161
165
169
173
178
178
178
180
177
181
182
183
182
183
182
183
184
184
185
185
186
185
185
186
187
35
35
36
32
33
36
37
34
36
33
33
34
36
35
33
32
58
62
63
62
45
23
22
21
23
22
21
22
23
23
29
33
34
34
33
33
31
34
31
30
32
33
37
34
33
34
34
37
36
35
34
40
64
50
38
39
40
48
52
54
107
112
195
186
146
133
41
39
39
42
43
42
42
39
38
34
34
35
33
35
37
34
38
38
41
40
39
36
39
37
42
39
39
41
36
35
35
36
37
37
37
39
38
37
37
36
36
37
33
34
34
35
35
29
33
33
33
32
32
31
29
31
31
31
29
29
30
32
31
33
34
33
35
35
34
38
36
35
35
36
34
34
34
34
37
35
35
35
35
34
37
38
36
36
37
44
47
42
43
43
42
41
36
36
36
38
34
36
32
29
28
25
26
28
27
25
26
27
27
29
28
27
28
28
24
25
28
27
28
28
27
27
28
31
30
32
31
30
30
32
31
30
32
31
30
30
25
23
17
13
13
14
14
18
19
19
16
15
15
16
15
15
16
23
31
37
38
41
45
52
142
160
166
167
173
176
179
178
180
177
179
183
183
183
182
183
183
183
185
184
184
184
185
185
184
185
37
38
36
33
35
36
35
37
32
32
34
33
35
32
30
51
61
62
63
63
62
43
19
19
22
23
22
20
22
20
30
35
34
35
33
37
34
33
32
32
31
34
33
33
31
34
36
38
35
36
39
45
75
64
37
41
40
168
186
190
198
196
212
165
168
98
38
38
38
38
40
43
43
39
39
37
34
32
37
35
35
35
35
35
38
40
35
35
36
38
40
39
37
36
38
35
35
36
36
37
37
37
34
37
35
34
36
34
34
34
34
35
31
30
34
35
30
28
31
32
31
28
28
28
28
26
29
33
33
35
34
33
34
35
36
36
34
35
36
36
34
35
34
32
33
37
35
34
35
35
39
37
33
36
36
43
44
44
43
44
43
39
35
35
36
37
35
31
31
30
27
27
25
27
27
25
27
28
25
29
26
27
28
26
26
25
25
27
27
26
26
24
31
29
29
32
31
28
26
28
30
33
36
30
28
22
22
20
16
14
14
14
14
19
23
20
17
16
14
16
16
16
18
26
34
38
40
42
44
47
131
158
164
167
172
174
176
179
180
180
181
183
183
183
183
184
182
183
186
184
184
184
183
185
184
184
37
34
37
37
34
36
35
34
33
33
37
35
31
30
44
59
60
60
63
66
62
56
35
22
23
22
24
24
24
21
31
33
32
35
32
32
33
33
29
30
32
32
32
33
33
33
34
31
35
38
37
38
66
67
62
47
40
193
71
78
98
153
204
193
158
61
41
36
39
40
42
41
42
41
43
35
37
35
35
35
34
37
36
36
38
37
36
38
36
37
40
38
37
34
35
38
39
37
36
37
35
37
35
36
36
34
35
34
33
32
33
36
31
32
32
32
29
30
31
30
30
25
29
29
27
28
30
32
30
31
33
30
32
32
37
36
35
35
36
36
35
34
32
34
34
34
34
37
38
37
38
37
37
36
37
44
44
42
40
41
38
34
35
35
36
36
36
31
29
28
27
28
26
26
25
26
27
30
29
30
26
27
27
24
26
23
25
23
25
26
28
30
31
30
30
33
30
28
28
28
31
33
31
30
31
26
21
21
17
14
16
14
14
19
19
19
17
16
15
17
15
16
21
29
36
39
38
45
45
47
117
157
163
168
172
175
177
178
179
180
181
183
182
184
184
184
183
185
187
186
184
184
185
185
185
184
38
36
37
38
34
35
34
33
37
37
30
34
31
51
61
58
61
64
65
65
61
56
50
31
23
24
24
20
20
21
29
35
34
32
33
36
37
32
31
30
30
32
33
31
30
34
30
34
34
37
38
46
78
75
79
74
65
186
43
84
76
141
203
210
178
45
32
37
37
40
41
42
42
41
42
38
40
34
32
33
32
34
36
37
36
36
37
38
38
38
39
37
34
34
36
35
36
37
36
37
36
35
33
35
36
34
33
33
33
32
33
31
32
32
33
31
30
27
29
27
28
28
28
27
28
28
32
27
29
31
32
32
32
32
37
35
35
34
33
35
34
33
33
34
36
36
35
36
37
39
36
37
37
37
43
46
42
42
41
41
36
34
37
36
36
37
32
33
29
24
26
25
27
24
26
27
26
28
29
25
27
27
26
27
24
25
24
23
24
25
25
30
31
29
27
26
25
25
27
28
28
32
32
31
28
20
19
19
17
14
14
15
14
17
18
16
15
16
16
17
16
22
29
33
34
37
42
41
45
45
95
155
162
166
170
174
176
178
180
181
181
182
184
183
184
184
183
185
187
188
186
185
185
185
185
185
34
35
37
38
37
33
36
33
35
38
32
29
48
60
59
63
62
63
64
64
58
55
51
44
22
21
20
18
19
19
29
33
33
34
34
35
35
32
30
31
29
31
32
32
36
32
32
34
33
37
34
36
64
77
57
53
93
172
41
95
67
95
194
106
83
40
39
40
39
39
42
41
42
42
39
39
39
33
32
34
35
38
35
38
37
37
38
38
39
39
37
35
33
33
37
37
36
35
35
32
33
38
36
35
35
35
32
32
31
31
32
32
31
30
31
31
27
28
30
25
28
26
27
28
30
30
30
28
33
31
33
32
34
36
35
36
34
33
31
34
34
34
36
36
38
35
31
37
39
35
36
37
39
39
43
42
44
42
39
38
37
38
34
36
37
34
32
28
29
25
22
25
23
23
26
29
30
29
29
28
28
27
27
26
23
23
25
24
23
23
25
27
27
28
30
26
26
26
26
26
27
31
30
31
24
23
18
17
14
13
13
14
14
18
18
17
16
16
16
19
18
26
28
35
34
37
39
41
43
45
65
152
160
165
170
172
177
177
178
180
181
182
184
184
185
183
185
186
186
185
187
185
187
187
185
185
39
38
37
34
31
33
33
36
34
34
34
36
56
58
62
62
65
64
64
61
57
55
51
43
25
23
21
22
23
20
27
30
33
36
33
33
33
31
31
32
29
31
32
32
31
31
32
34
34
34
35
37
52
79
78
77
117
157
43
94
94
199
202
172
123
41
38
39
39
42
41
41
40
38
38
37
35
32
30
33
35
35
38
35
37
39
36
37
39
37
36
32
34
33
33
36
35
34
34
35
37
34
32
35
34
35
32
33
34
34
31
34
34
31
29
28
29
25
29
25
27
25
27
29
29
28
31
29
28
31
30
35
33
34
36
35
34
34
33
33
33
33
36
38
37
31
31
35
37
33
33
38
37
39
43
40
39
41
38
37
34
36
36
36
35
30
29
29
28
27
26
23
23
24
28
28
28
28
28
24
24
28
25
23
24
23
22
21
26
27
26
26
28
28
27
28
26
27
24
28
27
27
26
26
25
22
17
15
12
12
12
12
14
20
19
16
15
16
18
18
22
25
27
34
35
35
40
41
41
46
50
138
157
163
168
173
175
175
177
179
180
180
182
183
184
185
186
186
187
187
186
186
186
188
187
187
57
41
39
36
35
36
37
39
32
31
30
49
59
60
62
67
63
62
62
60
57
56
52
47
25
22
20
21
21
21
32
30
32
34
32
34
32
31
30
27
26
33
31
32
33
32
36
35
48
59
67
71
71
64
60
81
139
133
47
95
47
135
190
143
108
40
34
38
37
40
44
43
38
38
36
34
32
29
30
36
34
38
34
34
36
39
37
38
37
36
36
33
33
33
35
37
35
34
33
34
35
35
35
34
31
30
32
33
32
35
33
31
31
32
31
26
28
26
25
27
27
27
30
28
26
25
26
31
30
28
31
33
31
35
37
34
33
30
31
31
35
34
33
37
34
33
34
35
35
35
35
36
39
41
40
39
39
39
37
37
37
33
38
36
34
29
28
27
24
24
24
24
25
29
27
29
27
27
26
28
26
26
23
24
23
25
24
22
25
23
26
26
30
25
27
27
29
27
25
28
29
29
28
25
22
23
17
13
12
11
11
12
15
19
19
16
15
16
18
20
26
26
29
35
35
40
41
47
44
48
49
113
154
161
166
173
175
175
179
180
180
180
183
184
185
186
188
187
187
187
186
186
187
188
187
188
104
87
60
43
39
41
42
37
34
34
35
52
60
61
62
63
62
62
62
60
56
56
50
47
25
23
21
22
20
27
30
31
33
29
34
32
30
30
29
30
31
30
32
32
32
35
32
48
48
56
37
42
42
41
42
62
156
119
51
91
130
182
176
147
79
36
37
36
38
38
38
36
37
38
37
31
30
32
33
33
33
34
35
37
37
36
35
36
36
33
31
31
33
34
34
36
35
35
34
34
33
34
34
34
35
31
33
35
31
29
30
30
31
28
25
25
25
25
25
22
24
27
28
28
27
26
30
30
31
29
29
33
31
33
36
32
32
30
31
30
33
33
33
35
35
35
33
33
33
31
35
35
37
42
39
39
41
40
37
35
38
35
34
36
34
27
25
25
23
23
21
23
25
29
27
28
28
28
28
25
25
26
25
23
24
24
23
21
25
24
25
26
29
28
28
28
26
27
30
29
26
27
29
25
24
20
17
16
12
12
12
12
16
20
21
17
15
18
19
21
25
29
32
33
36
40
38
44
45
48
49
81
152
159
165
170
175
174
177
179
179
181
184
184
185
186
187
186
187
187
188
188
187
188
188
189
116
112
105
86
62
44
38
37
31
33
43
60
60
61
62
62
62
63
60
59
56
56
49
47
24
21
23
18
19
25
34
31
32
30
33
34
28
29
31
31
29
32
28
28
28
31
35
126
151
134
117
159
62
108
55
84
170
94
56
82
100
177
179
155
66
38
36
39
38
39
38
38
36
40
38
33
31
33
32
34
32
32
36
38
39
40
34
36
32
33
32
32
32
34
35
32
35
32
33
32
32
32
33
32
30
32
30
34
31
29
31
31
30
27
25
25
23
26
24
23
28
29
27
27
28
26
30
29
29
29
30
31
31
33
32
32
31
30
28
28
35
34
35
35
32
31
32
32
34
32
33
37
39
40
39
35
40
39
36
33
32
30
32
31
28
27
26
24
23
22
21
23
27
26
27
26
29
28
23
26
25
25
23
23
22
23
22
22
23
25
25
26
27
28
26
29
25
25
26
29
30
29
25
22
21
18
15
16
12
13
13
13
16
19
17
16
15
18
22
23
25
27
30
32
37
40
41
40
43
46
50
51
136
154
164
169
174
175
177
179
179
181
182
182
184
186
187
186
187
187
188
188
189
190
189
189
118
116
110
106
96
79
56
36
32
34
55
60
61
64
62
64
61
64
61
61
56
57
49
44
24
21
21
21
20
20
29
30
29
30
33
31
33
31
31
32
29
29
28
33
32
30
32
144
168
107
150
147
68
143
102
164
188
171
132
77
156
168
147
118
37
36
35
40
39
39
39
38
36
37
35
33
35
33
31
35
35
33
33
35
36
38
36
34
31
32
33
30
35
31
35
32
33
31
30
33
35
33
30
30
32
32
32
34
31
31
32
28
27
26
27
27
26
24
27
26
24
24
26
28
29
28
27
27
28
32
34
32
33
31
30
30
30
31
27
27
31
32
33
32
32
33
31
30
33
32
35
38
39
39
34
37
38
34
35
30
32
31
31
30
26
23
22
21
20
22
23
23
26
26
26
26
28
24
28
23
22
21
24
24
25
21
22
22
21
25
25
29
28
29
27
29
28
26
27
29
28
30
25
22
21
20
15
15
13
12
13
13
19
21
18
15
15
18
24
25
26
29
30
34
35
38
41
44
42
44
49
46
107
151
161
166
169
174
176
178
179
180
181
182
183
184
186
187
186
188
188
190
191
189
190
190
118
115
114
109
104
91
84
62
55
54
59
58
61
61
59
61
63
61
59
57
57
51
48
46
23
22
20
20
21
21
29
27
31
32
29
29
30
29
29
28
28
26
28
30
32
34
30
140
117
76
143
153
66
132
123
137
179
150
136
63
166
186
164
177
48
35
37
37
39
38
38
39
36
32
33
32
32
32
31
29
30
33
33
36
36
37
32
32
31
32
31
31
34
33
35
31
32
30
33
34
33
33
32
29
30
30
33
31
29
30
30
27
28
26
25
25
25
23
25
25
25
27
28
28
28
26
28
27
26
32
29
30
32
31
31
33
30
28
29
29
32
32
31
30
29
30
32
31
32
30
31
37
37
34
36
37
33
29
30
30
28
29
29
25
23
21
22
21
21
23
27
26
29
25
27
28
29
24
25
26
24
24
24
23
24
23
25
24
24
25
25
25
28
27
28
24
24
28
30
27
29
29
26
23
17
17
17
15
13
12
13
15
18
17
18
14
17
18
23
23
24
28
32
35
34
40
41
41
43
44
46
49
60
142
157
163
168
172
174
178
180
180
180
179
183
186
186
188
187
188
189
190
191
191
191
190
118
115
114
110
102
95
82
68
55
58
62
60
58
60
57
62
61
62
61
59
55
55
50
46
23
22
22
22
19
19
27
31
31
30
30
31
32
33
32
25
30
28
32
32
30
31
29
36
36
35
46
53
49
75
110
145
186
172
121
74
164
189
181
136
35
36
37
38
37
36
38
40
37
35
33
33
32
35
31
33
31
34
35
37
34
35
29
29
31
31
29
32
32
33
29
30
30
30
30
32
31
31
31
31
31
31
31
31
30
30
31
29
28
27
27
24
24
22
22
24
26
25
25
27
29
26
27
26
28
31
30
32
29
34
29
30
28
27
29
28
32
30
29
30
30
29
27
28
29
30
29
36
37
32
34
32
31
26
28
28
27
28
29
25
24
21
23
24
21
23
25
26
28
25
26
28
30
23
24
25
25
24
22
23
22
24
24
22
26
24
22
25
29
26
26
26
26
27
25
28
29
27
27
21
19
14
13
13
11
12
13
14
17
19
15
16
17
19
22
25
24
28
33
37
35
39
43
40
40
43
45
48
51
113
150
160
167
172
174
176
178
179
178
181
184
185
186
188
189
189
189
188
191
191
192
192
