P2
# Created by GIMP version 3.2.0 PNM plug-in
256 256
255
193
194
195
195
195
196
197
197
198
199
200
200
200
200
200
200
200
200
200
201
201
201
201
202
202
202
202
201
201
200
200
201
201
202
202
202
202
202
203
204
204
205
206
206
206
207
208
208
209
210
210
210
211
211
211
209
209
209
210
210
210
211
212
212
212
212
213
214
214
214
214
213
213
213
213
213
213
212
212
212
212
212
211
210
210
210
210
210
210
210
210
210
210
210
210
210
210
209
209
209
209
208
207
206
205
203
202
201
200
200
200
199
197
195
193
192
190
188
188
187
187
186
187
188
188
187
187
187
186
186
186
186
187
187
187
188
188
188
188
188
188
187
187
187
187
186
186
186
186
186
186
187
187
187
187
187
187
187
187
187
187
187
187
187
187
187
187
187
187
187
187
187
187
187
187
187
187
186
186
186
186
186
186
186
186
186
186
186
186
186
186
185
185
185
185
185
185
185
185
185
185
185
185
185
185
185
185
185
185
185
185
185
185
185
185
185
185
185
185
184
184
184
184
184
184
184
184
184
184
184
184
184
184
184
184
184
184
184
184
184
184
184
184
184
184
183
182
181
181
181
181
181
181
181
181
181
196
196
196
196
197
198
199
199
200
201
202
202
202
203
204
204
204
205
205
205
205
206
206
206
207
207
207
206
206
206
206
206
207
207
207
207
207
208
208
208
209
210
210
210
210
211
211
211
212
213
213
213
214
214
214
213
213
214
214
215
215
216
216
217
217
218
218
218
219
218
218
218
218
218
218
217
217
217
217
217
216
216
216
215
215
215
215
215
215
215
215
215
215
215
215
215
214
214
214
214
213
212
211
210
208
207
205
204
203
201
200
199
197
196
194
192
190
189
188
188
187
187
187
188
188
187
187
187
186
186
186
186
187
188
188
188
188
188
188
188
188
187
187
187
187
187
187
186
186
186
186
187
187
187
187
187
187
187
187
187
187
187
187
187
187
187
187
187
187
187
187
187
187
187
187
187
187
186
186
186
186
186
186
186
186
186
186
186
186
186
186
185
185
185
185
185
185
185
185
185
185
185
185
185
185
185
185
185
185
185
185
185
185
185
185
185
185
185
185
184
184
184
184
184
184
184
184
184
184
184
184
184
184
184
184
184
184
184
184
184
184
184
184
184
184
183
183
182
182
182
182
182
182
182
182
182
200
200
201
201
201
202
203
204
205
205
206
206
206
208
209
210
210
211
211
211
211
212
212
212
212
212
212
213
213
213
213
213
214
214
214
214
214
215
215
215
216
216
216
216
217
217
217
217
217
218
218
218
218
219
219
219
219
219
220
221
221
221
222
223
223
223
223
224
224
223
223
223
223
223
223
223
222
222
222
222
221
221
220
220
220
220
220
220
220
220
220
220
220
220
220
220
219
219
218
218
217
216
214
213
211
210
208
207
205
202
200
199
198
196
194
192
190
189
189
188
188
188
188
188
188
188
188
187
186
186
186
186
187
188
188
188
188
188
188
188
188
188
188
187
187
187
187
187
186
186
186
187
187
187
187
187
187
187
187
187
187
187
187
187
187
187
187
187
187
187
187
187
187
187
187
187
187
186
186
186
186
186
186
186
186
186
186
186
186
186
186
185
185
185
185
185
185
185
185
185
185
185
185
185
185
185
185
185
185
185
185
185
185
185
185
185
185
185
185
184
184
184
184
184
184
184
184
184
184
184
184
184
184
184
184
184
184
184
184
184
184
184
184
184
184
183
183
182
182
182
182
182
182
182
182
182
206
206
206
207
207
208
209
210
211
211
211
211
212
214
215
216
216
216
216
216
217
217
217
217
217
217
217
218
219
219
219
219
220
220
220
220
220
220
220
220
221
221
222
222
222
222
222
222
222
222
222
222
222
222
222
223
223
223
223
224
224
224
225
225
225
226
226
226
226
226
226
226
225
225
225
225
224
224
224
224
224
223
223
223
223
223
223
223
223
223
223
223
223
223
222
222
221
220
220
219
218
217
216
214
212
210
208
207
206
203
200
199
197
196
194
193
191
190
190
189
189
189
189
189
188
188
188
187
186
186
186
187
187
188
188
188
188
188
188
188
188
188
188
188
187
187
187
187
187
187
187
187
187
187
187
187
187
187
187
187
187
187
187
187
187
187
187
187
187
187
187
187
187
187
187
187
187
186
186
186
186
186
186
186
186
186
186
186
186
186
186
185
185
185
185
185
185
185
185
185
185
185
185
185
185
185
185
185
185
185
185
185
185
185
185
185
185
185
185
184
184
184
184
184
184
184
184
184
184
184
184
184
184
184
184
184
184
184
184
184
184
184
184
184
184
184
184
183
183
183
183
183
183
183
183
183
213
213
213
213
214
214
215
216
216
217
217
217
218
219
219
220
220
220
220
220
220
221
221
221
221
221
221
222
223
223
223
223
223
223
223
223
223
223
223
223
224
224
225
225
225
224
224
224
224
223
223
223
223
222
222
222
222
222
222
223
223
223
223
224
224
224
224
225
224
224
224
224
223
223
223
223
222
222
222
222
222
221
221
221
221
221
221
221
221
221
221
221
221
221
220
219
218
218
217
217
216
215
213
211
209
208
206
205
203
201
199
198
197
196
194
193
191
190
190
190
190
191
190
189
188
188
188
187
187
187
187
187
187
188
188
189
189
189
189
189
188
188
188
188
188
187
187
187
187
187
187
188
188
188
188
188
188
188
188
188
188
188
188
188
188
188
188
188
188
188
188
188
188
188
188
188
188
187
186
186
186
186
186
186
186
186
186
186
186
186
186
185
185
185
185
185
185
185
185
185
185
185
185
185
185
185
185
185
185
185
185
185
185
185
185
185
185
185
185
185
185
185
185
185
185
185
185
185
185
185
185
185
185
185
185
185
185
185
185
185
185
185
185
185
185
185
185
185
185
185
185
185
185
185
185
185
218
218
218
219
219
219
220
220
220
221
221
222
222
222
223
223
223
222
222
222
223
223
223
223
223
223
223
223
224
224
224
224
223
223
223
223
223
223
223
223
223
223
223
223
223
223
222
222
222
222
221
221
221
220
219
218
218
218
218
218
219
219
219
219
219
220
220
220
220
219
219
219
219
218
218
218
218
217
217
217
217
217
217
216
216
216
216
216
216
216
216
216
216
216
216
215
214
213
213
213
211
210
208
207
205
204
202
201
200
199
198
197
196
195
193
192
191
191
191
191
191
191
191
190
189
188
188
188
187
187
187
187
188
189
189
189
189
189
189
189
189
188
188
188
188
188
188
187
187
187
187
188
188
188
188
188
188
188
188
188
188
188
188
188
188
188
188
188
188
188
188
188
188
188
188
188
188
187
187
187
187
187
187
187
187
187
187
187
187
187
187
186
186
186
186
186
186
186
186
186
186
186
186
186
186
186
186
186
186
186
186
186
186
186
186
186
186
186
186
186
186
186
186
186
186
186
186
186
186
186
186
186
186
186
186
186
186
186
186
186
186
186
186
186
186
186
186
186
186
186
186
186
186
186
186
186
219
219
220
220
220
220
221
221
221
221
222
222
222
222
223
224
224
223
223
223
223
223
222
222
222
222
222
222
222
222
222
222
222
221
221
221
221
221
221
221
220
219
219
219
219
218
218
218
217
217
217
216
216
216
215
214
214
214
214
214
215
215
215
215
215
215
215
215
215
215
215
215
214
214
214
214
213
213
213
213
213
212
212
212
212
212
212
212
212
212
212
212
212
212
212
211
209
209
209
208
207
206
205
204
202
201
199
198
197
196
196
196
195
194
192
191
191
190
190
191
191
191
191
190
189
189
189
188
188
188
188
188
188
189
189
189
190
189
189
189
189
189
189
188
188
188
188
188
188
188
188
189
189
189
189
189
189
189
189
189
189
189
189
189
189
189
189
189
189
189
189
189
189
189
189
189
188
188
188
188
188
188
188
188
188
188
188
188
188
188
188
187
187
187
187
187
187
187
187
187
187
187
187
187
187
187
187
187
187
187
187
187
187
187
187
187
187
186
186
186
186
186
186
186
186
186
186
186
186
186
186
186
186
186
186
186
186
186
186
186
186
186
186
186
186
186
186
186
186
186
186
186
186
186
186
186
217
217
217
217
217
217
218
218
218
218
219
219
219
219
220
221
221
221
220
220
220
219
219
219
219
219
218
218
218
218
218
217
217
217
217
217
216
216
216
216
215
214
213
212
212
212
212
212
211
211
211
210
211
210
210
209
209
210
210
210
209
209
209
210
210
210
210
210
210
210
210
210
210
209
209
209
208
208
208
208
208
207
207
207
207
207
207
207
207
207
207
207
207
207
207
206
205
204
204
204
203
202
202
201
199
198
197
196
195
194
194
194
193
192
191
190
190
190
190
190
191
191
191
190
189
189
189
188
188
188
188
188
188
189
189
190
190
190
190
189
189
189
189
189
188
188
188
188
188
188
188
189
189
189
189
189
189
189
189
189
189
189
189
189
189
189
189
189
189
189
189
189
189
189
189
189
189
188
188
188
188
188
188
188
188
188
188
188
188
188
188
187
187
187
187
187
187
187
187
187
187
187
187
187
187
187
187
187
187
187
187
187
187
187
187
187
187
187
187
186
186
186
186
186
186
186
186
186
186
186
186
186
186
186
186
186
186
186
186
186
186
186
186
186
186
186
186
186
186
186
186
186
186
186
186
186
212
212
212
212
212
212
212
213
213
213
213
213
213
214
214
215
215
215
215
214
214
213
213
213
213
213
213
212
212
212
212
211
211
210
210
210
210
210
210
209
208
208
207
206
206
206
206
205
205
205
205
205
205
205
205
204
204
204
204
204
204
204
204
204
204
204
204
204
205
205
205
205
205
205
205
204
204
203
203
203
203
203
203
202
202
202
202
202
202
202
202
202
202
202
202
202
200
200
200
200
200
199
199
198
197
196
195
194
193
193
193
193
192
191
190
189
189
189
189
189
190
191
191
190
189
189
189
188
188
188
188
188
188
189
189
190
190
190
190
190
189
189
189
189
189
188
188
188
188
188
188
189
189
189
189
189
189
189
189
189
189
189
189
189
189
189
189
189
189
189
189
189
189
189
189
189
189
188
188
188
188
188
188
188
188
188
188
188
188
188
188
187
187
187
187
187
187
187
187
187
187
187
187
187
187
187
187
187
187
187
187
187
187
187
187
187
187
187
187
186
186
186
186
186
186
186
186
186
186
186
186
186
186
186
186
186
186
186
186
186
186
186
186
186
186
185
185
185
185
185
185
185
185
185
185
185
207
207
207
208
208
208
208
208
208
208
208
208
208
209
209
209
209
209
209
208
208
208
207
207
207
207
206
206
206
205
205
205
205
204
204
204
204
204
203
203
203
202
202
202
202
201
201
201
201
201
201
201
201
201
201
201
200
200
200
200
200
200
200
200
200
200
200
200
201
201
201
201
201
201
201
200
200
200
200
199
199
199
199
198
198
198
198
198
198
198
198
198
198
199
199
198
197
197
197
197
197
196
196
196
195
194
193
192
192
193
193
192
191
191
189
188
188
188
189
189
189
190
190
190
190
189
189
189
188
188
188
189
189
189
189
190
190
190
190
190
190
189
189
189
189
189
188
188
188
189
189
189
189
189
189
189
189
189
189
189
189
189
189
189
189
189
189
189
189
189
189
189
189
189
189
189
189
188
188
188
188
188
188
188
188
188
188
188
188
188
188
188
187
187
187
187
187
187
187
187
187
187
187
187
187
187
187
187
187
187
187
187
187
187
187
187
187
187
187
186
186
186
186
186
186
186
186
186
186
186
186
186
186
186
186
186
186
186
186
186
186
186
186
186
186
186
185
184
184
184
184
184
184
184
184
184
203
203
203
203
204
204
204
204
204
204
204
203
203
203
203
203
203
203
203
203
203
203
203
202
202
202
201
200
199
199
199
198
198
198
198
198
198
198
198
198
198
198
198
198
198
198
197
197
197
197
197
197
197
198
198
198
198
198
198
198
198
198
198
198
198
198
198
198
197
197
197
197
197
197
197
197
197
197
197
197
197
196
196
196
196
196
196
196
196
196
196
196
196
196
196
195
194
194
194
194
193
193
193
193
192
192
192
191
191
192
192
192
192
191
191
191
191
191
191
191
191
191
191
191
191
190
190
190
190
190
190
190
190
190
190
191
191
191
191
191
191
190
190
190
190
190
190
190
190
190
190
190
190
190
190
190
190
190
190
190
190
190
190
190
190
190
190
190
190
190
190
190
190
190
190
190
190
189
189
189
189
189
189
189
189
190
190
190
190
190
190
189
188
188
188
188
188
188
188
188
188
188
188
188
188
188
188
188
188
188
188
188
188
188
188
188
188
188
188
187
187
187
187
187
187
187
187
187
187
187
187
187
187
187
187
187
187
187
187
187
187
187
187
187
187
187
186
186
186
186
186
186
186
186
186
186
198
198
198
199
199
200
200
200
200
199
199
198
198
198
198
198
198
198
198
198
198
198
198
198
198
198
198
197
196
195
195
195
195
195
195
195
195
195
195
195
195
195
195
195
195
195
195
195
195
195
195
195
195
196
196
196
196
196
196
196
196
196
196
196
196
197
197
196
196
195
195
195
195
195
195
195
195
195
195
195
195
195
195
194
194
194
194
194
194
194
194
194
194
195
195
194
193
193
193
192
192
192
192
192
191
191
191
191
191
192
192
192
192
192
192
192
192
192
192
192
192
192
192
191
191
191
191
191
191
191
191
191
191
191
191
191
191
191
191
191
191
191
191
191
191
191
191
191
191
191
191
190
190
190
190
190
190
190
190
190
190
190
190
190
190
190
190
190
190
190
190
190
190
190
190
190
190
189
189
189
189
190
190
190
190
191
191
191
191
191
191
190
189
189
189
189
189
189
189
189
189
189
189
189
189
189
189
189
189
189
189
189
189
189
189
189
189
189
189
188
188
188
188
188
188
188
188
188
188
188
188
188
188
188
188
188
188
188
188
188
188
188
188
188
188
187
187
187
187
187
187
187
187
187
187
187
194
194
194
195
195
196
196
196
195
195
195
195
194
194
194
194
194
194
194
194
194
194
194
194
194
194
194
194
195
195
195
195
195
195
195
195
195
195
195
195
195
195
195
195
195
195
195
195
195
195
195
195
195
195
195
196
196
196
196
196
196
196
196
196
196
196
196
196
195
195
195
195
195
195
195
195
195
195
195
195
195
194
194
194
194
194
194
194
194
194
194
194
194
194
194
193
193
193
193
192
192
192
192
192
191
191
191
191
191
192
192
192
192
192
192
192
192
192
192
192
192
192
192
191
191
191
191
191
191
191
191
191
191
191
191
191
191
191
191
191
191
191
191
191
191
191
191
191
191
191
191
190
190
190
190
190
190
190
190
190
190
190
190
190
190
190
190
190
190
190
190
190
190
190
190
190
190
189
189
189
190
190
190
190
191
191
191
191
191
191
191
190
189
189
189
189
189
189
189
189
189
189
189
189
189
189
189
189
189
189
189
189
189
189
189
189
189
189
189
188
188
188
188
188
188
188
188
188
188
188
188
188
188
188
188
188
188
188
188
188
188
188
188
188
188
188
188
187
187
187
187
187
187
187
187
187
191
191
192
192
192
193
193
193
193
193
192
191
191
191
191
191
191
191
191
191
191
191
191
191
191
191
192
193
194
194
194
194
194
194
194
194
194
194
194
194
194
194
194
194
194
194
194
194
194
194
194
194
194
194
194
195
195
195
195
195
195
195
195
195
195
195
195
195
194
194
194
194
194
194
194
194
194
194
194
194
194
193
193
193
193
193
193
193
193
193
193
193
193
193
193
193
193
193
193
192
192
192
192
192
191
191
191
191
191
192
192
192
192
192
192
192
192
192
192
192
192
192
192
191
191
191
191
191
191
191
191
191
191
191
191
191
191
191
191
191
191
191
191
191
191
191
191
191
191
191
191
190
190
190
190
190
190
190
190
190
190
190
190
190
190
190
190
190
190
190
190
190
190
190
190
190
190
190
190
190
190
190
190
191
191
192
192
192
192
192
192
191
190
190
190
190
190
190
190
190
190
190
190
190
190
190
190
190
190
190
190
190
190
190
190
190
190
190
190
189
189
189
189
189
189
189
189
189
189
189
189
189
189
189
189
189
189
189
189
189
189
189
189
189
189
188
188
188
188
188
188
188
188
188
188
188
191
191
191
191
192
193
193
193
192
192
192
191
191
191
192
192
192
192
192
192
192
192
192
192
192
192
192
192
192
192
192
192
192
192
192
192
192
192
192
192
192
192
192
192
192
192
192
192
192
192
192
192
192
193
193
193
193
193
193
193
193
193
193
193
193
193
193
193
193
193
193
193
193
193
193
193
193
193
193
193
193
193
193
192
192
192
192
192
192
192
192
192
192
192
192
192
193
193
193
192
192
192
192
192
191
191
191
191
191
192
192
192
192
192
192
192
192
192
192
192
192
192
192
192
192
192
192
192
192
192
192
192
192
192
192
192
192
192
192
192
192
192
192
192
192
192
192
192
192
191
191
191
191
191
191
191
191
191
191
191
191
191
191
191
191
191
191
191
191
191
191
191
191
191
191
191
191
191
191
191
191
191
191
192
192
192
192
192
193
193
193
192
191
191
191
191
191
191
191
191
191
191
191
191
191
191
191
191
191
191
191
191
191
191
191
191
191
191
191
190
190
190
190
190
190
190
190
190
190
190
190
190
190
190
190
190
190
190
190
190
190
190
190
190
190
189
189
189
189
189
189
189
189
189
189
189
190
190
190
191
192
192
192
192
192
191
191
190
190
191
191
191
191
191
191
191
191
191
191
191
191
191
191
191
191
191
191
191
191
191
191
191
191
191
191
191
191
191
191
191
191
191
191
191
191
191
191
191
191
191
191
192
192
192
192
192
192
192
192
192
192
192
192
192
192
192
192
192
192
192
192
192
192
192
192
192
192
192
192
193
193
193
193
193
193
193
193
193
193
193
193
193
194
194
194
193
193
193
193
192
192
192
192
192
192
192
192
192
192
192
192
192
192
192
192
192
192
192
192
192
193
193
193
193
193
193
193
193
193
193
193
193
193
193
193
193
193
193
193
193
193
193
193
193
193
192
192
191
191
191
191
191
191
191
191
191
191
191
191
191
191
191
191
191
191
191
191
191
191
191
191
191
191
191
191
191
192
192
192
192
192
193
193
193
193
193
193
193
192
192
192
192
192
192
192
192
192
192
192
192
192
192
192
192
192
192
192
192
192
192
192
192
192
192
192
191
191
191
191
191
191
191
191
191
191
191
191
191
191
191
191
191
191
191
191
191
191
191
191
191
191
191
191
190
190
190
190
190
190
190
190
190
189
189
189
190
190
191
191
191
191
190
190
189
189
190
190
190
190
190
190
190
190
190
190
190
190
190
190
190
190
190
190
190
190
190
190
190
190
190
190
190
190
190
190
190
190
190
190
190
190
190
190
190
190
190
190
191
191
191
191
191
191
191
191
191
191
191
191
191
192
192
192
192
192
192
192
192
192
192
192
192
192
193
193
193
193
193
193
193
193
193
193
193
193
193
193
193
194
194
194
193
193
193
193
193
192
192
192
192
192
192
192
192
192
192
192
192
192
192
192
192
192
192
192
193
193
193
193
193
193
193
193
193
193
193
193
193
193
193
193
193
193
193
193
193
193
193
193
193
193
192
192
191
191
191
191
191
191
191
191
191
191
191
191
191
191
191
191
191
191
191
191
191
191
191
191
191
191
191
191
192
192
192
192
192
193
193
193
193
193
194
194
194
193
193
193
193
193
193
193
193
193
193
193
193
193
193
193
193
193
193
193
193
193
193
193
193
193
193
193
192
192
192
192
192
192
192
192
192
192
192
192
192
192
192
192
192
192
192
192
192
192
192
192
192
192
192
192
191
191
191
191
191
191
191
191
191
188
188
188
188
189
190
190
190
189
189
189
188
188
189
189
189
189
189
189
189
189
189
189
189
189
189
189
190
190
190
190
190
190
190
190
190
190
190
190
190
190
190
190
190
190
190
190
190
190
190
190
190
190
190
190
191
191
191
191
191
191
191
191
191
191
191
191
191
192
192
192
192
192
192
192
192
192
192
192
192
192
193
193
193
193
193
193
193
193
193
193
193
193
193
193
193
194
194
194
193
193
193
193
193
192
192
192
192
192
192
192
192
192
192
192
192
192
192
192
192
192
192
192
193
193
193
193
193
193
193
193
193
193
193
193
193
193
193
193
193
193
193
193
193
193
193
193
193
193
193
193
192
192
192
192
192
192
192
192
192
192
192
192
192
192
192
192
192
192
192
192
192
192
192
192
192
192
192
192
192
192
193
193
193
194
194
194
194
194
194
194
194
194
194
194
194
194
194
194
194
194
194
194
194
194
194
194
194
194
194
194
194
194
194
194
194
194
194
194
193
193
193
193
193
193
193
193
193
193
193
193
193
193
193
193
193
193
193
193
193
193
193
193
193
193
193
193
192
192
192
192
192
192
192
192
192
187
188
188
189
189
189
189
189
189
189
189
188
187
188
189
189
189
189
189
189
189
189
189
189
189
189
189
190
191
191
191
191
191
191
191
191
191
191
191
191
191
191
191
191
191
191
191
191
191
191
191
191
191
191
191
192
192
192
192
192
192
192
192
192
192
192
192
192
193
193
193
193
193
193
193
193
193
193
193
193
193
193
193
194
194
194
194
194
194
194
194
194
194
194
194
194
194
194
194
193
193
193
193
193
192
192
192
192
192
192
192
192
192
192
192
192
192
192
192
192
192
192
192
193
193
193
193
193
193
193
193
193
193
193
193
193
193
193
193
193
193
193
193
193
193
193
193
193
193
193
193
192
192
192
192
192
192
192
192
192
192
192
192
192
192
192
192
192
192
192
192
192
192
192
192
192
192
193
193
193
193
193
193
194
194
194
194
194
195
195
195
195
195
195
195
195
195
195
195
195
195
195
195
195
195
195
195
195
195
195
195
195
195
195
195
195
195
195
195
194
194
194
194
194
194
194
194
194
194
194
194
194
194
194
194
194
194
194
194
194
194
194
194
194
194
193
193
193
193
193
193
193
193
193
193
193
189
190
190
190
190
191
191
191
190
190
190
189
189
190
190
191
191
191
191
191
191
191
191
191
191
190
190
191
191
191
191
191
191
191
191
191
191
191
191
191
191
191
191
191
191
191
191
191
191
191
191
191
191
191
192
193
193
193
193
193
193
193
193
193
193
193
193
193
193
193
193
193
193
193
193
193
193
193
193
193
193
193
194
194
193
194
194
194
194
194
194
193
194
194
194
194
194
193
193
193
193
192
192
193
192
192
192
192
192
192
192
192
192
192
192
192
192
192
192
192
192
192
192
193
193
193
193
193
193
193
193
193
193
193
193
193
193
193
193
192
193
192
192
193
193
192
192
193
193
192
192
192
191
192
192
192
191
192
192
191
192
192
192
192
192
192
192
192
192
192
192
192
192
192
192
192
192
193
193
193
193
194
194
194
194
194
194
195
195
195
195
195
195
195
195
195
195
195
195
195
195
195
195
195
195
195
195
195
195
195
195
195
195
195
195
195
195
195
195
194
194
194
194
194
194
194
194
194
194
194
194
194
194
194
194
194
194
194
194
194
194
194
194
194
194
193
193
193
193
193
193
193
193
193
193
193
190
191
191
191
191
191
191
191
191
191
191
191
191
191
191
192
192
192
192
192
192
192
192
192
192
192
192
192
192
192
192
192
192
192
192
192
192
192
192
192
192
192
192
192
192
192
192
192
192
192
192
192
191
192
192
193
193
193
193
193
193
193
193
193
193
193
193
193
193
194
194
194
193
193
193
193
193
193
193
192
192
193
193
193
193
193
193
193
193
193
193
193
193
193
193
193
193
193
193
193
192
192
192
192
192
192
192
192
192
192
192
192
192
192
192
192
192
192
192
192
192
192
192
193
193
193
193
193
193
193
193
193
193
193
193
193
193
192
192
192
192
192
192
192
192
192
192
192
192
192
192
192
192
192
192
192
192
192
192
192
192
192
192
192
192
193
193
193
193
193
193
193
193
193
193
193
193
193
193
194
194
195
195
195
195
196
196
196
197
197
197
196
195
196
196
196
196
196
196
196
196
196
196
196
196
196
196
196
196
196
196
196
196
196
196
196
196
195
195
195
195
195
195
195
195
195
195
195
195
195
195
195
195
195
195
195
195
195
195
195
195
195
195
195
195
194
194
194
194
194
194
194
194
194
194
194
191
191
191
191
191
191
191
191
191
191
191
191
191
191
192
192
192
192
192
192
192
192
192
192
192
192
192
192
192
192
192
192
192
192
192
192
192
192
192
192
192
192
192
192
192
192
192
192
192
192
192
192
192
192
192
193
193
193
193
193
193
193
193
193
193
193
193
193
194
194
194
194
194
194
194
194
194
193
193
193
193
192
192
192
193
192
192
193
193
192
192
193
192
193
193
193
192
193
193
193
193
193
193
192
193
193
193
192
192
193
193
193
193
193
193
193
193
193
193
193
193
193
193
193
193
193
193
193
193
193
193
193
193
193
193
193
192
192
192
193
192
193
193
193
193
193
193
192
193
193
193
192
193
193
193
193
193
192
192
193
193
192
192
192
193
193
193
193
193
193
193
193
193
193
193
193
193
194
194
194
194
195
195
196
196
197
197
197
198
198
198
197
196
196
196
196
196
196
196
196
196
196
196
196
196
196
196
196
196
196
196
196
196
196
196
196
196
196
196
195
195
195
195
195
195
195
195
195
195
195
195
195
196
196
196
196
196
196
196
196
196
196
196
196
196
195
195
195
195
195
195
195
195
195
195
195
190
190
190
190
190
190
190
190
190
190
190
190
190
191
191
192
192
192
192
192
192
192
192
192
192
192
192
192
192
192
192
192
192
192
192
192
192
192
192
192
192
192
192
192
192
192
192
192
192
192
192
192
192
192
192
193
193
193
193
193
193
193
193
193
193
193
193
193
194
194
194
195
195
195
195
195
195
195
195
195
194
193
193
192
193
193
193
193
193
193
193
193
193
193
193
193
193
193
193
193
193
193
193
193
193
193
193
193
193
194
194
194
194
194
194
194
194
194
194
194
194
194
194
193
193
193
193
193
193
193
193
193
193
193
193
193
192
192
192
193
193
193
193
193
193
193
193
193
193
193
193
193
193
193
193
193
193
193
193
193
193
192
192
192
193
193
193
193
193
193
193
193
193
193
193
193
193
194
194
194
194
195
195
196
197
197
197
197
198
198
198
197
196
196
196
196
196
196
196
196
196
196
196
196
196
196
196
196
196
196
196
196
196
196
196
196
196
196
196
195
195
195
195
195
195
195
195
195
195
195
195
195
196
196
196
196
196
196
196
196
196
196
196
196
196
195
195
195
195
195
195
195
195
195
195
195
189
189
189
189
189
189
189
189
189
189
189
189
189
190
191
192
192
192
192
192
192
192
192
192
192
192
192
192
192
192
192
192
192
192
192
192
192
192
192
192
192
192
192
192
192
192
192
192
192
192
192
192
192
192
192
193
193
193
193
193
193
193
193
193
193
193
193
193
192
192
192
193
193
194
194
194
194
195
195
196
195
194
193
192
193
193
193
193
193
193
193
193
193
193
193
193
193
193
193
193
193
193
193
193
193
193
193
193
193
194
195
195
195
195
195
195
195
195
195
195
195
195
194
193
193
193
193
193
193
193
193
193
193
193
193
193
192
192
192
192
192
192
192
192
192
192
192
192
192
192
192
192
192
192
192
192
192
192
192
192
192
192
192
192
193
193
193
193
193
193
193
193
193
193
193
193
193
194
194
195
195
195
195
196
197
197
197
198
198
198
198
197
197
197
197
197
197
197
197
197
197
197
197
197
197
197
197
197
197
197
197
197
197
197
197
197
197
197
197
196
196
196
196
196
196
196
196
196
196
196
196
196
196
196
196
196
196
196
196
196
196
196
196
196
196
196
196
196
196
196
196
196
196
196
196
196
189
189
189
189
189
189
189
189
189
189
189
189
189
190
191
192
192
192
192
192
192
192
192
192
192
192
192
192
192
192
192
192
192
192
192
192
192
192
192
192
192
192
192
192
192
192
192
192
192
192
192
192
192
192
192
193
194
194
194
194
194
194
194
194
194
194
194
193
191
190
190
190
191
192
192
192
193
194
194
195
194
193
193
193
194
194
194
194
194
194
194
194
194
194
194
194
194
194
194
194
194
194
194
194
194
194
194
194
194
193
193
194
194
194
194
194
194
194
194
194
194
194
194
194
194
194
194
194
194
194
194
194
194
194
194
194
193
193
193
193
193
193
193
193
193
193
193
193
193
193
193
193
193
193
193
193
193
193
193
193
193
193
193
193
194
194
194
194
194
194
194
194
194
194
194
194
194
194
194
195
195
196
196
196
197
197
197
198
199
199
199
198
198
198
198
198
198
198
198
198
198
198
198
198
198
198
198
198
198
198
198
198
198
198
198
198
198
197
197
197
197
197
197
197
197
197
197
197
197
197
197
197
197
197
197
197
197
197
197
197
197
197
197
197
197
197
197
197
197
197
197
197
197
197
197
197
189
189
189
189
189
189
189
189
189
189
189
189
189
190
191
192
192
192
192
192
192
192
192
192
192
192
192
192
192
192
192
192
192
192
192
192
192
192
192
192
192
192
192
192
192
192
192
192
192
192
192
192
192
193
193
194
194
194
194
194
194
194
194
194
194
194
194
193
191
189
189
189
190
191
192
192
192
193
194
194
193
193
193
193
194
194
194
194
194
194
194
194
194
194
194
194
194
194
194
194
194
194
194
194
194
194
194
194
194
193
192
192
192
192
192
192
192
192
192
192
192
193
193
193
194
194
194
194
194
194
194
194
194
194
194
194
193
193
193
193
193
193
193
193
193
193
193
193
193
193
193
193
193
193
193
193
193
193
193
193
193
193
193
194
194
194
194
194
194
194
194
194
194
194
194
194
194
195
195
195
195
196
196
196
197
198
198
198
199
199
199
199
198
198
198
198
198
198
198
198
198
198
198
198
198
198
198
198
198
198
198
198
198
198
198
198
198
198
198
198
197
197
197
197
197
197
197
197
197
197
197
197
197
197
197
197
197
197
197
197
197
197
197
197
197
197
197
197
197
197
197
197
197
197
197
197
189
189
189
189
189
189
189
189
189
189
189
189
189
190
191
192
192
192
192
192
192
192
192
192
192
192
192
192
192
192
192
192
192
192
192
192
192
192
192
192
192
193
193
193
193
193
193
193
193
193
193
193
193
193
193
194
194
194
194
194
194
194
194
194
194
194
194
194
192
190
190
190
191
192
193
193
193
194
194
195
194
194
194
194
194
194
194
194
194
194
194
194
194
194
194
194
194
194
194
194
194
194
194
194
194
194
194
194
194
193
193
193
193
193
193
193
193
193
193
193
193
193
193
193
193
193
193
193
193
193
193
193
193
193
193
193
194
194
194
194
194
194
194
194
194
194
194
194
194
194
194
194
194
194
194
194
194
194
194
194
194
194
194
194
194
194
194
194
194
194
194
194
194
194
194
194
194
195
195
195
195
196
196
197
198
198
198
198
199
199
199
199
199
199
199
199
199
199
199
199
199
199
199
199
199
199
199
199
199
199
199
199
199
199
199
199
199
199
199
198
198
198
198
198
198
198
198
198
198
198
198
198
198
198
198
198
198
198
198
198
198
198
198
198
198
198
198
198
198
198
198
198
198
198
198
198
189
189
189
189
189
189
189
189
189
189
189
189
189
190
191
192
192
192
192
192
192
192
192
192
192
192
192
192
192
192
192
192
192
192
192
192
192
192
192
192
193
194
194
194
194
194
194
194
194
194
194
194
194
194
194
195
195
195
195
195
195
195
195
195
195
195
195
195
193
193
193
194
194
194
195
195
196
196
196
197
196
195
195
194
195
195
195
195
195
195
195
195
195
195
195
195
195
195
195
195
195
195
195
195
195
195
195
195
195
195
195
195
195
195
195
195
195
195
195
195
195
195
194
194
194
194
194
194
194
194
194
194
194
194
194
194
194
195
195
195
195
195
195
195
195
195
195
195
195
195
195
195
195
195
195
195
195
195
195
195
195
195
195
195
195
195
195
195
195
195
195
195
195
195
195
195
195
196
196
196
196
196
196
197
198
198
198
199
199
200
200
199
199
199
199
199
199
199
199
199
199
199
199
199
199
199
199
199
199
199
199
199
199
199
199
199
199
199
199
198
198
198
198
198
198
198
198
198
198
198
198
198
198
198
198
198
198
198
198
198
198
198
198
198
198
198
198
198
198
198
198
198
198
198
198
198
190
190
190
190
190
190
190
190
190
190
190
190
190
191
191
192
192
192
192
192
192
192
192
192
192
192
192
192
192
192
192
192
192
192
192
192
192
192
192
192
193
194
194
194
194
194
194
194
194
194
194
194
194
194
194
195
195
195
195
195
195
195
195
195
195
195
195
195
195
195
195
196
196
196
196
196
197
197
197
197
196
195
195
194
195
195
195
195
195
195
195
195
195
195
195
195
195
195
195
195
195
195
195
195
195
195
195
195
195
195
195
195
195
195
195
195
195
195
195
195
195
195
195
194
194
194
194
194
194
194
194
194
194
194
194
194
195
195
195
195
195
195
195
195
195
195
195
195
195
195
195
195
195
195
195
195
195
195
195
195
195
195
195
195
195
195
195
195
195
195
195
195
195
195
195
195
195
196
196
196
196
197
197
197
198
198
198
199
200
200
200
200
200
200
200
200
200
200
200
200
200
200
200
200
200
200
200
200
200
200
200
200
200
200
200
200
200
200
200
199
199
199
199
199
199
199
199
199
199
199
199
199
198
198
198
198
198
198
198
198
198
198
198
198
198
198
198
199
199
199
199
199
199
199
199
199
191
191
191
191
191
191
191
191
191
191
191
191
191
192
192
192
192
192
192
192
192
192
192
192
192
192
192
192
192
192
192
192
192
192
192
192
192
192
192
192
193
194
194
194
194
194
194
194
194
194
194
194
194
194
194
195
195
195
195
195
195
195
195
195
195
195
195
195
196
196
196
196
196
196
196
196
196
196
196
196
195
194
194
194
195
195
195
195
195
195
195
195
195
195
195
195
195
195
195
195
195
195
195
195
195
195
195
195
195
194
194
194
194
194
194
194
194
194
194
194
194
194
194
194
194
194
194
194
194
194
194
194
194
194
194
194
195
195
195
195
195
195
195
195
195
195
195
195
195
195
195
195
195
195
195
195
195
195
195
195
195
195
195
195
195
195
195
195
195
195
195
195
195
195
195
195
195
196
196
196
196
197
197
197
198
198
198
199
200
200
200
200
200
200
200
200
200
200
200
200
200
200
200
200
200
200
200
200
200
200
200
200
200
200
200
200
200
200
200
199
199
199
199
199
199
199
199
199
199
199
199
199
198
198
198
198
198
198
198
198
198
198
198
198
198
199
199
199
199
199
199
199
199
199
199
199
191
191
191
191
191
191
191
191
191
191
191
191
191
192
192
192
192
192
192
192
192
192
192
192
192
192
192
192
192
192
192
192
192
192
192
192
192
192
192
192
193
194
194
194
194
194
194
194
194
194
194
194
194
194
194
195
195
194
194
194
193
193
193
194
194
195
195
195
196
196
196
196
196
195
195
195
195
195
195
195
194
194
194
194
195
195
195
195
195
195
195
195
195
195
195
195
195
195
195
195
195
195
195
195
195
195
195
195
195
195
195
195
195
195
194
194
193
193
193
193
195
196
196
196
196
195
195
195
194
194
194
194
194
194
194
194
196
197
197
197
196
196
196
196
196
195
195
194
193
194
195
195
194
194
194
195
196
196
195
195
195
195
195
196
196
196
196
196
195
195
195
195
195
195
195
195
195
196
196
197
197
198
198
199
199
199
199
200
200
200
200
200
200
200
200
200
200
200
200
200
200
200
200
200
200
200
200
200
200
200
200
200
200
200
200
200
200
200
200
199
199
199
199
199
199
199
199
199
199
199
199
199
198
198
198
198
198
198
198
198
198
198
198
198
198
199
199
199
199
199
199
199
199
199
199
199
191
191
191
191
191
191
191
191
191
191
191
191
191
192
192
192
192
192
192
192
192
192
192
192
192
192
192
192
193
193
193
193
193
193
193
193
193
193
193
193
193
194
194
194
194
194
194
194
194
194
194
194
194
194
195
196
195
194
193
192
191
190
191
192
193
194
195
196
196
196
196
196
196
196
196
196
196
196
196
196
195
194
194
194
195
195
195
195
195
195
195
195
195
195
195
195
195
195
195
195
195
195
195
195
195
195
195
195
195
196
197
197
197
197
197
196
195
194
193
194
195
198
199
198
198
197
196
195
194
194
194
194
195
195
195
195
196
198
198
198
198
197
197
196
195
194
194
193
194
195
196
197
195
193
194
195
197
197
196
194
193
194
195
196
197
197
197
197
196
195
195
195
195
194
194
194
195
196
197
198
198
199
200
201
201
201
201
202
201
201
201
200
200
200
200
200
200
200
200
200
200
200
200
200
200
200
200
200
200
200
200
200
200
200
200
200
200
200
200
199
199
199
199
199
199
199
199
199
199
199
199
199
199
199
199
199
199
199
199
199
199
199
199
199
199
199
199
199
199
199
199
199
199
199
199
199
191
191
191
191
191
191
191
191
191
191
191
191
191
192
192
192
192
192
192
192
192
192
192
192
192
192
192
193
193
193
193
193
193
193
193
193
193
193
193
193
193
194
194
194
194
194
194
194
194
194
194
194
194
194
195
196
195
194
193
192
191
191
191
192
193
194
195
196
196
196
196
196
196
196
196
196
196
196
196
196
195
194
194
194
195
195
195
195
195
195
195
195
195
195
195
195
195
195
195
195
195
195
195
195
195
195
195
195
194
193
193
193
194
196
197
198
198
197
195
194
193
192
193
195
195
195
195
195
195
195
195
196
196
197
197
196
193
192
193
195
197
196
195
193
192
192
194
197
201
202
202
200
196
195
195
196
198
199
198
196
194
192
192
192
194
195
195
196
196
196
196
196
195
194
194
194
194
195
197
198
198
199
200
201
201
202
202
202
201
201
201
200
200
200
200
200
200
200
200
200
200
200
200
200
200
200
200
200
200
200
200
200
200
200
200
200
200
200
200
199
199
199
199
199
199
199
199
199
199
199
199
199
199
199
199
199
199
199
199
199
199
199
199
199
199
199
199
199
199
199
199
199
199
199
199
199
191
191
191
191
191
191
191
191
191
191
191
191
191
192
192
192
192
192
192
192
192
192
192
192
192
192
192
193
193
193
193
193
193
193
193
193
193
193
193
193
193
194
194
194
194
194
194
194
194
194
194
194
194
194
195
196
195
194
193
192
192
192
192
192
193
194
195
196
196
196
196
196
196
196
196
196
196
196
196
196
195
194
194
194
195
195
195
195
195
195
195
195
195
195
195
195
195
195
195
195
195
195
195
195
195
195
195
195
196
198
199
198
198
198
198
198
198
198
197
196
193
192
193
195
196
197
197
197
196
195
194
194
194
193
193
193
195
197
198
197
196
195
195
195
196
197
198
198
198
198
197
196
195
196
197
198
198
198
197
196
195
196
197
196
194
193
194
195
196
197
197
197
196
195
195
194
194
195
197
198
198
199
200
201
201
202
202
202
201
201
201
200
200
200
200
200
200
200
200
200
200
200
200
200
200
200
200
200
200
200
200
200
200
200
200
200
200
200
200
199
199
199
199
199
199
199
199
199
199
199
199
199
199
199
199
199
199
199
199
199
199
199
199
199
199
199
199
199
199
199
199
199
199
199
199
199
191
191
191
191
191
191
191
191
191
191
191
191
191
192
192
192
192
192
192
192
192
192
192
192
192
192
192
193
193
193
193
193
193
193
193
193
193
193
193
193
194
194
194
194
194
194
194
194
194
194
194
194
194
195
195
196
195
194
194
193
192
192
192
193
194
195
195
196
196
196
196
196
196
196
196
196
196
196
196
196
196
195
195
194
195
195
195
195
195
195
195
195
195
195
195
195
195
195
195
195
195
195
195
195
195
195
195
195
196
198
200
199
198
197
196
195
197
198
199
200
199
198
197
195
194
195
196
197
197
197
197
197
197
197
197
197
198
198
198
198
197
198
198
198
198
198
197
196
196
196
196
196
196
196
196
196
195
194
193
193
194
196
198
198
195
194
195
195
196
197
197
197
196
196
196
195
195
196
197
198
198
199
200
201
201
202
202
202
201
201
201
201
200
200
200
200
200
200
200
200
200
200
200
200
200
200
200
200
200
200
200
200
200
200
200
200
200
200
200
200
199
199
199
199
199
199
199
199
199
199
199
199
199
199
199
199
199
199
199
199
199
199
199
199
199
199
199
199
199
199
199
199
199
199
199
199
192
192
192
192
192
192
192
192
192
192
192
192
192
192
192
192
192
192
192
192
192
192
192
192
192
192
192
193
194
194
194
194
194
194
194
194
194
194
194
194
194
195
195
195
195
195
195
195
195
195
195
195
195
195
195
196
195
195
195
194
194
193
193
194
195
195
195
196
197
197
197
197
197
197
197
197
197
197
197
197
196
195
195
195
195
195
195
195
195
195
195
195
195
195
195
195
195
195
195
195
195
195
195
195
195
195
195
195
195
195
195
196
196
196
195
195
196
198
199
201
201
200
197
192
191
192
194
196
197
198
199
199
199
200
201
200
197
195
195
198
199
200
200
198
197
195
195
195
196
198
200
200
198
196
194
193
193
193
194
195
196
196
196
196
197
197
197
197
197
197
197
197
196
196
196
197
197
197
197
198
198
199
200
201
201
202
202
202
201
201
201
201
201
201
201
201
201
201
201
201
201
201
201
201
201
201
201
201
201
201
201
201
201
201
201
201
201
201
201
200
200
200
200
200
200
200
200
200
200
200
200
200
200
200
200
200
200
200
200
200
200
200
200
200
200
199
199
199
199
199
199
199
199
199
199
199
193
193
193
193
193
193
193
193
193
193
193
193
193
193
193
193
193
193
193
193
193
193
193
193
193
193
193
194
194
194
194
194
194
194
194
194
194
194
194
194
195
196
196
196
196
196
196
196
196
196
196
196
196
196
196
196
196
195
195
195
195
195
195
195
195
196
196
196
197
197
197
197
197
197
197
197
197
197
197
197
196
195
195
195
196
196
196
196
196
196
196
196
196
196
196
196
196
196
196
196
196
196
196
196
196
196
196
196
195
195
196
198
199
199
198
196
195
196
197
196
195
193
192
192
193
194
196
196
195
194
193
192
191
191
192
193
196
199
200
198
197
196
196
195
195
195
194
194
195
197
200
201
199
196
194
194
196
199
202
203
202
200
197
197
199
200
199
199
197
196
196
195
196
197
197
198
199
198
197
198
198
199
200
201
201
202
202
202
201
201
201
202
202
202
202
202
202
202
202
202
202
202
202
202
202
202
202
202
202
202
202
202
202
202
202
202
202
202
202
201
201
201
201
201
201
201
201
201
201
201
201
201
201
201
201
201
201
201
201
201
201
201
201
201
201
200
200
199
199
199
199
199
199
199
199
199
193
193
193
193
193
193
193
193
193
193
193
193
193
194
194
194
194
194
194
194
194
194
194
194
194
194
194
194
195
195
195
195
195
195
195
195
195
195
195
195
195
196
196
196
196
196
196
196
196
196
196
196
196
196
196
196
196
196
196
196
196
196
196
196
196
196
196
196
197
198
198
198
198
198
198
198
198
198
198
198
197
196
196
196
197
197
197
197
197
197
197
197
197
197
197
197
197
197
197
197
197
197
197
197
197
197
197
197
198
199
201
202
202
201
198
195
194
196
198
199
198
195
192
191
191
192
193
193
192
190
189
188
188
189
190
192
195
196
195
193
191
189
187
185
185
187
190
193
197
196
194
192
194
197
199
199
199
198
197
196
195
194
193
194
198
199
198
198
197
196
196
196
196
197
197
198
199
198
197
198
198
199
200
201
201
202
202
202
201
201
201
202
202
202
202
202
202
202
202
202
202
202
202
202
202
202
202
202
202
202
202
202
202
202
202
202
202
202
202
201
201
201
201
201
201
201
201
201
201
201
201
201
201
201
201
201
201
201
201
201
201
201
201
201
201
200
200
199
199
199
199
199
199
199
199
199
193
193
193
193
193
193
193
193
193
193
193
193
193
194
194
194
194
194
194
194
194
194
194
194
194
194
194
195
195
195
195
195
195
195
195
195
195
195
195
195
195
196
196
196
196
196
196
196
196
196
196
196
196
196
196
196
196
197
197
197
197
197
197
197
197
196
196
196
197
198
198
198
198
198
198
198
198
198
198
198
197
196
196
196
197
197
197
197
197
197
197
197
197
197
197
197
197
197
197
197
197
197
197
197
197
197
197
197
197
198
198
198
197
195
193
192
194
197
198
198
194
187
179
171
168
167
165
162
157
153
148
145
143
143
144
145
148
152
156
160
163
162
158
153
150
152
159
169
181
184
181
178
185
192
196
197
195
193
191
191
192
194
195
195
193
194
194
195
196
197
197
198
198
198
198
198
198
197
197
198
198
199
200
201
201
202
202
202
201
201
201
202
202
202
202
202
202
202
202
202
202
202
202
202
202
202
202
202
202
202
202
202
202
202
202
202
202
202
202
201
201
201
201
201
201
201
201
201
201
201
201
201
201
201
201
201
201
201
201
201
201
201
201
201
201
200
200
199
199
199
199
199
199
199
199
199
193
193
193
193
193
193
193
193
193
193
193
193
193
194
194
194
194
194
194
194
194
194
194
194
194
194
194
194
195
195
195
195
195
195
195
195
195
195
195
195
195
196
196
196
196
196
196
196
196
196
196
196
196
196
196
196
196
197
197
197
197
197
197
197
197
197
197
196
197
198
198
198
198
198
198
198
198
198
198
198
197
196
196
196
197
197
197
197
197
197
197
197
197
197
197
197
197
197
197
197
197
197
197
197
197
197
197
197
197
196
196
196
196
194
193
191
192
191
186
177
165
153
140
128
122
119
115
108
101
92
83
76
71
68
68
70
76
86
96
106
113
114
110
104
98
99
108
122
136
142
142
140
147
153
158
160
162
166
173
180
186
190
191
189
186
187
189
191
194
196
198
199
199
198
198
197
196
196
196
197
198
199
200
201
201
202
202
202
201
201
201
202
202
202
202
202
202
202
202
202
202
202
202
202
202
202
202
202
202
202
202
202
202
202
202
202
202
202
202
201
201
201
201
201
201
201
201
201
201
201
201
201
201
201
201
201
201
201
201
201
201
201
201
201
201
200
200
199
199
199
199
199
199
199
199
199
193
193
193
193
193
193
193
193
193
193
193
193
193
194
194
194
194
194
194
194
194
194
194
194
194
194
194
194
194
194
194
195
194
194
194
195
194
195
195
195
195
196
196
195
196
196
196
195
196
195
195
196
196
195
195
196
196
197
197
197
197
197
197
197
197
197
197
196
197
197
197
197
198
197
197
197
197
197
197
198
197
197
197
197
197
197
197
197
197
197
197
197
197
197
197
197
197
197
197
197
197
196
195
195
197
198
198
197
196
195
195
195
192
188
183
178
173
164
150
131
108
87
70
59
55
54
53
50
46
42
38
36
35
36
38
41
44
46
47
48
49
50
51
51
52
53
54
55
57
58
58
58
60
62
66
75
89
109
129
147
158
161
162
163
168
174
180
185
191
195
197
198
199
199
197
196
195
195
196
197
199
200
201
202
201
200
200
200
200
201
202
202
202
202
202
202
202
202
202
202
202
202
202
202
202
202
202
202
202
202
202
202
202
202
202
202
202
202
202
201
201
201
201
201
201
201
201
201
201
201
201
201
201
201
201
201
201
201
201
201
201
201
201
201
201
200
199
199
199
199
199
199
199
199
199
199
193
193
193
193
193
193
193
193
193
193
193
193
193
194
194
194
194
194
194
194
194
194
194
194
194
194
194
194
194
194
194
193
194
195
195
194
195
195
195
195
196
195
195
196
195
195
195
196
195
196
196
195
195
196
196
196
197
197
197
197
197
196
196
197
197
196
196
197
196
197
197
197
196
197
197
197
197
197
197
196
196
197
198
199
199
199
199
199
199
199
199
199
199
199
198
197
196
197
198
198
197
195
193
193
196
199
199
197
193
190
186
178
164
146
126
109
98
89
81
71
59
47
37
32
31
33
35
36
34
32
32
32
32
34
35
34
32
30
28
28
30
33
35
36
36
34
31
28
25
24
24
25
23
23
26
32
42
54
66
76
83
87
94
108
128
146
160
172
183
192
195
194
198
199
198
196
196
196
197
198
200
202
204
204
201
198
196
196
198
201
202
202
200
200
200
200
200
200
200
200
200
200
200
200
201
202
202
202
202
202
202
202
202
202
202
202
202
202
201
200
200
200
200
200
200
200
200
200
200
200
200
200
199
199
199
199
199
199
199
199
199
199
199
199
199
199
199
198
198
198
198
198
198
198
198
198
193
193
193
193
193
193
193
193
193
193
193
193
193
194
194
194
194
194
194
194
194
194
194
194
194
194
194
194
194
194
194
194
195
195
195
195
196
196
196
196
196
196
196
196
196
196
196
196
196
196
196
196
196
196
196
197
197
197
197
197
197
197
197
197
197
197
197
197
197
197
197
197
197
197
197
197
197
197
197
197
197
198
198
199
199
199
199
199
199
199
199
199
199
199
199
198
196
197
197
197
199
203
205
205
200
195
192
192
194
194
185
166
141
111
81
56
41
36
35
35
32
27
24
24
26
29
30
29
28
27
27
27
28
28
27
27
28
30
32
34
36
39
40
41
40
38
35
32
29
28
26
24
21
20
20
22
23
23
22
22
27
34
44
58
75
92
109
129
151
172
186
192
194
193
193
194
197
199
200
201
201
201
199
197
197
198
200
202
201
199
199
199
200
200
200
200
200
200
200
200
200
200
200
200
201
201
201
201
201
201
201
201
201
201
201
201
201
201
201
200
200
200
200
200
200
200
200
200
200
200
200
200
199
199
199
199
199
199
199
199
199
199
199
199
199
198
198
198
198
198
198
198
198
198
198
198
193
193
193
193
193
193
193
193
193
193
193
193
193
194
194
194
194
194
194
194
194
194
194
194
194
194
194
194
194
194
194
194
195
195
195
195
196
196
196
196
196
196
196
196
196
196
196
196
196
196
196
196
196
196
196
197
197
197
197
197
197
197
197
197
197
197
197
197
197
197
197
197
197
197
197
197
197
197
197
197
197
198
198
199
199
199
199
199
199
199
199
199
199
199
199
198
197
196
195
195
198
201
203
203
200
196
195
195
196
190
176
151
120
87
58
39
33
36
38
38
35
29
26
28
30
30
30
29
29
29
31
33
35
34
32
28
26
26
28
31
34
35
35
36
35
34
33
30
27
27
29
29
26
24
23
23
23
22
20
18
19
24
28
31
32
36
52
76
103
130
156
177
188
196
200
200
198
197
198
199
200
199
197
195
196
200
203
205
204
200
198
199
200
200
200
200
200
200
200
200
200
200
200
200
200
201
201
201
201
201
201
201
201
201
201
201
201
200
200
200
200
200
200
200
200
200
200
200
200
200
200
200
199
199
199
199
199
199
199
199
199
199
199
199
199
198
198
198
198
198
198
198
198
198
198
198
193
193
193
193
193
193
193
193
193
193
193
193
193
194
194
194
194
194
194
194
194
194
194
194
194
194
194
194
194
194
194
195
195
195
195
195
196
196
196
196
196
196
196
196
196
196
196
196
196
196
196
196
196
196
196
197
197
197
197
197
197
197
197
197
197
197
197
197
197
197
197
197
197
197
197
197
197
197
197
197
197
198
198
199
199
199
199
199
199
198
198
198
198
198
198
199
199
198
198
200
200
198
195
194
195
198
199
196
186
168
145
120
93
66
44
36
36
40
43
42
40
35
32
32
32
33
33
33
33
34
37
40
42
41
38
34
27
22
23
28
30
29
28
28
29
31
31
28
25
26
31
35
31
28
27
28
29
28
26
23
23
23
25
27
28
27
32
41
53
73
105
137
160
178
191
197
195
194
194
196
198
199
199
199
200
202
203
203
203
201
200
200
200
200
200
200
200
200
200
200
200
200
200
200
200
200
200
200
200
200
200
200
200
200
200
200
200
200
200
200
200
200
200
200
200
200
200
200
200
200
200
200
199
199
199
199
199
199
199
199
199
199
199
199
199
198
198
197
197
197
197
197
197
197
197
197
194
194
194
194
194
194
194
194
194
194
194
194
194
195
195
195
195
195
195
195
195
195
195
195
195
195
195
195
195
195
195
195
195
195
195
196
196
197
197
197
197
197
197
197
197
197
197
197
197
197
197
197
197
197
197
198
198
198
198
198
198
198
198
198
198
198
198
198
198
198
198
198
198
198
198
198
198
198
198
198
198
199
199
199
199
199
199
199
198
198
198
198
198
198
199
200
203
204
205
206
205
202
197
191
188
185
181
173
156
124
92
71
56
42
34
32
34
36
36
35
34
32
31
30
30
31
31
31
31
32
34
36
37
37
35
33
28
26
29
34
35
34
32
32
34
36
38
36
32
31
33
36
33
31
30
31
32
33
32
30
28
28
27
26
26
31
39
45
46
43
50
67
85
112
140
163
180
188
192
194
196
199
201
201
201
200
199
199
199
201
201
201
200
200
200
200
200
200
200
200
200
200
200
200
200
199
199
199
199
199
199
199
199
199
199
199
199
199
199
200
200
200
200
200
200
200
200
200
200
200
200
200
199
199
199
199
199
199
199
199
199
199
199
199
199
198
197
196
196
196
196
196
196
196
196
196
194
194
194
194
194
194
194
194
194
194
194
194
194
195
195
196
196
196
196
196
196
196
196
196
196
196
196
195
195
195
195
195
196
196
196
196
197
197
197
197
197
197
197
197
197
197
197
197
197
197
197
197
197
197
198
199
199
199
199
199
199
199
199
199
199
199
199
199
199
199
199
199
199
199
199
199
199
199
199
199
199
199
199
199
199
198
198
198
198
198
198
198
199
199
199
198
198
198
195
190
187
188
189
183
162
138
118
103
91
70
47
35
29
26
26
27
27
26
24
22
22
23
25
28
30
32
32
30
28
26
25
25
26
26
25
23
21
21
24
29
30
29
27
26
28
32
33
31
27
26
28
30
29
27
27
29
31
33
33
32
30
29
28
29
32
32
33
33
34
34
33
34
43
61
82
102
124
152
173
184
191
197
199
198
197
196
197
198
199
199
198
199
200
200
200
200
200
200
200
200
200
200
200
200
200
199
199
199
199
199
199
199
199
199
199
199
199
199
199
200
200
200
200
200
200
200
200
200
200
200
200
200
199
199
199
199
199
199
199
199
199
199
199
199
199
198
197
196
196
196
196
196
196
196
196
196
195
195
195
195
195
195
195
195
195
195
195
195
195
196
196
196
196
196
196
196
196
196
196
196
196
196
196
195
195
196
196
196
196
196
196
197
197
197
197
197
198
198
198
198
198
198
198
198
198
198
198
198
198
198
198
199
199
199
199
199
199
199
199
199
199
199
199
199
199
199
199
199
199
199
199
199
199
199
199
199
199
199
199
199
199
198
198
198
198
198
198
198
199
199
199
199
198
192
188
189
187
179
162
138
110
83
60
45
37
31
25
20
17
18
20
22
23
22
21
20
21
24
27
29
31
33
34
32
28
25
23
22
22
22
22
22
20
19
22
25
27
25
24
24
26
28
30
28
26
24
24
25
24
23
24
26
29
30
31
31
29
27
26
28
31
32
30
29
33
39
40
37
39
41
42
49
67
100
129
152
174
191
200
200
197
196
198
200
201
198
197
198
200
200
200
200
200
200
200
200
200
200
200
200
200
199
199
199
199
199
199
199
199
199
199
199
199
199
199
200
200
200
200
200
200
200
200
200
200
200
200
200
199
199
199
199
199
199
199
199
199
199
199
199
199
198
197
197
197
197
197
197
197
197
197
197
195
195
195
195
195
195
195
195
195
195
195
195
195
196
196
196
196
196
196
196
196
196
196
196
196
196
196
196
196
196
196
196
196
197
197
197
197
197
197
198
198
198
198
198
198
198
198
198
198
198
198
198
198
198
198
199
199
199
199
199
199
199
199
199
199
199
199
199
199
199
199
199
199
199
199
199
199
199
199
199
199
199
199
199
199
198
198
198
198
198
198
198
199
199
199
198
194
184
175
169
160
144
116
79
57
44
37
31
25
24
23
19
15
13
15
19
21
23
24
25
27
29
29
27
28
30
31
30
26
24
22
22
23
23
24
23
20
18
19
21
22
22
21
21
22
24
25
24
23
22
21
21
21
22
23
25
27
28
30
30
29
28
26
26
27
30
32
31
33
37
37
36
40
40
35
30
31
44
72
107
143
172
190
196
197
197
199
201
201
199
197
198
200
200
200
200
200
200
200
200
200
200
200
200
200
199
199
199
199
199
199
199
199
199
199
199
199
200
200
200
200
200
200
200
200
200
200
200
200
200
200
200
199
199
199
199
199
199
199
199
199
199
199
199
199
198
198
197
197
197
197
197
197
197
197
197
195
195
195
195
195
195
195
195
195
195
195
195
195
196
196
196
196
196
196
196
196
196
196
196
196
196
196
196
196
196
196
196
197
197
197
197
197
198
198
198
198
198
198
198
198
198
198
198
198
198
198
198
198
198
198
199
199
199
199
199
199
199
199
199
199
199
199
199
199
199
199
199
199
199
199
199
199
199
199
199
199
199
199
199
199
199
199
199
199
199
199
199
199
199
198
191
180
166
143
112
83
63
55
51
46
38
28
21
20
20
19
16
12
11
13
16
20
23
25
27
29
30
28
23
22
22
22
21
19
18
18
19
21
21
21
19
17
14
14
15
15
16
16
16
17
17
18
18
18
18
18
19
20
22
24
25
27
28
29
30
30
29
28
27
26
29
32
34
33
31
30
31
34
35
34
30
25
22
36
66
102
136
163
181
191
196
198
199
199
199
199
199
200
200
200
200
200
200
200
200
200
200
200
200
200
200
200
200
200
200
200
200
200
200
200
200
200
200
200
200
200
200
200
200
200
200
200
200
200
200
200
200
199
199
199
199
199
199
199
199
199
199
199
199
199
198
198
198
198
198
198
198
198
198
198
198
195
195
195
195
195
195
195
195
195
195
195
195
195
196
196
196
196
196
196
196
196
196
196
196
196
196
196
196
196
196
196
196
197
197
197
197
198
198
198
198
198
198
198
198
198
198
198
198
198
198
198
198
198
198
198
199
199
199
199
199
199
199
199
199
199
199
199
199
199
199
199
199
199
199
199
199
199
199
199
199
199
199
199
199
199
199
199
199
199
199
199
199
197
196
189
175
151
122
92
64
43
32
31
31
31
29
27
23
19
16
14
14
15
15
17
19
21
23
25
26
27
27
26
24
22
21
20
17
16
15
16
17
18
17
16
14
13
13
13
12
12
14
15
16
15
14
14
14
16
16
16
16
18
20
22
23
24
26
28
29
31
31
31
31
29
28
31
36
39
38
38
38
33
28
27
29
30
31
33
43
62
90
121
151
175
189
196
197
195
196
198
199
200
200
200
200
200
200
200
200
200
200
200
200
200
200
200
200
200
200
200
200
200
200
200
200
200
200
200
200
200
200
200
200
200
200
200
200
200
200
200
200
199
199
199
199
199
199
199
199
199
199
199
199
199
198
198
198
198
198
198
198
198
198
198
198
195
195
195
195
195
195
195
195
195
195
195
195
195
196
196
197
197
197
197
197
197
197
197
197
197
197
197
197
197
197
197
197
197
197
197
197
197
197
197
197
198
199
199
199
199
199
199
199
199
199
199
199
199
199
199
200
200
200
200
200
199
199
199
199
200
200
200
200
200
200
200
200
200
200
200
200
200
200
200
200
200
199
198
198
201
202
200
197
197
199
199
195
186
168
145
118
93
69
48
34
25
22
21
21
24
26
26
24
21
17
15
15
16
16
15
15
16
19
23
25
26
26
25
23
21
20
19
18
17
17
17
18
18
17
17
16
14
13
12
12
12
13
14
14
14
14
13
13
14
14
15
16
18
19
19
19
19
21
24
28
32
35
37
36
34
30
28
29
33
36
40
43
41
37
33
30
29
30
32
34
41
58
82
112
145
173
192
200
197
194
195
198
200
201
201
201
200
201
201
202
203
204
203
203
202
201
201
201
201
201
201
201
201
201
201
201
201
201
201
201
201
201
201
201
201
201
201
201
201
201
201
201
201
200
200
200
200
200
200
200
200
200
200
200
200
199
199
198
198
198
198
198
198
198
198
198
195
195
195
195
195
195
195
195
195
195
195
195
195
196
196
197
197
197
197
197
197
197
197
197
197
197
197
197
197
197
197
197
197
197
197
197
197
197
197
197
198
199
199
199
199
199
199
199
199
199
199
199
199
199
200
201
200
200
200
200
199
199
199
200
200
200
200
201
201
201
201
201
201
201
201
201
201
201
201
201
201
202
203
202
200
198
199
200
199
198
199
192
159
121
84
55
33
24
22
21
18
16
16
19
22
24
25
24
21
19
18
19
19
17
15
13
14
16
20
22
24
23
23
23
23
22
22
22
20
19
19
19
18
18
18
18
17
17
16
16
16
16
16
16
16
16
16
15
15
17
20
23
25
27
27
26
24
24
25
27
30
31
33
34
35
32
28
26
27
31
36
40
40
38
34
30
27
26
26
29
35
44
56
78
111
145
172
188
192
193
195
196
198
201
203
204
203
202
202
203
204
204
204
203
202
202
202
202
202
202
202
202
202
202
202
202
202
202
202
201
201
201
201
201
201
201
201
201
201
201
201
201
201
201
201
201
201
201
201
201
201
201
201
201
201
200
199
198
198
198
198
198
198
198
198
198
195
195
195
195
195
195
195
195
195
195
195
195
195
196
196
197
197
197
197
197
197
197
197
197
197
197
197
197
197
197
197
197
197
197
197
197
197
197
197
197
198
199
199
199
199
199
199
199
199
199
199
199
199
199
200
201
200
200
200
200
199
199
199
200
200
200
200
201
201
201
201
201
201
201
201
201
201
201
201
201
201
204
205
201
194
194
198
202
199
194
193
182
127
69
23
24
20
18
19
18
16
15
16
18
21
22
23
22
20
20
20
21
21
20
17
15
15
16
18
19
19
19
21
24
25
24
24
23
22
21
21
20
19
18
17
18
20
22
23
23
22
22
22
21
20
20
20
19
19
20
23
26
30
32
33
32
30
28
27
27
26
25
24
28
34
34
30
26
25
27
29
31
32
31
30
29
27
23
22
26
34
40
45
55
78
109
137
159
174
187
193
194
194
199
203
206
206
205
203
202
203
203
203
202
202
202
202
202
202
202
202
202
202
202
202
202
202
202
202
201
201
201
201
201
201
201
201
201
201
201
201
201
201
201
201
201
201
201
201
201
201
201
201
201
201
200
200
199
199
199
199
199
199
199
199
199
195
195
195
195
195
195
195
195
195
195
195
195
195
196
196
197
197
197
197
197
197
197
197
197
197
197
197
197
197
197
197
197
197
197
197
197
197
197
197
197
198
199
199
199
199
199
199
199
199
199
199
199
199
199
200
201
200
200
200
200
199
199
199
200
200
200
200
201
201
201
201
201
201
201
201
201
201
201
201
201
201
201
198
194
190
198
202
198
192
186
177
154
102
50
14
23
18
16
16
16
15
15
16
18
20
21
21
20
18
19
20
21
20
19
17
16
15
16
16
17
17
17
20
23
24
24
24
23
22
22
22
21
20
20
19
19
23
26
27
27
27
26
25
25
24
23
23
23
23
22
22
23
26
29
30
29
28
26
25
25
24
22
22
26
32
32
29
27
25
25
25
25
25
24
25
27
29
27
25
27
32
36
38
41
52
72
95
120
145
174
188
188
188
194
201
205
206
205
203
202
202
203
203
202
202
203
203
203
203
203
203
203
203
203
203
203
203
203
203
202
202
202
202
202
202
202
202
202
202
202
202
202
202
202
202
202
202
202
202
202
202
202
202
202
202
201
201
200
200
200
200
200
200
200
200
200
195
195
195
195
195
195
195
195
195
195
195
195
195
196
196
197
197
197
197
197
197
197
197
197
197
197
197
197
198
198
198
198
198
198
198
198
198
198
198
198
198
199
199
199
199
199
199
199
199
199
199
199
199
199
200
201
200
200
200
200
199
199
199
200
200
200
200
201
201
201
201
201
201
201
201
201
201
201
201
201
201
201
200
198
197
206
207
198
189
176
150
107
67
37
25
24
19
16
16
15
15
16
17
18
19
19
19
18
17
17
17
17
17
16
15
14
13
14
16
17
19
19
20
22
23
23
24
24
25
25
25
24
24
24
24
24
26
27
27
27
27
26
26
26
25
25
25
25
25
23
21
20
22
23
23
22
20
19
20
22
23
24
24
25
27
27
27
27
27
26
26
24
22
22
24
27
30
32
31
28
27
32
36
38
42
49
63
85
116
156
176
180
181
189
197
202
203
203
203
203
204
204
204
203
203
204
204
204
204
204
204
204
204
204
204
204
204
204
204
203
203
203
203
203
203
203
203
203
203
203
203
203
203
203
203
203
203
203
203
203
203
203
203
203
203
202
202
202
202
202
202
202
202
202
202
202
196
196
196
196
196
196
196
196
196
196
196
196
196
197
197
197
197
197
197
197
197
197
197
197
197
197
197
198
199
199
199
199
199
199
199
199
199
199
199
199
199
199
199
199
199
199
199
199
199
199
199
199
199
199
200
201
200
200
200
200
199
199
199
200
200
200
200
201
201
201
201
201
201
201
201
201
201
201
201
201
201
202
203
202
201
201
202
200
186
159
119
67
36
23
22
22
20
18
17
17
17
18
18
19
20
19
18
17
17
18
18
16
16
14
13
13
13
14
15
17
19
20
22
23
25
25
26
27
28
28
28
29
29
29
28
27
26
25
24
23
24
24
24
24
24
24
24
24
24
24
24
25
26
25
23
20
16
15
16
19
21
23
23
22
21
21
22
25
27
29
28
26
24
22
24
26
29
31
30
25
23
27
34
39
40
41
45
61
89
129
154
167
176
186
194
199
202
202
203
204
206
206
204
202
202
204
205
205
205
205
205
205
205
205
205
205
205
204
204
203
203
203
203
203
203
203
203
203
203
203
203
203
203
203
203
203
203
203
203
203
203
203
203
203
203
203
203
203
203
203
203
203
203
203
203
203
196
196
196
196
196
196
196
196
196
196
196
196
196
197
197
197
197
197
197
197
197
197
197
197
197
197
197
198
199
199
199
199
199
199
199
199
199
199
199
199
199
199
199
199
199
199
199
199
199
199
199
199
199
199
200
201
200
200
200
200
199
199
199
200
200
200
200
201
201
201
201
201
201
201
201
201
201
201
201
201
201
200
200
201
201
198
195
188
166
129
85
46
27
21
22
22
22
20
18
18
18
19
20
21
20
20
19
19
20
22
22
21
19
18
17
17
17
16
16
17
18
20
22
24
25
25
26
27
28
28
28
29
28
27
27
26
23
21
19
19
20
21
21
21
22
23
23
23
23
24
25
27
27
27
24
21
18
16
16
17
19
20
19
18
14
14
17
22
25
28
29
28
26
24
24
25
28
28
27
24
24
28
32
35
37
38
40
48
65
94
124
149
168
181
192
199
202
204
204
205
207
207
204
201
201
204
205
205
205
205
205
205
205
205
205
205
205
205
205
204
203
203
203
203
203
203
203
203
203
203
203
203
203
203
203
203
203
203
203
203
203
203
203
203
203
203
203
203
203
203
203
203
203
203
203
203
197
197
197
197
197
197
197
197
197
197
197
197
197
197
197
197
197
197
197
197
197
197
197
197
197
197
197
198
199
199
199
199
199
199
199
199
199
199
199
199
199
199
199
199
199
199
199
199
199
199
199
199
199
199
200
201
200
200
200
200
199
199
199
200
200
200
200
201
201
201
201
201
201
201
201
201
201
201
201
201
201
198
196
197
200
196
183
158
124
86
51
36
31
29
27
25
23
21
19
18
19
20
21
22
22
21
21
23
25
28
28
27
26
26
27
26
25
23
20
18
17
18
20
21
23
23
23
24
25
25
25
25
24
23
22
22
20
18
18
18
18
19
20
20
21
22
22
22
23
22
22
22
24
24
24
21
18
16
16
16
17
17
15
14
12
11
13
17
21
25
28
28
26
25
24
24
26
26
26
27
29
31
30
29
30
34
38
41
45
57
91
128
155
172
187
198
203
205
205
206
207
207
204
201
201
204
205
205
205
205
205
205
205
205
205
205
205
205
205
204
204
204
204
204
204
204
204
204
204
204
204
204
204
204
204
204
204
204
204
204
204
204
204
204
204
203
203
203
203
203
203
203
203
203
203
203
197
197
197
197
197
197
197
197
197
197
197
197
197
197
197
197
197
197
197
197
197
197
197
197
197
197
197
198
199
199
199
199
199
199
199
199
199
199
199
199
199
199
199
199
199
199
199
199
199
199
199
199
199
199
200
201
200
200
200
200
199
199
199
200
200
200
200
201
201
201
201
201
201
201
201
201
201
201
201
201
201
199
197
195
191
181
157
116
74
45
31
28
31
31
28
24
23
21
18
16
18
20
22
23
23
24
25
27
30
33
34
34
35
36
37
38
36
32
27
22
19
18
18
18
19
20
21
22
23
24
24
23
23
22
21
21
20
20
19
19
20
20
20
21
21
22
22
22
22
21
18
17
18
19
19
18
16
15
14
15
15
14
13
12
13
12
11
12
15
19
22
24
25
24
24
24
25
26
26
28
30
31
28
24
27
33
38
39
36
39
68
103
132
156
178
195
202
205
205
205
206
206
205
204
204
205
206
206
206
206
206
206
206
206
206
206
206
206
206
205
205
205
205
205
205
205
205
205
205
205
205
205
205
205
205
205
205
205
205
205
205
205
205
205
205
204
203
203
203
203
203
203
203
203
203
203
197
197
197
197
197
197
197
197
197
197
197
197
197
197
197
197
197
197
197
197
197
197
197
197
197
197
197
198
199
199
199
199
199
199
199
199
199
199
199
199
199
199
199
199
199
199
199
199
199
199
199
199
199
199
200
201
200
200
200
200
199
199
199
199
199
199
200
200
200
200
200
200
200
200
200
200
201
201
201
201
201
199
194
182
163
137
105
69
41
31
29
23
25
26
26
24
22
19
16
15
16
19
21
23
24
25
27
30
34
36
38
39
42
45
48
49
47
41
34
27
22
20
19
18
19
20
21
23
25
26
27
27
26
26
26
25
24
23
23
23
22
22
22
22
23
23
23
23
23
22
20
18
20
20
19
17
14
12
12
13
13
13
12
13
16
14
10
8
9
12
16
20
22
23
23
24
25
25
24
24
24
25
24
24
29
35
40
40
38
42
58
83
111
139
167
188
200
204
204
203
204
206
207
207
206
206
206
206
206
206
206
206
206
206
206
206
206
206
206
205
205
205
205
205
205
205
205
205
205
205
205
205
205
205
205
205
205
205
205
205
205
205
205
205
205
204
203
202
202
202
202
202
202
202
202
202
195
196
196
196
197
197
197
197
197
197
197
196
197
197
197
198
198
198
198
198
198
198
198
198
198
198
198
198
198
198
198
198
199
199
199
199
199
199
199
200
200
200
200
200
200
200
200
200
200
200
200
200
200
200
200
201
201
201
201
200
200
200
200
200
200
200
200
200
200
201
202
203
200
198
198
199
201
202
203
203
203
201
190
167
128
92
61
39
29
28
26
22
25
26
25
23
21
20
18
18
18
19
20
21
22
26
29
33
38
45
51
55
62
68
72
72
65
55
43
32
25
21
21
23
25
26
28
31
34
35
36
36
34
32
30
28
27
26
25
24
23
23
24
24
25
25
25
25
24
23
22
21
21
20
19
18
16
15
15
16
16
16
16
17
19
17
12
9
8
10
14
17
18
20
21
23
25
25
24
22
22
23
25
26
29
32
33
34
35
40
50
66
87
117
151
180
196
202
203
203
202
206
208
207
206
206
206
206
206
205
205
206
206
206
206
206
206
206
206
206
206
206
206
206
206
206
206
206
206
206
206
205
205
205
205
205
205
205
205
205
205
205
205
205
205
204
204
203
203
203
203
203
203
203
203
203
194
195
195
195
196
197
197
197
197
197
197
196
196
197
197
198
198
198
198
198
198
198
198
198
198
198
198
198
198
198
198
198
199
199
199
199
199
200
200
200
200
201
201
201
201
201
201
201
201
201
201
201
201
201
201
201
201
201
201
201
201
201
201
201
201
201
201
201
200
202
204
205
202
199
198
199
201
202
201
201
202
198
183
153
101
66
49
37
29
25
23
23
28
28
25
21
19
19
20
20
20
20
21
24
28
33
38
44
52
64
71
75
81
89
95
96
89
75
58
43
35
34
35
37
38
39
40
42
44
45
44
42
39
36
33
30
29
28
27
26
26
26
27
29
30
30
30
29
29
28
28
29
29
28
27
27
26
25
25
24
24
23
23
23
23
20
17
16
16
17
19
20
20
19
20
21
23
24
24
23
22
24
26
28
29
28
27
28
31
36
44
54
68
95
134
169
187
197
200
201
201
205
207
206
205
206
206
206
205
205
205
205
206
206
206
206
206
206
206
206
206
206
206
206
206
206
206
206
206
206
206
206
205
205
205
205
205
205
205
205
205
205
205
205
205
204
204
204
204
204
204
204
204
204
204
204
194
195
195
195
196
197
197
197
197
197
197
197
196
197
197
198
198
198
198
198
198
198
198
198
198
198
198
198
198
198
198
198
199
199
199
199
199
200
200
200
200
201
201
201
201
201
201
201
201
201
201
201
201
201
201
201
201
201
201
201
201
201
201
201
201
200
200
200
198
200
202
204
203
201
200
200
200
199
198
197
197
191
173
140
89
56
44
36
29
27
27
27
28
26
22
19
16
16
17
19
21
24
29
35
42
50
57
64
73
86
92
93
97
105
114
117
110
95
77
60
52
51
51
48
48
48
49
49
50
49
47
45
42
39
37
35
33
32
31
32
34
34
36
38
38
38
38
37
36
37
38
40
41
40
39
39
38
37
36
35
34
34
33
32
30
27
25
25
25
27
28
27
25
22
20
19
19
21
22
22
21
22
23
25
27
28
29
31
33
36
41
49
59
83
121
155
174
187
195
198
201
206
207
205
204
204
205
205
205
205
205
205
206
206
206
206
206
206
206
206
206
206
206
206
206
206
206
206
206
206
206
206
205
205
205
205
205
205
205
205
205
205
205
205
205
204
204
204
204
204
204
204
204
204
204
204
194
195
195
195
196
197
197
198
197
197
197
197
196
197
197
198
198
198
198
198
198
198
198
198
198
198
198
198
198
198
198
198
199
199
199
199
199
200
200
200
200
201
201
201
201
201
201
201
201
201
201
201
201
201
201
201
201
201
201
201
201
201
201
201
201
200
200
199
197
197
199
201
203
204
204
203
202
200
199
199
199
187
161
123
76
50
43
36
30
31
33
33
28
24
21
18
16
16
19
23
28
35
42
51
60
70
79
86
93
103
108
110
114
120
126
129
123
111
95
80
71
66
59
50
46
46
47
48
48
48
47
47
47
47
47
46
44
43
44
46
47
48
49
49
48
47
47
46
45
46
46
47
48
49
49
49
49
49
48
47
46
45
44
42
39
37
35
34
34
34
34
32
29
26
23
21
20
20
20
20
21
20
20
21
23
25
28
31
32
33
37
45
54
76
112
145
166
181
192
199
202
207
209
206
204
205
205
205
205
205
205
205
206
206
206
206
206
206
206
206
206
206
206
206
206
206
206
206
206
206
206
206
205
205
205
205
205
205
205
205
205
205
205
205
205
204
204
204
204
204
204
204
204
204
204
204
195
195
195
196
197
198
198
198
198
197
197
197
197
198
198
198
198
198
198
198
198
198
198
198
198
198
198
198
198
198
198
198
199
199
199
199
199
200
200
200
200
201
201
201
201
201
201
201
201
201
201
201
201
201
201
201
201
201
201
201
201
201
201
201
201
201
201
200
198
197
198
200
202
204
205
204
203
202
202
202
201
182
149
105
64
48
45
38
33
33
34
33
27
21
19
18
18
21
25
31
40
49
59
69
80
89
97
103
108
112
117
122
128
131
131
129
125
118
109
99
88
77
64
52
46
45
45
46
48
50
52
55
57
59
59
59
59
59
60
62
63
62
61
59
57
55
54
53
53
53
53
53
54
56
57
59
61
62
62
63
62
61
61
59
55
51
48
45
41
39
37
35
33
31
29
28
26
23
22
24
25
24
22
19
19
22
25
27
29
29
34
42
51
72
107
141
164
181
193
200
204
209
209
206
204
205
206
206
206
206
206
206
207
207
207
207
207
206
206
206
206
206
206
206
206
206
206
206
206
206
206
206
205
205
205
205
205
205
205
205
205
205
205
205
205
204
204
204
204
204
204
204
204
204
204
204
195
196
196
196
197
198
198
198
198
198
198
197
197
198
198
198
198
198
198
198
198
198
198
198
198
198
198
198
198
198
198
198
199
199
199
199
199
200
200
200
200
201
201
201
201
201
201
201
201
201
201
201
201
201
201
201
201
201
201
201
201
201
201
201
201
201
201
201
201
200
199
199
201
203
203
202
201
202
202
201
196
173
134
87
55
48
48
42
35
34
33
30
23
18
18
20
22
27
34
43
53
65
76
87
96
105
111
116
119
121
125
133
137
138
136
132
128
126
122
115
103
91
79
70
64
61
58
56
58
61
64
68
70
70
69
68
69
70
71
71
71
70
68
65
63
61
61
63
64
65
64
64
66
68
71
74
77
79
81
81
82
82
82
80
75
71
66
61
55
49
45
41
38
36
34
32
30
27
26
28
30
30
26
21
18
18
21
24
27
27
30
36
44
67
104
139
164
182
194
200
203
207
208
205
204
205
206
206
206
206
206
207
207
207
207
207
208
207
207
206
206
206
206
206
206
206
206
206
206
206
206
206
205
205
205
205
205
205
205
205
205
205
205
205
205
204
204
204
204
204
204
204
204
204
204
204
195
196
196
196
197
198
198
198
198
198
198
198
197
198
198
198
198
198
198
198
198
198
198
198
198
198
198
198
198
198
198
198
199
199
199
199
199
200
200
200
200
201
201
201
201
201
201
201
201
201
201
201
201
201
201
201
201
201
201
201
201
201
201
201
201
201
201
202
204
203
200
198
200
201
201
201
201
203
202
198
187
159
117
70
48
48
49
43
36
33
29
24
19
17
19
22
27
34
44
55
67
79
90
100
109
116
121
124
127
130
134
139
142
143
141
139
137
135
131
125
116
108
100
94
89
83
78
74
74
76
78
80
80
78
75
73
73
73
74
74
73
72
70
69
69
69
71
74
76
78
80
82
83
85
88
92
94
97
99
100
101
101
101
99
97
93
89
83
75
68
61
55
50
45
39
35
32
29
29
31
33
32
29
23
19
18
20
23
25
26
26
27
33
60
100
137
164
183
195
200
202
206
207
205
204
206
207
207
207
207
207
207
208
208
208
208
208
208
207
206
206
206
206
206
206
206
206
206
206
206
206
206
205
205
205
205
205
205
205
205
205
205
205
205
205
204
204
204
204
204
204
204
204
204
204
204
196
196
196
197
197
198
198
199
199
199
199
198
198
198
198
198
198
198
198
198
198
198
198
198
198
198
198
198
198
198
198
198
199
199
199
199
199
200
200
200
200
201
201
201
201
201
201
201
201
201
201
201
201
201
201
201
201
201
201
201
201
201
201
201
201
201
201
201
203
202
199
198
200
201
202
202
204
207
204
194
174
141
99
56
44
46
46
41
37
33
28
21
21
21
22
28
36
45
57
69
81
92
101
109
116
121
126
130
134
139
141
140
140
142
145
147
146
142
136
130
127
125
122
115
109
103
97
93
90
90
90
90
88
85
81
78
76
76
76
76
75
75
75
76
78
81
84
88
90
93
95
98
99
101
103
106
108
110
111
113
113
114
114
114
114
113
111
106
99
92
84
76
68
60
51
44
38
34
32
33
32
30
27
23
19
18
18
21
23
24
23
21
25
56
98
137
166
186
198
203
203
207
208
207
206
207
207
207
207
207
207
207
208
208
208
208
208
208
207
206
206
206
206
206
206
206
206
206
206
206
206
206
205
205
205
205
205
205
205
205
205
205
205
205
205
204
204
204
204
204
204
204
204
204
204
204
196
197
197
197
198
199
199
199
199
199
199
198
198
198
198
198
198
198
198
198
198
198
198
198
198
198
198
198
198
198
198
198
199
199
199
199
199
200
200
200
200
201
201
201
201
201
201
201
201
201
201
201
201
201
201
201
201
201
201
201
201
201
201
201
201
201
201
201
202
200
198
197
200
203
204
204
206
207
199
180
150
115
77
47
42
42
42
40
38
37
31
24
29
30
31
39
51
62
73
85
96
105
112
116
120
125
129
133
137
142
143
141
140
142
145
148
148
144
138
134
134
137
134
126
121
117
114
110
107
105
102
100
98
94
91
89
87
86
86
86
86
86
87
90
93
96
99
101
102
104
107
109
109
110
111
113
115
117
118
119
120
121
121
122
124
125
125
124
120
113
106
100
92
83
73
62
55
48
43
39
34
30
26
24
23
22
21
20
20
20
19
19
25
55
98
137
168
189
201
206
206
209
210
208
207
207
207
207
207
207
207
207
208
208
208
208
208
208
207
206
206
206
206
206
206
206
206
206
206
206
206
206
205
205
205
205
205
205
205
205
205
205
205
205
205
204
204
204
204
204
204
204
204
204
204
204
196
197
197
197
198
199
199
199
199
199
199
198
198
198
198
198
198
198
198
198
198
198
198
198
198
198
198
198
198
198
198
198
199
199
199
199
199
200
200
200
200
201
201
201
201
201
201
201
201
201
201
201
201
201
201
201
201
201
201
201
201
201
201
201
201
201
201
201
202
201
199
199
202
204
203
201
201
197
183
156
120
84
55
42
42
40
38
40
42
42
36
31
40
40
42
52
68
79
90
101
110
116
120
122
124
127
130
133
136
140
142
142
143
143
144
145
144
142
141
140
141
144
142
137
134
133
132
130
125
120
116
112
109
107
106
105
104
103
102
101
100
101
102
105
107
109
110
111
110
111
113
114
114
115
116
117
119
120
122
123
125
126
127
128
129
131
133
133
131
126
121
117
111
104
95
86
78
70
60
51
41
34
30
29
30
29
27
24
21
19
19
20
27
56
97
136
167
188
201
206
206
208
209
207
206
206
207
207
207
207
207
207
208
208
208
208
208
208
207
206
206
206
206
206
206
206
206
206
206
206
206
206
205
205
205
205
205
205
205
205
205
205
205
205
205
204
204
204
204
204
204
204
204
204
204
204
196
197
197
197
198
199
199
199
199
199
199
199
198
198
198
198
198
198
198
198
198
198
198
198
198
198
198
199
199
199
199
199
199
200
200
200
200
200
200
200
201
201
201
201
201
201
201
201
201
201
201
201
201
201
201
201
201
201
201
201
201
201
201
201
201
201
201
201
201
200
200
203
206
203
201
201
200
190
165
126
88
58
42
41
41
38
37
38
41
41
38
37
46
50
57
70
86
96
104
112
118
123
125
126
127
129
132
134
137
139
141
142
143
144
143
142
141
142
143
144
144
144
144
144
143
143
142
140
137
132
127
123
120
119
118
118
117
117
116
116
116
116
118
119
120
120
120
119
118
118
119
119
119
120
121
122
123
124
126
127
129
130
131
131
132
134
135
135
134
131
129
126
123
118
113
107
101
92
79
64
50
40
35
34
34
33
32
31
29
26
23
22
27
50
87
127
165
188
200
204
204
207
208
206
205
206
207
207
207
207
207
207
208
208
208
208
208
207
207
206
206
206
206
206
206
206
206
206
206
206
206
206
205
205
205
205
205
205
205
205
205
205
205
205
205
204
204
204
204
204
204
204
204
204
204
204
197
197
197
197
198
198
198
198
199
199
199
199
199
199
199
199
199
199
199
199
199
199
199
199
199
199
199
200
201
201
201
201
201
201
201
201
201
201
201
201
201
201
201
201
201
201
201
201
201
201
201
201
201
201
201
202
202
202
202
202
202
202
202
202
202
202
202
201
198
197
200
204
207
201
198
201
200
184
148
95
64
49
45
43
41
39
37
36
36
36
39
45
54
64
75
89
101
107
112
117
121
124
127
129
130
132
134
135
136
138
139
140
140
141
141
142
142
142
143
143
143
143
143
145
146
145
143
142
139
137
134
131
129
128
127
126
126
126
126
127
127
128
128
128
128
128
127
127
126
126
126
126
126
127
128
129
130
131
132
133
134
135
135
135
135
135
136
136
135
134
132
131
128
126
123
121
117
109
95
78
60
48
40
38
35
34
35
36
36
32
27
23
26
40
67
110
161
189
201
203
203
206
209
208
207
206
206
206
206
206
206
206
207
207
207
207
207
207
207
206
206
206
206
206
206
206
206
206
206
206
206
206
205
205
205
205
205
205
205
205
205
205
205
205
205
204
204
204
204
204
204
204
204
204
204
204
197
197
197
197
198
198
198
198
199
199
199
199
199
199
199
199
199
199
199
199
199
199
199
199
199
199
199
200
201
201
201
201
201
201
201
201
201
201
201
201
201
201
201
201
201
201
201
201
201
201
201
201
201
201
201
202
202
202
202
202
202
202
202
202
202
202
202
202
200
201
203
204
202
201
199
195
185
166
130
78
53
48
50
50
46
42
39
37
36
38
45
55
69
83
94
103
109
113
116
119
122
125
127
128
130
131
133
134
135
135
135
136
137
138
139
141
143
144
144
145
146
146
146
146
145
144
144
143
141
139
138
137
135
134
133
133
132
132
132
132
132
131
131
131
131
132
132
132
132
132
132
132
133
133
133
134
136
136
136
137
138
139
139
139
138
138
138
138
138
137
136
135
132
130
128
127
124
117
105
89
72
57
47
41
37
36
35
35
33
29
25
24
26
37
60
101
151
185
202
208
206
207
207
206
205
206
206
206
206
206
206
206
207
207
207
207
207
207
207
206
206
206
206
206
206
206
206
206
206
206
206
206
205
205
205
205
205
205
205
205
205
205
205
205
205
204
204
204
204
204
204
204
204
204
204
204
197
197
197
197
198
198
198
198
199
199
199
199
199
199
199
199
199
199
199
199
199
199
199
199
199
199
199
200
201
201
201
201
201
201
201
201
201
201
201
201
201
201
201
201
201
201
201
201
201
201
201
201
201
201
201
202
202
202
202
202
202
202
202
202
202
202
202
202
203
203
203
202
199
201
199
190
171
143
106
66
48
47
51
51
47
42
39
37
39
44
53
67
84
99
110
115
115
116
118
121
123
124
125
126
128
129
131
132
133
133
134
134
136
137
139
141
143
144
145
146
147
147
147
146
145
145
145
144
143
142
142
142
141
140
139
139
139
138
138
137
136
135
135
134
135
136
136
137
138
138
139
139
139
139
139
140
140
140
141
141
141
141
141
141
141
141
141
141
141
140
139
138
137
136
134
133
131
124
114
101
85
69
55
47
43
40
37
34
30
28
28
28
28
32
48
81
124
163
189
201
201
203
204
204
204
205
206
206
206
206
206
206
207
207
207
207
207
207
207
206
206
206
206
206
206
206
206
206
206
206
206
206
205
205
205
205
205
205
205
205
205
205
205
205
205
204
204
204
204
204
204
204
204
204
204
204
197
197
197
197
198
198
198
198
199
199
199
199
199
199
199
199
199
199
199
199
199
199
199
199
199
199
199
200
201
201
201
201
201
201
201
201
201
201
201
201
201
201
201
201
201
201
201
201
201
201
201
201
201
201
201
202
202
202
202
202
202
202
202
202
202
202
202
202
203
203
201
200
202
203
200
189
163
123
82
59
48
46
47
45
42
38
38
40
46
55
67
80
95
109
118
121
119
119
121
123
124
124
124
125
126
128
130
131
133
134
135
136
137
138
140
141
142
143
144
145
145
146
146
146
145
145
145
145
145
145
145
145
145
145
144
144
144
143
142
142
141
140
139
139
139
140
141
142
143
143
143
143
142
142
142
142
142
142
141
141
141
141
141
141
142
142
142
142
142
141
141
140
139
138
137
137
135
129
121
111
97
80
64
53
50
47
43
38
33
32
33
33
31
28
34
58
93
138
173
193
198
201
203
204
205
206
206
206
206
206
206
206
207
207
207
207
207
207
207
207
206
206
206
206
206
206
206
206
206
206
206
206
206
205
205
205
205
205
205
205
205
205
205
205
205
205
205
204
204
204
204
204
204
204
204
204
197
197
197
197
198
198
198
198
199
199
199
199
199
200
200
200
200
200
200
200
200
200
200
200
200
200
200
201
201
201
201
201
201
201
201
201
201
201
201
201
201
201
201
201
201
201
201
201
201
201
201
201
201
201
201
202
202
202
202
202
202
202
202
202
202
202
202
202
203
201
199
200
205
205
200
187
156
109
66
58
50
45
42
39
36
35
39
47
59
71
83
94
105
114
120
122
121
122
122
123
124
124
124
124
126
128
130
132
135
137
138
139
139
140
141
142
142
143
143
143
143
143
144
145
146
146
146
146
146
146
147
147
147
147
146
146
145
145
144
144
144
144
144
143
144
144
144
144
145
145
144
144
143
143
143
142
142
141
141
140
139
139
139
139
140
141
141
141
141
141
141
141
140
139
138
138
136
131
125
118
108
91
75
63
59
56
51
44
38
38
39
37
32
27
28
43
72
123
164
190
201
204
205
205
206
206
206
206
206
206
206
207
207
207
207
207
207
207
207
207
207
207
207
207
207
207
207
207
207
207
207
207
206
206
206
206
206
206
206
206
206
206
206
206
206
205
205
204
204
204
204
204
204
204
204
204
197
197
197
197
198
198
198
198
199
199
199
199
199
200
200
200
200
200
200
200
200
200
200
200
200
200
200
201
201
201
201
201
201
201
201
201
201
201
201
201
201
201
201
201
201
201
201
201
201
201
201
201
201
201
201
202
202
202
202
202
202
202
202
202
202
202
202
202
201
199
199
201
205
205
195
176
141
95
59
57
50
45
42
39
35
36
42
54
70
85
98
108
115
119
121
122
122
123
123
124
124
124
124
125
127
129
131
134
136
139
140
140
140
141
141
142
143
143
143
142
142
142
144
146
147
147
147
147
147
146
146
146
146
146
146
145
144
144
144
145
146
146
147
147
147
146
145
145
144
144
144
145
144
144
143
143
142
141
140
139
138
138
137
137
138
139
139
139
139
139
139
139
138
137
137
137
135
133
130
125
117
103
88
76
70
65
58
51
45
43
42
38
32
28
30
40
64
116
160
191
206
209
208
207
207
207
207
207
207
207
207
207
208
208
208
208
208
208
208
208
208
208
208
208
208
208
208
208
208
208
208
208
206
206
206
206
206
206
206
206
206
206
206
206
206
205
205
205
205
205
205
205
205
205
205
205
197
197
197
197
198
198
198
198
199
199
199
199
199
200
200
201
201
201
201
201
201
201
201
201
201
201
201
201
201
201
201
201
201
201
201
201
201
201
201
201
201
201
201
201
201
201
201
201
201
201
201
201
201
201
201
202
202
202
202
202
202
202
202
202
202
202
202
201
200
201
202
203
201
199
185
154
115
78
55
52
47
45
45
43
40
39
46
60
77
92
106
115
120
122
123
122
122
123
123
124
125
125
125
126
128
130
132
134
136
138
139
139
140
141
142
143
144
145
145
145
145
145
146
147
148
148
148
147
147
146
146
146
145
144
144
144
143
144
144
144
146
147
147
148
147
146
146
145
144
145
145
146
146
145
145
144
143
142
141
140
139
138
138
138
137
137
137
137
137
137
136
136
135
135
135
135
134
134
134
132
125
115
102
90
81
73
65
57
51
47
44
39
34
32
31
35
50
97
141
177
202
208
209
209
209
208
208
208
208
208
208
208
209
209
209
209
209
209
209
208
208
208
208
208
208
208
208
208
208
208
208
208
207
207
207
207
207
207
207
207
207
207
207
207
207
206
206
206
206
206
206
206
206
206
206
206
197
197
197
197
198
198
198
198
199
199
199
199
199
200
200
201
201
201
201
201
201
201
201
201
201
201
201
201
201
201
201
201
201
201
201
201
201
201
201
201
201
201
201
201
201
201
201
201
201
201
201
201
201
201
201
202
202
202
202
202
202
202
202
202
202
202
202
201
201
203
205
203
196
188
167
129
88
62
53
51
47
47
47
47
45
46
53
66
81
95
107
115
119
121
122
122
122
123
124
125
126
126
126
127
129
130
132
133
135
136
138
139
140
141
143
144
145
146
147
148
149
149
149
149
148
148
148
147
146
146
146
146
145
144
144
144
144
144
144
144
145
146
146
146
146
145
145
144
144
145
146
148
147
146
146
145
144
143
142
141
140
139
139
139
137
136
136
136
136
135
135
134
133
134
134
134
134
136
136
134
130
123
114
102
90
79
70
63
57
51
45
41
38
36
33
30
37
72
116
157
191
203
208
210
210
209
208
208
208
208
208
208
209
209
209
209
209
209
209
208
208
208
208
208
208
208
208
208
208
208
208
208
207
207
207
207
207
207
207
207
207
207
207
207
207
206
206
206
206
206
206
206
206
206
206
206
197
197
197
197
198
198
198
198
199
199
199
199
199
200
200
201
201
201
201
201
201
201
201
201
201
201
201
201
201
201
201
201
201
201
201
201
201
201
201
201
201
201
201
201
201
201
201
201
201
201
201
201
201
201
201
202
202
202
202
202
202
202
202
202
202
202
202
202
203
205
205
202
193
174
145
105
67
52
54
56
51
48
49
50
50
54
62
74
87
99
108
115
118
120
121
121
123
124
126
127
128
128
128
128
129
130
131
132
134
137
138
139
141
142
143
144
146
147
148
149
149
149
149
149
149
148
148
147
146
146
146
146
145
145
145
144
145
145
145
144
144
144
144
144
144
144
144
144
145
146
147
148
148
147
146
146
144
143
142
141
140
140
140
139
138
137
137
136
136
135
135
134
133
134
134
134
134
136
136
134
131
128
122
111
97
85
76
69
64
56
47
42
40
41
38
32
32
54
98
144
185
200
206
209
210
209
208
208
208
208
208
208
209
209
209
209
209
209
209
208
208
208
208
208
208
208
208
208
208
208
208
208
207
207
207
207
207
207
207
207
207
207
207
207
207
206
206
206
206
206
206
206
206
206
206
206
197
197
197
198
198
198
198
198
199
199
199
199
199
200
200
201
201
201
201
201
201
201
201
201
201
201
201
201
201
201
201
201
201
201
201
201
201
201
201
201
201
201
201
201
201
201
201
201
201
201
201
201
201
201
201
202
202
202
202
202
202
202
202
202
202
202
202
203
204
204
203
201
193
165
125
85
55
49
56
60
55
53
54
56
57
63
72
83
94
104
111
115
118
119
121
122
123
124
126
127
128
129
129
129
130
131
132
133
134
137
140
141
143
144
146
147
148
148
148
148
147
147
147
148
148
148
147
147
146
147
147
147
146
146
146
145
145
145
145
145
144
144
143
142
142
143
143
144
145
145
146
147
146
146
146
145
144
143
142
141
141
140
140
140
139
138
138
137
137
136
136
135
134
134
134
134
135
136
136
134
132
131
127
118
105
92
82
75
70
63
55
48
45
44
43
39
37
49
89
135
177
197
205
207
208
208
208
208
208
208
208
208
209
209
209
209
209
209
209
208
208
208
208
208
208
208
208
208
208
208
208
208
207
207
207
207
207
207
207
207
207
207
207
207
207
206
206
206
206
206
206
206
206
206
206
206
198
198
198
198
198
199
199
199
199
199
199
200
200
201
201
201
201
201
201
201
201
201
201
201
201
201
201
201
202
202
202
202
202
202
202
202
202
202
202
202
202
202
202
202
202
202
202
202
202
202
202
202
202
202
202
203
203
203
203
203
203
203
203
203
203
202
202
203
203
202
202
201
196
159
110
70
53
54
57
56
56
59
62
64
66
71
80
91
101
109
114
116
118
120
122
122
123
124
125
126
128
130
132
133
134
135
136
137
138
140
141
143
144
146
148
150
150
149
148
147
145
144
145
146
146
146
145
145
146
147
147
148
148
147
146
145
145
145
145
145
145
144
143
142
141
141
142
142
144
144
144
144
144
144
144
144
143
143
142
142
142
141
141
141
141
140
139
139
137
136
136
135
135
135
135
136
136
136
136
135
134
132
129
123
114
103
92
82
75
71
66
58
50
45
42
41
40
44
73
115
157
188
202
205
206
208
210
210
210
209
209
209
208
208
208
208
208
208
208
208
208
208
208
208
208
208
208
208
208
208
208
208
206
206
206
206
206
206
206
206
206
206
206
206
206
206
206
206
206
206
206
206
206
206
206
206
198
198
198
198
198
199
199
199
199
199
199
200
200
201
201
201
201
201
201
201
201
201
201
201
201
201
201
202
202
202
202
202
202
202
202
202
202
202
202
202
202
202
202
202
202
202
202
202
202
202
202
202
202
202
202
203
203
203
203
203
203
203
203
203
203
202
202
203
204
202
200
200
193
155
104
64
51
54
56
56
58
59
60
63
69
78
89
100
108
114
117
118
120
122
124
126
127
127
128
128
130
131
133
134
136
137
139
140
140
140
141
141
142
143
144
145
146
147
149
150
150
150
149
148
146
145
145
144
145
146
147
148
148
147
146
145
145
145
145
145
146
145
144
143
141
141
141
142
144
145
146
147
146
146
146
146
145
144
143
143
142
142
142
142
141
140
140
139
138
137
136
135
135
135
135
135
135
135
135
135
135
134
131
127
118
108
96
84
75
70
64
56
50
47
44
41
42
43
69
110
154
189
205
207
206
208
209
210
210
209
209
209
208
207
207
208
208
208
208
208
208
208
208
208
208
208
208
208
208
208
208
208
206
206
206
206
206
206
206
206
206
206
206
206
206
206
206
206
206
206
206
206
206
206
206
206
198
198
198
198
198
199
199
199
199
199
199
200
200
201
201
201
201
201
201
201
201
201
201
201
201
201
201
202
202
202
202
202
202
202
202
202
202
202
202
202
202
202
202
202
202
202
202
202
202
202
202
202
202
202
202
203
203
203
203
203
203
203
203
203
203
202
202
203
204
202
200
198
190
151
100
61
50
53
56
56
60
60
59
64
75
89
101
110
115
117
118
119
121
124
126
127
128
128
129
130
132
133
134
135
137
138
138
139
140
141
142
143
143
143
144
144
145
146
147
147
148
148
149
148
147
146
146
145
145
146
146
147
147
146
145
144
145
145
145
146
146
145
145
144
142
142
142
143
145
146
148
149
148
147
147
147
146
145
144
144
143
142
142
142
141
141
141
140
139
138
137
136
135
135
134
133
133
134
134
134
135
135
134
130
122
111
98
85
74
67
61
54
53
54
50
43
47
47
69
110
156
192
209
210
208
208
209
209
210
209
209
208
207
207
207
208
208
208
208
208
208
208
208
208
208
208
208
208
208
208
208
208
206
206
206
206
206
206
206
206
206
206
206
206
206
206
206
206
206
206
206
206
206
206
206
206
198
198
198
198
198
199
199
199
199
199
199
200
200
201
201
201
201
201
201
201
201
201
201
201
201
201
201
202
202
202
202
202
202
202
202
202
202
202
202
202
202
202
202
202
202
202
202
202
202
202
202
202
202
202
202
203
203
203
203
203
203
203
203
203
203
202
202
203
204
202
199
197
188
149
97
60
50
53
56
57
63
65
67
74
88
103
113
118
119
119
119
120
122
124
126
127
127
128
130
132
134
135
137
138
139
139
139
139
139
141
143
144
144
145
146
147
146
146
146
145
145
144
146
148
148
147
146
145
146
146
147
147
147
146
144
143
144
145
145
146
146
145
145
144
143
143
143
144
146
147
148
149
148
147
147
146
146
145
145
144
144
143
143
142
142
142
142
142
141
140
139
138
136
135
134
133
132
133
133
133
134
135
135
132
125
114
100
87
75
68
61
55
56
58
53
43
48
48
65
101
146
186
206
208
206
207
208
209
209
208
208
208
207
207
207
207
207
207
207
208
208
208
208
208
208
208
208
208
208
208
208
208
206
206
206
206
206
206
206
206
206
206
206
206
206
206
206
206
206
206
206
206
206
206
206
206
198
198
198
198
198
199
199
199
199
199
199
200
200
201
201
201
201
201
201
201
201
201
201
201
201
201
201
202
202
202
202
202
202
202
202
202
202
202
202
202
202
202
202
202
202
202
202
202
202
202
202
202
202
202
202
203
203
203
203
203
203
203
203
203
203
202
202
203
203
202
200
197
187
147
96
60
51
54
56
57
67
74
82
92
104
115
121
123
121
120
119
121
124
126
127
128
130
131
133
135
137
139
140
141
142
143
142
142
141
141
141
142
142
144
145
146
146
146
147
146
146
146
146
147
147
146
145
144
145
146
146
147
146
145
145
144
144
145
145
146
146
145
145
144
143
143
143
144
146
147
147
147
147
146
146
146
146
145
145
145
145
145
144
144
144
144
144
144
144
143
142
141
138
137
135
134
133
132
132
132
133
134
134
132
126
115
103
90
79
71
64
58
56
57
52
42
45
44
55
83
124
171
195
201
202
205
207
208
208
208
208
207
206
206
206
207
207
207
207
208
208
208
208
208
208
208
208
208
208
208
208
208
206
206
206
206
206
206
206
206
206
206
206
206
206
205
205
205
205
205
205
205
205
205
205
205
198
198
198
198
198
199
199
199
199
199
199
200
200
201
201
201
201
201
201
201
201
201
201
201
201
201
201
202
202
202
202
202
202
202
202
202
202
202
202
202
202
202
202
202
202
202
202
202
202
202
202
202
202
202
202
203
203
203
203
203
203
203
203
203
203
202
202
203
202
201
201
198
188
148
97
62
53
55
57
60
74
88
100
110
117
123
125
124
122
121
122
125
128
130
131
131
132
132
132
132
133
133
134
136
138
140
142
144
144
145
146
146
145
144
144
143
143
142
143
143
144
144
144
144
144
143
142
142
143
144
145
146
146
145
145
144
143
144
144
144
145
144
144
143
142
142
143
144
145
146
146
145
145
146
146
146
146
146
146
147
147
147
147
148
147
147
147
147
146
145
144
143
141
139
137
136
135
134
133
132
132
133
133
131
126
117
106
94
84
78
71
65
60
58
54
47
46
46
52
73
111
163
192
201
204
205
206
206
207
207
207
207
206
206
206
207
207
207
207
207
207
207
207
207
207
207
207
207
207
207
207
207
206
206
206
206
206
206
206
206
206
206
206
206
206
205
205
204
204
204
204
204
204
204
204
204
198
198
198
198
198
199
199
199
199
199
199
200
200
201
201
201
201
201
201
201
201
201
201
201
201
201
201
202
202
202
202
202
202
202
202
202
202
202
202
202
202
202
202
202
202
202
202
202
202
202
202
202
202
202
202
203
203
203
203
203
203
203
203
203
203
202
202
203
202
202
203
201
190
149
98
63
55
57
59
66
84
101
113
121
124
125
125
124
123
123
125
128
130
131
131
127
123
120
118
115
114
113
113
115
118
122
126
130
132
134
136
138
139
141
142
143
143
143
142
140
139
138
137
138
139
138
138
138
140
141
143
144
145
144
144
144
142
141
141
142
143
142
142
141
140
141
141
142
144
145
145
144
145
146
146
146
147
147
148
149
150
150
150
150
148
148
148
148
147
146
145
144
142
141
139
138
137
136
135
134
132
132
132
131
126
118
109
99
90
84
78
72
66
61
58
56
51
50
56
75
110
164
196
207
208
206
205
205
206
206
206
206
205
205
205
206
207
207
207
206
206
206
206
206
206
206
206
206
206
206
206
206
206
206
206
206
206
206
206
206
206
206
206
206
206
205
205
204
204
204
204
204
204
204
204
204
198
198
198
198
198
199
199
199
199
199
199
200
200
201
201
201
201
201
201
201
201
201
201
201
201
201
201
202
202
202
202
202
202
202
202
202
202
202
202
202
202
202
202
202
202
202
202
202
202
202
202
202
202
202
202
203
203
203
203
203
203
203
203
203
203
202
202
203
202
203
204
203
191
149
98
63
56
59
64
75
98
113
122
125
125
125
125
125
124
124
124
123
122
122
119
112
103
98
95
91
89
86
86
87
90
94
98
102
104
105
107
111
115
120
126
130
134
136
137
136
134
132
132
132
131
131
131
132
135
137
139
141
143
143
143
142
140
139
139
140
141
140
140
139
138
139
140
141
142
143
143
144
144
145
145
146
147
147
148
149
150
150
150
149
148
148
148
147
145
144
144
143
141
140
140
139
139
138
137
136
134
133
133
132
128
121
112
102
93
87
81
74
66
61
60
60
53
51
59
81
116
166
195
205
206
205
204
205
205
205
205
205
205
205
205
206
207
207
207
206
206
206
206
206
206
206
206
206
206
206
206
206
206
206
206
206
206
206
206
206
206
206
206
206
206
205
205
204
204
204
204
204
204
204
204
204
198
198
198
198
198
199
199
199
199
199
199
200
200
201
201
201
201
201
201
201
201
201
201
201
201
201
201
202
202
202
202
202
202
202
202
202
202
202
202
202
202
202
202
202
202
202
202
202
202
202
202
202
202
202
202
203
203
203
203
203
203
203
203
203
203
202
202
203
202
203
205
204
191
149
97
62
56
61
69
84
110
123
126
125
123
124
125
126
126
123
118
112
106
102
97
89
78
74
72
70
69
67
66
65
65
67
68
69
69
66
66
69
75
83
91
99
107
113
117
120
122
124
125
125
124
124
125
127
130
133
135
137
140
141
141
140
139
137
137
138
139
138
138
137
137
137
138
139
141
142
142
142
142
143
143
144
144
144
145
146
147
147
147
147
147
147
146
145
144
143
142
141
140
140
140
140
140
140
139
138
136
136
136
134
130
123
114
104
95
88
82
74
67
63
64
64
56
50
62
90
128
170
193
200
201
202
203
204
205
205
205
205
205
205
205
206
206
207
207
206
206
206
206
206
206
206
206
206
206
206
206
206
206
206
206
206
206
206
206
206
206
206
206
206
206
205
205
204
204
204
204
204
204
204
204
204
198
198
198
198
198
199
199
199
199
199
199
200
200
201
201
201
201
201
201
201
201
201
201
201
201
201
201
202
202
202
202
202
202
202
202
202
202
202
202
202
202
202
202
202
202
202
202
202
202
202
202
202
202
202
202
203
203
203
203
203
203
203
203
203
203
202
202
203
201
203
205
203
190
148
95
60
55
63
76
95
120
129
128
124
123
123
124
125
124
119
110
99
89
83
77
72
68
67
67
68
69
70
69
67
63
58
53
49
48
48
49
48
48
50
54
58
64
71
79
87
95
102
109
115
117
118
119
121
124
128
131
134
137
138
139
139
137
136
136
136
136
136
135
133
132
133
134
135
137
139
140
140
140
139
139
140
139
139
139
139
140
140
141
141
142
141
141
140
139
138
138
137
137
137
137
138
139
141
140
139
137
137
137
136
133
126
117
106
96
89
83
79
76
73
73
72
64
56
71
106
146
180
197
201
201
202
203
204
204
204
204
205
204
205
205
205
206
206
206
206
206
206
206
206
206
206
206
206
206
206
206
206
206
206
206
206
206
206
206
206
206
206
206
206
206
205
205
204
204
204
204
204
204
204
204
204
198
198
198
198
199
200
200
200
199
199
199
198
199
200
200
201
201
201
201
201
201
201
201
201
201
201
201
202
202
202
202
202
202
202
202
202
202
202
202
202
202
203
203
203
203
203
203
203
203
203
203
203
203
203
203
203
203
203
203
203
203
203
203
203
203
202
202
203
201
200
201
198
186
145
93
58
53
69
94
114
121
125
125
125
124
122
120
115
110
103
95
88
83
81
81
84
88
89
88
88
90
92
93
92
86
77
66
56
50
48
47
44
42
40
40
40
40
41
47
56
68
80
90
97
102
106
109
113
117
122
126
131
134
135
136
135
135
136
135
133
128
128
126
122
118
119
120
121
124
130
135
136
134
131
129
128
128
126
125
124
123
123
123
123
121
120
121
121
121
122
122
122
121
122
125
129
134
140
142
140
136
135
135
136
135
130
122
112
101
93
87
83
81
79
76
71
67
59
79
119
162
185
197
202
204
203
202
203
203
203
203
203
203
203
203
203
204
204
205
206
206
206
206
206
207
207
207
207
208
208
208
208
208
208
208
208
207
207
207
207
207
207
207
206
206
205
205
205
205
205
205
205
205
205
205
205
198
198
198
198
199
200
200
200
199
199
199
198
198
199
200
201
201
201
201
201
201
201
201
201
201
201
201
202
202
202
202
202
202
202
202
202
202
202
202
202
202
203
203
203
203
203
203
203
203
203
203
203
203
203
203
203
203
203
203
203
203
203
203
203
203
202
202
203
201
201
201
199
188
147
96
61
56
76
103
123
124
124
126
126
123
119
113
106
100
94
91
91
94
98
102
107
110
109
108
107
107
109
110
110
107
103
97
92
86
80
74
69
63
57
51
46
42
38
38
42
49
58
71
83
91
97
103
108
112
117
123
128
132
134
134
133
134
135
134
131
124
122
120
115
110
110
110
109
111
113
113
111
106
102
98
96
95
93
91
89
88
88
88
87
86
86
87
90
93
97
99
101
102
104
109
114
121
128
133
135
136
137
138
138
137
135
130
121
110
98
90
85
82
79
75
70
67
62
85
127
170
189
198
203
205
203
202
203
203
203
203
203
202
202
202
203
203
204
205
206
206
206
206
206
207
207
207
207
208
208
208
208
208
208
208
208
208
207
207
207
207
207
207
206
206
205
205
205
205
205
205
205
205
205
205
205
198
198
198
198
199
200
200
200
199
199
199
198
198
199
200
201
201
201
201
201
201
201
201
201
201
201
201
202
202
202
202
202
202
202
202
202
202
202
202
202
202
203
203
203
203
203
203
203
203
203
203
203
203
203
203
203
203
203
203
203
203
203
203
203
203
202
202
203
203
203
203
202
192
152
100
66
62
81
108
127
128
128
128
126
122
116
110
104
100
98
99
102
107
113
117
120
120
119
118
117
116
116
116
116
116
115
114
112
109
102
96
91
85
77
70
63
59
58
58
57
55
55
65
79
88
95
101
107
112
118
124
129
132
134
134
133
134
134
133
129
124
120
116
112
109
107
104
101
98
93
85
77
71
65
59
55
53
51
49
48
47
49
50
50
50
50
53
58
64
71
76
80
83
87
91
95
101
105
112
120
129
135
137
137
138
138
136
132
121
108
96
87
82
79
75
71
69
67
92
134
177
194
201
205
205
203
202
203
203
203
203
203
202
202
202
203
203
204
204
205
206
206
206
206
206
207
207
207
207
208
208
208
208
208
208
208
208
207
207
207
207
207
207
206
206
205
205
205
205
205
205
205
205
205
205
205
198
198
198
198
199
200
200
200
199
199
199
198
198
199
200
201
201
201
201
201
201
201
201
201
201
201
201
202
202
202
202
202
202
202
202
202
202
202
202
202
202
203
203
203
203
203
203
203
203
203
203
203
203
203
203
203
203
203
203
203
203
203
203
203
203
202
202
203
203
203
205
204
195
155
103
68
66
86
111
129
131
130
128
125
121
116
112
109
107
107
108
110
114
118
120
121
120
120
120
120
119
118
117
116
115
115
116
116
115
110
106
103
99
93
86
81
78
78
78
78
77
74
77
85
92
98
105
111
117
122
128
133
136
136
136
134
134
134
133
131
127
120
113
109
107
104
100
95
87
79
72
66
60
54
49
45
43
43
42
43
45
49
52
54
53
53
55
58
62
67
72
75
76
77
78
80
81
82
87
97
110
120
127
132
136
139
140
137
130
122
110
96
84
78
75
73
71
75
103
144
184
199
204
205
204
203
202
203
203
203
203
203
202
202
202
203
203
203
204
205
205
205
205
205
206
206
206
207
207
207
207
207
208
208
208
208
208
207
207
207
207
207
207
206
206
205
205
205
205
205
205
205
205
205
205
205
198
198
198
198
199
200
200
200
199
199
199
198
198
199
200
201
201
201
201
201
201
201
201
201
201
201
201
202
202
202
202
202
202
202
202
202
202
202
202
202
202
203
203
203
203
203
203
203
203
203
203
203
203
203
203
203
203
203
203
203
203
203
203
203
203
202
202
203
202
203
204
203
194
154
103
67
69
90
114
131
133
131
129
126
122
118
116
114
113
114
115
116
117
117
117
117
118
118
119
120
120
121
120
119
119
120
121
122
121
116
112
110
107
102
97
92
89
87
86
86
87
88
90
95
100
107
113
120
125
130
135
138
141
141
140
138
136
135
135
134
133
124
115
111
110
105
101
96
87
78
73
70
66
61
57
55
55
55
56
58
62
66
71
77
83
85
85
86
88
90
92
93
93
92
91
90
89
84
82
85
93
103
114
124
132
136
137
136
134
134
126
108
90
80
77
76
74
84
115
154
190
203
205
204
203
202
202
203
203
203
203
203
202
202
202
203
203
203
203
204
204
205
205
205
205
205
205
206
206
206
206
206
208
208
208
208
208
207
207
207
207
207
207
206
206
205
205
205
205
205
205
205
205
205
205
205
198
198
198
198
199
200
200
200
199
199
199
198
198
199
200
201
201
201
201
201
201
201
201
201
201
201
201
202
202
202
202
202
202
202
202
202
202
202
202
202
202
203
203
203
203
203
203
203
203
203
203
203
203
203
203
203
203
203
203
203
203
203
203
203
203
202
202
203
203
202
202
201
192
153
102
67
72
95
118
132
135
134
131
128
124
119
116
114
113
114
115
116
116
116
115
113
110
108
107
107
108
108
108
109
109
109
109
108
109
111
110
105
100
95
92
89
85
82
81
81
84
87
93
100
106
113
119
125
130
135
140
144
145
145
144
142
139
138
138
139
140
131
121
116
114
109
104
100
93
86
83
83
80
77
75
75
75
76
78
80
84
88
93
98
103
105
106
107
108
110
111
112
113
113
113
111
110
105
100
98
98
102
109
117
125
129
132
134
136
139
133
118
99
86
79
78
78
95
128
164
194
204
204
203
201
202
202
203
203
203
203
203
202
202
202
203
203
203
203
203
204
204
204
204
204
205
205
205
205
205
205
206
208
208
208
208
208
207
207
207
207
207
207
206
206
205
205
205
205
205
205
205
205
205
205
205
198
198
198
198
199
200
200
200
199
199
199
198
198
199
200
201
201
201
201
201
201
201
201
201
201
201
201
202
202
202
202
202
202
202
202
202
202
202
202
202
202
203
203
203
203
203
203
203
203
203
203
203
203
203
203
203
203
203
203
203
203
203
203
203
203
202
202
203
204
203
202
200
192
154
103
70
79
104
123
134
136
135
132
128
124
119
116
113
111
110
110
109
108
107
104
99
93
91
92
94
98
104
109
113
115
115
113
111
108
106
101
93
84
79
77
77
76
74
73
74
78
84
92
100
107
113
119
126
131
136
141
145
148
148
147
145
143
141
142
144
145
137
129
123
120
114
109
105
98
92
88
86
84
83
83
84
86
88
89
92
97
102
107
111
113
115
117
118
118
119
120
122
123
124
124
123
122
121
119
117
115
112
110
111
116
122
129
135
138
140
136
126
110
92
82
80
81
106
141
173
197
203
203
202
201
202
202
203
203
203
203
203
202
202
202
203
203
203
203
203
203
204
204
204
204
204
204
205
205
205
205
206
208
208
208
208
208
207
207
207
207
207
207
206
206
205
205
205
205
205
205
205
205
205
205
205
198
198
198
198
199
200
200
200
199
199
199
198
198
199
200
201
201
201
201
201
201
201
201
201
201
201
201
202
202
202
202
202
202
202
202
202
202
202
202
202
202
203
203
203
203
203
203
203
203
203
203
203
203
203
203
203
203
203
203
203
203
203
203
203
203
202
202
203
204
203
202
201
194
156
106
76
89
114
131
137
137
134
130
126
123
120
116
113
109
106
102
98
93
90
86
83
82
83
85
90
97
105
113
118
119
118
115
110
104
98
90
80
72
66
65
66
66
65
64
67
72
80
89
99
106
112
118
124
130
136
141
145
148
150
149
148
145
145
146
147
146
142
136
131
126
119
113
107
100
93
88
86
84
84
85
87
89
91
93
96
101
106
110
113
115
118
120
122
123
124
124
125
127
128
127
127
126
127
128
129
127
122
115
110
111
119
129
137
142
141
138
134
120
98
83
81
84
116
152
182
199
202
202
202
202
202
202
203
203
203
203
203
202
202
202
203
203
203
203
203
203
203
203
203
203
204
204
204
204
205
205
205
207
208
208
208
208
207
207
207
207
207
207
206
206
205
205
205
205
205
205
205
205
205
205
205
198
198
198
198
199
200
200
200
199
199
199
198
198
199
200
201
201
201
201
201
201
201
201
201
201
201
201
202
202
202
202
202
202
202
202
202
202
202
202
202
202
203
203
203
203
203
203
203
203
203
203
203
203
203
203
203
203
203
203
203
203
203
203
203
203
202
202
203
204
202
201
201
195
159
112
84
99
124
137
138
136
132
127
124
122
119
116
112
106
101
95
90
84
80
80
84
90
91
89
89
89
91
92
91
88
83
76
70
69
74
77
75
72
69
65
60
55
51
53
59
69
80
91
101
108
114
120
125
130
136
141
146
149
151
150
149
148
147
147
146
144
143
141
137
130
123
114
104
95
91
89
89
86
86
86
86
87
88
89
91
95
100
104
107
107
110
115
120
123
124
125
125
127
128
128
128
126
126
127
129
130
128
123
119
118
124
131
138
142
142
142
141
128
102
82
81
85
123
162
189
200
202
202
203
204
203
202
203
203
203
203
203
202
202
202
203
203
203
203
202
202
203
203
203
203
203
203
204
204
204
204
205
207
208
208
208
208
207
207
207
207
207
207
206
206
205
205
205
205
205
205
205
205
205
205
205
198
198
198
198
199
200
200
200
199
199
199
198
198
199
200
201
201
201
201
201
201
201
201
201
201
201
201
202
202
202
202
202
202
202
202
202
202
202
202
202
202
203
203
203
203
203
203
203
203
203
203
203
203
203
203
203
203
203
203
203
203
203
203
203
203
203
203
203
203
201
201
201
196
162
116
90
105
130
142
139
134
131
129
127
123
118
112
106
100
94
91
88
87
87
86
84
81
75
69
64
60
57
55
52
48
45
43
41
42
50
58
65
72
74
70
60
49
43
46
58
73
90
101
109
115
120
124
129
132
137
142
146
149
151
151
150
149
149
148
145
141
143
144
140
132
126
115
100
89
84
82
81
77
74
72
70
68
68
68
68
69
73
77
80
82
87
95
103
108
111
114
116
119
122
125
126
126
127
128
129
131
132
132
132
132
132
132
134
138
141
146
147
133
104
81
79
85
129
169
194
201
201
202
205
206
204
203
203
203
203
203
202
202
202
202
203
203
203
203
202
202
202
202
202
203
203
203
203
204
204
204
205
207
208
208
208
208
207
207
207
207
207
207
206
206
205
205
205
205
205
205
205
205
205
205
205
197
198
198
198
199
200
200
200
200
199
199
199
199
200
200
200
200
200
200
200
200
200
200
200
200
200
200
201
201
201
201
201
201
201
201
201
201
201
201
201
201
202
202
202
202
202
202
202
202
202
202
202
202
202
203
204
203
202
201
202
203
203
201
201
202
204
204
201
200
199
199
200
195
165
123
95
105
130
142
140
134
130
128
127
123
118
112
105
97
90
83
78
74
72
69
64
57
51
51
59
67
67
56
36
26
24
25
26
25
29
39
55
74
88
90
83
68
56
51
59
76
97
111
117
121
125
129
132
135
137
141
145
148
150
149
148
148
148
148
146
142
141
140
137
133
129
119
105
93
83
74
66
58
55
58
64
72
80
86
88
85
86
91
94
93
98
105
110
111
108
103
99
100
104
111
118
124
125
125
126
128
129
130
132
133
133
133
134
136
141
147
148
133
102
78
78
82
134
177
200
200
200
202
204
205
203
202
202
202
202
202
202
201
201
201
202
202
202
202
202
202
202
202
202
202
202
202
203
204
205
205
205
207
207
207
207
207
206
206
206
206
206
206
206
206
205
205
205
205
205
205
205
205
205
205
205
197
197
197
198
199
200
200
200
200
200
200
200
199
199
199
200
200
200
200
200
200
200
200
200
200
200
200
200
200
200
200
200
200
200
200
200
200
200
200
200
200
201
201
201
201
201
201
201
201
201
201
201
201
201
201
202
201
200
200
201
203
203
201
200
201
202
199
191
182
176
177
181
185
173
146
112
106
126
139
138
135
130
126
123
120
116
110
104
97
89
81
72
64
57
53
49
47
42
50
66
79
82
72
54
45
44
45
43
40
44
51
64
83
97
101
95
83
74
70
73
85
104
117
122
126
129
132
134
135
137
141
144
147
149
148
146
147
148
147
145
142
138
136
134
134
132
125
113
99
84
69
55
45
45
51
60
70
80
86
87
83
84
88
92
89
94
101
108
111
111
107
101
94
93
96
103
110
113
116
119
121
123
124
126
130
134
137
138
141
145
148
146
129
101
80
81
86
138
180
202
200
201
203
204
204
203
202
202
201
202
202
202
201
201
201
201
201
201
201
202
202
201
201
201
202
202
202
203
205
205
205
206
206
206
206
206
206
206
206
206
206
206
206
206
206
205
205
205
205
205
205
205
205
205
205
205
197
197
197
197
198
199
199
199
199
199
199
199
199
199
199
199
199
199
199
199
199
199
199
199
199
199
199
199
200
200
200
200
200
200
200
200
200
200
200
200
200
201
201
201
201
201
201
201
201
201
201
201
201
200
199
199
200
201
201
201
202
203
203
202
200
195
186
171
148
132
130
144
163
179
168
130
110
126
136
133
134
132
127
122
119
115
111
106
102
96
90
85
80
75
73
72
72
66
66
74
84
88
85
77
74
74
73
70
67
70
76
83
91
96
96
93
90
89
92
97
104
113
121
128
131
133
133
134
135
137
140
144
146
147
146
144
146
147
146
143
140
136
135
136
138
136
130
117
103
87
70
56
53
58
64
68
71
73
64
47
38
37
38
41
47
53
63
76
90
102
108
108
104
98
94
92
93
96
101
107
111
115
118
123
129
135
139
141
144
149
151
145
129
104
86
85
96
142
181
201
202
203
204
204
203
202
202
202
202
202
202
202
201
201
201
201
201
201
201
202
202
201
201
201
202
202
202
203
205
205
205
206
206
206
206
206
206
206
206
206
206
206
206
206
206
205
205
205
205
205
205
205
205
205
205
205
196
197
197
197
197
198
198
199
199
199
199
198
198
198
198
198
198
198
198
198
198
198
198
198
198
198
198
199
200
200
200
200
200
200
200
200
200
200
200
200
200
201
201
201
201
201
201
201
201
201
201
201
201
200
199
198
201
202
203
201
200
200
202
202
196
182
163
144
128
115
111
118
137
162
159
129
116
130
137
130
132
133
132
130
127
123
120
117
114
111
108
106
103
100
99
100
100
95
92
95
101
105
105
102
100
97
94
90
86
85
86
89
89
88
88
90
95
101
109
117
123
124
128
134
136
135
134
133
134
136
140
143
146
145
143
142
144
146
146
142
138
135
135
138
141
140
134
123
109
93
78
67
67
77
89
102
110
111
94
56
32
22
22
28
40
44
45
49
56
65
73
81
89
96
101
103
101
96
93
97
103
108
112
118
125
131
135
137
139
144
149
150
136
108
82
81
101
150
188
206
203
204
204
202
201
201
202
202
202
202
202
202
202
202
202
201
201
201
201
202
202
201
201
201
202
202
202
203
205
205
205
206
206
206
206
206
206
206
206
206
206
206
206
206
206
205
205
205
205
205
205
205
205
205
205
205
195
196
196
197
197
198
198
198
198
198
198
198
198
198
198
198
198
198
198
198
198
198
198
198
198
198
198
199
200
200
200
200
200
200
200
200
200
200
200
200
200
201
201
201
201
201
201
201
201
201
201
201
201
200
199
199
202
204
204
201
196
198
202
201
189
165
138
119
121
122
120
118
122
131
130
120
124
136
139
132
132
132
133
131
129
126
123
121
118
117
116
114
113
111
111
111
113
112
111
111
113
113
112
108
102
97
93
92
90
84
84
88
87
87
90
97
104
109
117
127
135
134
135
138
138
135
133
131
133
136
140
143
145
144
142
141
143
144
144
140
137
135
135
137
140
140
136
127
117
109
102
96
88
89
98
107
115
116
99
62
39
28
26
29
38
38
37
44
59
73
77
73
68
66
73
85
97
94
91
95
101
107
113
119
127
133
136
138
140
144
149
150
136
109
84
86
112
157
190
203
197
202
206
204
202
202
202
201
201
202
202
202
202
202
202
201
201
201
201
202
202
201
201
201
202
202
202
203
205
205
205
206
206
206
206
206
206
206
206
206
206
206
206
206
206
205
205
205
205
205
205
205
205
205
205
205
195
196
196
196
197
198
198
198
198
198
198
198
198
198
198
198
198
198
198
198
198
198
198
198
198
198
198
199
200
200
200
200
200
200
200
200
200
200
200
200
200
201
201
201
201
201
201
201
201
201
201
201
201
201
201
201
203
205
204
200
195
198
202
199
182
150
116
98
110
120
124
125
124
118
115
121
131
139
141
137
135
133
131
130
128
126
124
122
121
121
120
119
117
115
113
111
109
110
110
108
105
102
99
95
89
84
83
85
89
89
92
98
99
100
106
115
119
120
124
132
140
141
139
138
136
133
130
129
131
134
138
142
144
143
141
141
142
144
143
140
137
134
133
135
137
138
137
133
127
121
116
109
99
96
97
98
100
102
97
87
78
73
68
61
54
55
61
69
79
84
82
70
54
42
44
59
75
80
84
90
97
103
110
118
127
133
137
140
142
146
150
149
136
111
90
94
125
163
191
204
202
208
209
204
201
201
202
202
201
201
201
202
202
202
202
201
201
201
201
202
202
201
201
201
202
202
202
203
205
205
205
206
206
206
206
206
206
206
206
206
206
206
206
206
206
205
205
205
205
205
205
205
205
205
205
205
195
196
196
197
197
198
198
198
198
198
198
198
198
198
198
198
198
198
198
198
198
198
198
198
198
198
198
199
200
200
200
200
200
200
200
200
200
200
200
200
200
201
201
201
201
201
201
201
201
201
201
201
201
202
203
204
203
203
202
199
195
200
203
197
175
139
102
87
97
108
117
125
131
127
126
132
137
139
141
142
137
133
131
130
129
129
128
128
128
128
128
127
125
123
121
118
115
114
112
108
103
100
100
99
97
94
94
97
102
107
112
116
116
118
124
132
135
132
131
135
140
142
140
136
133
129
127
127
130
134
138
140
142
142
142
141
142
142
141
139
137
134
133
133
134
135
137
137
136
131
123
114
106
103
98
91
85
87
95
101
99
94
90
85
79
81
86
92
96
96
92
84
74
65
58
54
56
65
75
84
91
98
105
113
123
131
136
138
141
146
151
150
138
113
92
102
144
175
193
202
206
208
206
202
200
201
202
202
202
202
202
202
202
202
202
201
201
201
201
202
202
201
201
201
202
202
202
203
205
205
205
206
206
206
206
206
206
206
206
206
206
206
206
206
206
205
205
205
205
205
205
205
205
205
205
205
196
197
197
197
197
198
198
199
199
199
199
198
198
198
198
198
198
198
198
198
198
198
198
198
198
198
198
199
200
200
200
200
200
200
200
200
200
200
200
200
200
201
201
201
201
201
201
201
201
201
201
201
201
202
203
203
201
201
201
200
197
202
202
192
166
129
97
88
95
100
106
116
129
136
139
139
138
138
141
142
136
133
133
134
134
134
135
136
137
138
138
138
137
135
135
135
137
137
134
130
128
128
130
131
131
128
125
124
125
128
130
130
128
129
134
139
142
141
139
138
140
140
138
133
129
126
124
126
130
135
138
140
141
141
141
141
141
140
140
138
136
135
134
133
133
135
137
139
140
138
132
123
115
112
108
99
89
86
89
93
88
85
85
91
97
99
102
107
111
114
114
111
104
96
90
84
81
81
85
91
97
102
107
114
122
129
133
136
139
144
150
151
138
112
92
114
166
187
190
188
188
185
188
198
203
203
201
202
202
202
202
202
202
202
202
201
201
201
201
202
202
201
201
201
202
202
202
203
205
205
205
206
206
206
206
206
206
206
206
206
206
206
206
206
206
205
205
205
205
205
205
205
205
205
205
205
197
197
197
197
198
199
199
199
199
199
199
199
199
199
199
199
199
199
199
199
199
199
199
199
199
199
199
199
200
200
200
200
200
200
200
200
200
200
200
200
200
201
201
201
201
201
201
201
201
201
201
201
201
201
202
202
199
200
202
202
200
201
198
182
153
118
95
96
104
108
110
114
123
131
137
139
138
138
140
141
136
134
134
135
135
135
136
137
139
140
141
142
141
140
140
142
145
144
142
141
141
142
145
146
145
142
138
135
134
136
138
137
137
137
138
139
141
143
143
141
137
135
133
130
127
125
125
128
132
136
139
141
141
142
142
142
140
139
137
136
134
134
134
135
136
137
139
140
141
142
141
137
126
120
115
108
102
98
93
85
81
82
86
90
93
103
113
120
121
117
112
110
112
116
119
121
119
114
111
113
117
119
122
125
131
136
139
141
143
147
151
149
134
110
101
126
167
177
166
148
143
146
164
188
201
202
201
201
201
202
202
202
202
202
202
201
201
201
201
202
202
201
201
201
202
202
202
203
205
205
205
206
206
206
206
206
206
206
206
206
206
206
206
206
206
205
205
205
205
205
205
205
205
205
205
205
197
197
197
198
199
200
200
200
200
200
200
200
199
199
199
200
200
200
200
200
200
200
200
200
200
200
200
200
200
200
200
200
200
200
200
200
200
200
200
200
200
201
201
201
201
201
201
201
201
201
201
201
201
201
202
201
197
199
203
205
202
200
191
170
139
107
93
101
107
115
122
125
125
123
128
138
141
138
137
139
140
140
139
139
138
137
138
138
140
142
143
144
145
145
145
145
146
144
143
142
142
142
142
142
143
144
144
143
141
142
142
143
147
148
145
140
140
144
145
141
134
130
128
128
126
125
127
130
134
138
141
141
141
142
143
143
140
138
135
133
132
133
135
137
139
140
141
141
140
141
142
140
134
130
126
122
120
121
114
101
99
99
96
91
92
93
96
99
103
107
111
115
117
118
119
121
122
121
121
124
127
127
128
130
134
137
140
141
143
147
152
153
139
114
105
121
139
139
129
117
116
126
141
159
178
194
201
201
201
202
202
202
202
202
202
201
201
201
201
202
202
201
201
201
202
202
202
203
204
205
205
206
206
206
206
206
206
206
206
206
206
206
206
206
206
205
205
205
205
205
205
205
205
205
205
205
197
198
198
198
199
199
199
199
199
199
199
199
199
199
200
200
200
200
200
200
200
200
200
200
200
200
200
200
200
200
200
200
200
200
200
200
200
200
200
200
200
201
201
201
201
201
201
201
201
201
201
201
201
202
202
202
200
200
201
203
202
202
190
163
127
99
94
105
110
121
131
135
130
122
125
137
142
139
137
138
142
143
142
141
141
141
142
142
143
144
146
147
147
147
146
146
145
144
143
142
142
141
140
139
141
144
146
147
147
149
150
151
154
154
151
145
144
146
146
142
135
130
127
125
124
126
130
134
139
142
143
142
141
141
142
143
140
138
135
133
131
131
133
135
138
141
142
142
141
141
142
142
142
141
137
134
133
134
129
120
119
119
114
109
108
104
100
98
102
109
116
121
120
118
117
117
119
121
124
126
128
129
129
131
135
138
140
141
142
145
151
153
141
118
108
116
114
111
111
115
120
125
125
129
149
174
192
201
203
203
203
202
201
202
202
201
201
202
202
202
202
202
202
202
203
203
203
204
205
206
206
206
206
206
206
206
206
206
206
206
206
206
206
206
206
206
206
205
205
205
205
205
205
205
205
205
198
198
198
198
198
198
198
198
198
198
198
198
198
199
199
200
200
200
200
200
200
200
200
200
200
200
200
200
200
200
200
200
200
200
200
200
200
200
200
200
201
202
202
202
202
202
202
202
202
202
202
202
202
202
202
203
203
201
200
199
202
206
193
159
118
96
98
109
115
125
133
136
131
126
128
135
141
141
139
137
139
140
140
141
143
144
145
145
145
146
148
149
149
147
146
146
147
147
147
147
146
146
146
147
147
147
147
148
149
153
156
155
153
152
151
149
148
146
142
138
134
131
127
124
124
128
132
137
142
144
145
144
143
142
143
143
142
139
137
134
131
129
129
131
135
138
142
144
145
146
146
147
147
146
145
142
139
137
134
131
131
131
131
129
128
127
126
125
125
125
126
126
126
126
126
126
126
126
127
128
129
131
133
134
137
139
141
142
144
145
148
149
140
122
115
120
120
119
121
125
128
120
111
111
125
150
178
198
202
203
203
202
201
202
203
202
201
202
202
202
202
203
203
203
204
204
205
206
206
206
206
207
206
206
206
206
206
206
206
206
206
206
206
206
206
206
206
206
206
206
206
206
206
206
206
206
198
198
198
198
198
198
198
198
198
198
198
198
198
199
199
200
200
200
200
200
200
200
200
200
200
200
200
200
200
200
200
200
200
200
200
200
200
200
200
200
201
202
202
202
202
202
202
202
202
202
202
202
202
202
202
202
203
202
201
200
201
202
189
156
118
99
103
115
120
127
133
133
127
120
123
134
141
141
138
136
138
140
140
141
144
145
146
145
146
147
149
150
150
149
148
149
151
152
152
151
151
151
151
151
151
151
151
151
150
150
150
151
151
151
150
147
143
138
133
127
123
121
123
127
129
131
133
137
142
145
148
148
147
147
147
147
146
144
140
136
132
129
128
130
133
138
142
145
147
148
149
149
149
148
147
145
143
140
138
136
134
134
135
135
134
134
134
135
135
135
136
136
136
136
135
135
134
134
134
134
135
136
137
138
139
140
142
143
144
145
149
153
148
135
128
129
128
126
124
122
118
105
91
88
107
138
170
193
199
202
202
202
200
202
203
202
202
203
203
202
202
203
203
203
204
205
205
205
206
206
206
206
206
206
206
206
206
206
206
206
206
206
206
206
206
206
206
206
206
206
206
206
206
206
206
206
198
198
198
198
198
198
198
198
198
198
198
198
198
199
199
200
200
200
200
200
200
200
200
200
200
200
200
200
200
200
200
200
200
200
200
200
200
200
200
200
201
202
202
202
202
202
202
202
202
202
202
202
202
202
202
201
203
203
202
201
199
198
184
154
121
105
110
121
124
127
129
127
120
110
116
133
142
140
136
135
138
140
141
142
145
146
146
146
147
148
150
151
152
151
151
152
154
155
155
155
155
155
154
154
153
153
153
152
151
149
148
150
152
152
149
144
139
133
128
124
123
123
127
133
135
136
138
142
148
153
156
156
153
150
148
148
150
150
148
143
138
133
130
130
133
136
139
142
145
147
148
149
150
150
149
148
145
143
141
139
138
138
139
137
136
136
137
138
140
142
143
143
143
143
142
142
141
141
142
142
142
142
142
142
141
142
143
144
145
146
149
153
152
144
137
133
130
129
126
120
110
95
79
77
98
132
166
191
198
202
203
203
201
202
203
202
203
204
203
202
203
203
203
203
204
204
204
205
205
206
206
206
206
206
206
206
206
206
206
206
206
206
206
206
206
206
206
205
205
205
205
205
205
205
205
205
198
198
198
198
198
198
198
198
198
198
198
198
198
199
199
200
200
200
200
200
200
200
200
200
200
200
200
200
200
200
200
200
200
200
200
200
200
200
200
200
201
202
202
202
202
202
202
202
202
202
202
202
202
202
202
201
202
203
204
202
200
197
184
158
130
114
116
125
126
126
125
120
112
100
110
133
144
141
136
135
138
140
142
143
145
147
147
147
147
149
151
153
154
153
153
154
156
157
157
156
156
156
155
155
154
153
152
151
150
147
145
146
146
144
140
135
130
127
126
126
128
130
131
132
131
132
134
139
146
152
155
155
152
150
148
147
149
150
148
144
139
136
133
131
130
131
132
134
137
140
144
147
148
149
149
149
147
145
143
142
141
141
141
140
138
138
139
141
144
145
146
147
147
146
146
145
145
147
149
148
147
146
145
144
143
143
144
145
146
147
149
151
152
148
141
133
130
129
127
121
108
93
80
78
99
132
166
192
200
205
206
204
202
203
203
202
202
203
204
203
203
203
203
203
204
204
204
205
205
205
205
205
206
206
206
206
206
206
206
206
206
206
206
206
205
205
205
205
205
205
205
205
205
205
205
205
198
198
198
198
198
198
198
198
198
198
198
198
198
199
199
200
200
200
200
200
200
200
200
200
200
200
200
200
200
200
200
200
200
200
200
200
200
200
200
200
201
202
202
202
202
202
202
202
202
202
202
202
202
202
202
201
201
202
203
204
201
198
188
168
144
125
120
126
127
125
120
113
104
94
108
133
144
140
136
137
139
141
143
144
146
147
148
147
148
149
151
154
155
155
155
155
156
156
156
156
156
155
155
154
152
151
150
149
147
144
141
140
137
133
128
124
122
123
127
131
134
136
134
131
128
127
128
132
137
142
144
144
143
143
145
146
145
142
140
139
137
136
135
133
130
127
126
126
127
132
138
143
145
146
147
148
147
146
145
144
143
143
143
143
143
144
145
145
147
148
148
149
149
149
149
148
149
151
152
152
150
148
147
146
145
145
145
146
148
149
150
151
153
151
143
132
130
131
130
123
108
94
84
83
101
134
168
194
202
206
208
206
203
203
203
201
201
202
203
203
203
203
203
204
204
204
204
205
205
205
205
205
205
205
205
205
205
205
205
205
205
205
205
205
205
205
205
205
205
205
205
205
205
205
205
205
198
198
198
198
198
198
198
198
198
198
198
198
198
199
199
200
200
200
200
200
200
200
200
200
200
200
200
200
200
200
200
200
200
200
200
200
200
200
200
200
201
202
202
202
202
202
202
202
202
202
202
202
202
202
202
202
200
201
203
205
203
201
194
180
159
137
125
126
126
122
116
108
100
93
109
134
144
141
137
138
140
142
143
144
146
147
148
147
148
149
151
154
155
154
154
154
156
156
156
156
155
154
153
152
150
148
146
145
144
142
140
137
132
127
122
120
121
125
130
133
135
134
132
129
126
124
124
126
129
131
131
130
130
132
137
141
139
134
132
132
134
137
138
138
135
130
126
123
123
126
131
136
139
141
143
145
146
146
145
144
144
144
145
146
149
150
151
151
151
151
151
151
151
151
151
152
153
153
153
152
150
149
148
147
146
146
146
147
149
150
151
153
153
150
142
133
133
136
135
127
111
96
85
85
103
135
169
194
202
205
207
205
203
204
204
202
201
202
203
203
203
204
204
204
204
204
204
205
205
205
205
205
204
204
204
204
204
204
204
204
204
204
204
204
204
204
204
204
204
204
204
204
204
204
204
204
198
198
198
198
198
198
198
198
198
198
198
198
198
199
199
200
200
200
200
200
200
200
200
200
200
200
200
200
200
200
200
200
200
200
200
200
200
200
200
200
201
202
202
202
202
202
202
202
202
202
202
202
202
202
202
201
199
200
203
205
204
202
198
191
173
147
129
127
126
121
113
105
100
99
114
135
143
141
138
138
140
141
142
143
145
146
147
146
147
148
150
152
153
152
152
152
154
155
155
155
154
153
152
150
148
145
143
142
140
137
135
132
128
124
121
120
122
126
128
127
122
116
109
103
101
101
105
111
118
122
123
122
120
122
127
131
132
131
128
127
129
134
140
143
143
139
133
127
124
123
126
129
132
135
139
141
144
145
145
145
145
145
146
149
153
154
154
154
153
152
152
151
152
152
152
153
154
153
153
152
150
149
148
148
148
148
148
148
150
150
152
152
148
140
133
132
136
140
139
131
114
98
85
86
106
137
169
193
199
202
203
203
201
204
205
203
203
204
204
204
204
204
204
204
204
204
204
204
204
204
204
204
204
204
204
204
204
204
204
204
204
204
204
204
204
203
203
203
203
203
203
203
203
203
203
203
198
198
198
198
198
198
198
198
198
198
198
198
198
199
199
200
200
200
200
200
200
200
200
200
200
200
200
200
200
200
200
200
200
200
200
200
200
200
200
200
201
202
202
202
202
202
202
202
202
202
202
202
202
202
202
200
198
199
202
205
204
201
200
197
181
154
133
129
127
121
111
104
103
109
122
137
143
141
138
138
137
138
140
142
144
146
146
146
146
147
149
150
150
149
149
149
151
152
152
153
152
151
149
148
145
142
140
138
136
131
128
126
124
121
118
117
118
119
117
111
101
90
77
66
62
65
73
84
97
107
113
115
114
116
120
124
123
117
110
106
107
115
125
135
141
142
138
131
125
121
121
123
126
130
135
139
142
144
145
145
146
147
148
149
152
153
153
153
153
153
153
152
152
152
152
152
152
152
152
152
151
150
150
150
150
149
149
149
150
150
150
148
139
125
119
124
132
138
138
131
117
101
89
91
112
143
174
195
199
200
201
201
200
204
205
204
203
204
204
204
204
204
204
204
204
204
204
204
204
204
204
204
204
204
204
204
204
204
204
204
204
204
204
204
204
203
203
202
202
202
202
202
202
202
202
202
198
198
198
198
198
198
198
198
198
198
198
198
198
199
199
200
200
200
200
200
200
200
200
200
200
200
200
200
200
200
200
200
200
200
200
200
200
200
200
200
201
202
202
202
202
202
202
202
202
202
202
202
202
202
202
200
197
198
202
205
203
200
200
200
186
159
136
131
129
122
112
105
108
118
130
138
141
140
138
137
135
135
138
141
143
145
146
145
145
146
148
149
149
147
146
147
149
150
150
149
149
148
147
144
142
139
137
135
132
129
128
128
127
124
121
119
117
115
109
100
86
72
58
46
40
41
50
64
80
93
102
106
108
110
115
118
107
91
78
71
71
80
96
113
128
135
136
130
123
118
116
118
122
127
132
138
141
144
145
146
147
148
148
149
150
151
152
153
154
155
155
155
154
153
153
152
152
152
152
153
153
152
152
152
152
151
151
150
150
150
150
146
133
112
104
114
124
130
131
126
117
102
92
97
120
151
180
200
201
200
200
200
200
204
205
204
202
203
203
204
204
204
204
204
204
204
204
204
204
204
204
204
204
204
204
204
204
204
204
204
204
204
204
204
204
203
203
202
202
202
202
202
202
202
202
202
198
198
198
198
198
198
198
198
198
198
198
198
198
199
199
200
200
200
200
200
200
200
200
200
200
200
200
200
200
200
200
200
200
200
200
200
200
200
200
200
201
202
202
202
202
202
202
202
202
202
202
202
202
202
202
200
198
199
203
205
202
198
199
202
193
169
145
133
130
124
116
110
113
122
131
138
141
140
138
135
134
134
137
140
142
144
145
145
145
146
147
148
148
147
146
145
147
147
147
147
146
145
143
141
138
134
132
130
129
130
131
133
133
132
130
128
125
120
112
100
85
71
64
66
66
66
68
73
82
89
94
97
99
103
110
112
96
73
52
42
38
48
68
91
111
123
126
124
118
114
114
116
120
125
131
136
140
143
145
146
147
147
148
149
150
151
152
153
154
155
156
156
155
154
153
153
152
152
153
153
153
153
153
153
152
151
151
151
150
150
150
147
131
106
96
106
116
123
125
123
117
102
92
104
133
165
189
203
203
202
201
201
201
204
205
203
201
202
203
204
204
204
204
204
204
204
204
204
204
204
204
204
204
204
204
204
204
204
204
204
204
204
204
204
204
203
203
202
202
202
202
202
202
202
202
202
198
198
198
198
198
198
198
198
198
198
198
198
198
199
199
199
199
199
199
200
200
200
200
201
201
201
201
200
199
199
199
199
200
200
200
200
201
201
201
201
201
202
202
202
202
202
202
202
202
202
202
202
202
202
202
201
199
200
203
204
201
198
200
206
204
188
162
136
130
127
123
120
120
119
124
136
142
141
137
133
134
136
138
140
142
143
143
144
144
145
145
145
145
145
145
145
145
145
145
144
143
142
140
137
133
129
126
124
123
126
129
130
133
135
137
138
135
128
119
106
91
80
81
89
94
95
95
96
95
94
92
90
91
96
104
109
103
90
75
62
54
57
70
87
101
110
114
113
111
110
112
116
120
125
130
134
137
139
141
142
144
145
146
148
150
151
152
152
153
154
154
154
154
153
153
152
151
152
152
152
152
151
151
150
149
149
150
150
151
151
151
147
130
105
94
103
109
117
124
128
123
105
95
115
152
183
198
201
201
201
201
201
202
202
202
202
202
202
202
202
203
203
203
203
203
203
203
203
203
203
203
203
203
203
203
203
203
203
203
203
203
203
203
203
203
202
202
202
202
202
202
202
202
202
202
202
198
198
198
198
198
198
198
198
198
198
198
198
198
199
199
199
199
199
199
200
200
200
200
200
201
201
201
200
199
199
199
199
200
200
200
200
201
201
201
201
201
202
202
202
202
202
202
202
202
202
202
202
202
202
202
202
199
199
200
202
200
196
198
204
205
194
173
146
136
131
130
131
133
128
130
139
144
141
135
131
132
135
137
139
139
140
140
141
142
143
143
143
143
142
142
142
141
141
141
141
140
139
137
135
132
129
126
123
124
129
133
134
136
137
139
140
140
136
130
122
114
108
105
105
106
106
106
105
103
99
95
91
91
95
101
108
111
107
97
84
75
75
81
91
99
105
108
109
110
111
113
116
119
122
126
130
133
136
138
140
142
143
145
146
149
150
150
151
153
153
153
153
153
153
153
152
151
151
151
151
150
150
149
149
149
150
150
150
151
152
151
146
128
100
87
96
101
110
121
129
129
113
111
135
167
191
201
201
201
201
201
201
201
202
202
202
202
202
202
203
203
203
203
203
203
203
203
203
203
203
203
203
203
203
203
203
203
203
203
203
203
203
203
203
203
202
202
202
202
202
202
202
202
202
202
202
198
198
198
198
198
198
198
198
198
198
198
198
198
198
198
199
199
199
199
199
200
200
200
200
200
201
201
200
199
199
199
199
200
200
200
200
201
201
201
201
201
202
202
202
202
202
202
202
202
202
202
202
202
202
203
203
200
199
200
202
200
197
198
203
205
200
185
163
143
131
129
135
139
135
135
142
144
140
134
131
132
134
135
136
137
138
138
139
140
140
140
140
140
140
140
139
138
138
138
137
137
136
134
133
131
129
127
126
127
132
136
137
137
138
139
140
140
139
137
135
132
129
126
122
121
121
121
120
118
114
109
105
104
106
111
116
121
121
114
105
99
98
100
104
108
111
113
116
119
120
119
118
119
121
124
127
130
133
137
139
141
142
144
145
147
148
148
149
151
152
152
152
152
152
152
151
150
150
150
150
150
150
150
150
150
150
150
150
151
151
151
147
129
100
83
90
94
105
118
129
133
124
132
159
183
196
201
201
201
201
201
202
202
202
202
202
203
203
203
203
203
203
203
203
203
203
203
203
203
203
203
203
203
203
203
203
203
203
203
203
203
203
203
203
203
202
202
202
202
202
202
202
202
202
202
202
198
198
198
198
198
198
198
198
198
198
198
198
198
198
198
198
199
199
199
199
199
200
200
200
200
200
200
200
199
199
199
199
200
200
200
200
201
201
201
201
201
202
202
202
202
202
202
202
202
202
202
202
202
202
204
204
201
201
202
203
201
198
199
202
206
205
197
180
151
131
127
135
140
137
136
141
143
140
136
133
134
134
134
134
135
136
136
137
138
138
138
138
138
137
137
136
135
135
135
134
134
134
133
132
131
130
130
129
130
133
136
137
138
139
139
139
138
137
137
136
136
135
133
131
130
131
131
131
129
126
122
118
117
118
121
125
127
126
123
119
118
118
120
122
123
123
124
126
130
130
128
124
123
122
123
125
128
131
135
138
141
142
142
143
145
146
146
147
149
150
150
151
151
150
150
149
149
150
150
150
150
150
150
150
150
150
150
150
151
151
150
145
128
103
86
88
92
103
116
128
136
136
152
178
195
200
201
202
201
202
202
202
202
202
202
203
203
203
203
202
202
203
203
203
203
203
203
203
203
203
203
203
203
203
203
203
203
203
203
203
203
203
203
203
203
202
202
202
202
202
202
202
202
202
202
202
198
198
198
198
198
198
198
198
198
198
198
198
198
198
198
198
198
198
198
199
199
199
199
200
200
200
200
200
199
199
199
199
200
200
200
200
201
201
201
201
201
202
202
202
202
202
202
202
202
202
202
202
202
202
202
202
200
200
202
204
203
200
199
200
203
205
203
191
165
143
135
138
141
137
135
140
142
141
138
135
134
133
133
132
133
134
135
136
136
137
137
137
136
136
136
135
134
133
133
133
133
133
133
133
133
133
133
133
134
135
136
138
140
141
140
139
136
134
132
130
130
129
129
129
130
131
132
133
132
130
127
125
124
124
126
128
127
126
125
126
127
130
133
134
133
132
131
133
135
135
134
131
128
126
125
126
128
130
134
137
139
140
141
142
144
144
145
146
147
148
149
150
150
149
149
149
149
149
149
149
149
150
150
150
150
150
150
150
151
151
147
136
122
105
92
89
93
104
117
128
138
150
170
190
201
203
202
202
202
202
202
202
202
203
203
202
202
202
202
201
202
202
202
202
202
202
202
202
202
202
202
202
202
202
202
202
202
202
202
202
202
202
202
202
202
202
202
202
202
202
202
202
202
202
202
202
198
198
198
198
198
198
198
198
198
198
198
198
198
198
198
198
198
198
198
198
199
199
199
199
200
200
200
199
199
199
199
199
200
200
200
200
201
201
201
201
201
202
202
202
202
202
202
202
202
202
202
202
202
202
201
199
198
198
200
202
202
200
198
198
199
201
201
198
183
167
153
146
145
138
136
139
141
140
138
135
132
130
130
131
132
133
134
135
136
136
136
136
136
136
136
135
134
134
134
134
133
133
134
135
135
135
135
135
136
136
137
139
140
141
141
138
135
132
129
127
127
127
128
128
129
130
132
132
132
132
130
129
129
129
129
129
128
127
126
127
129
132
134
134
134
132
131
131
131
133
135
135
132
129
127
127
128
130
133
135
137
137
137
139
141
142
142
143
145
146
147
148
148
149
149
149
149
148
148
147
148
149
149
150
150
150
150
151
151
151
142
125
113
109
102
93
98
110
121
132
144
167
187
199
203
203
202
202
203
203
203
203
203
203
203
202
202
202
202
201
201
201
201
201
201
201
201
201
201
201
201
201
201
201
201
201
201
201
201
201
201
201
201
201
201
201
201
201
201
201
201
201
201
201
201
201
198
198
198
198
198
198
198
198
198
198
198
198
198
198
198
197
198
198
198
198
198
199
199
199
199
199
199
199
199
199
199
199
200
200
200
200
201
201
201
201
201
202
202
202
202
202
202
202
202
202
202
202
202
201
200
198
197
198
200
201
202
201
199
198
198
198
200
200
197
183
163
147
142
136
134
138
140
139
137
134
130
128
129
130
130
131
132
133
134
134
134
135
135
135
135
134
134
134
134
134
134
134
134
134
134
133
133
133
134
134
134
135
136
137
136
134
131
130
129
128
128
130
131
131
132
134
135
135
135
135
134
135
135
134
133
132
131
130
129
128
128
129
130
130
131
131
131
132
132
134
136
136
134
131
130
129
129
130
131
132
133
134
135
136
138
139
140
141
143
144
145
146
146
147
147
148
148
147
147
146
147
148
149
150
150
150
150
151
151
150
141
125
118
123
119
106
111
121
132
142
155
180
197
202
202
202
202
201
202
202
202
202
202
202
202
201
201
201
201
200
201
201
201
201
201
201
201
201
201
201
201
201
201
201
201
201
201
201
201
201
201
201
201
201
201
201
201
200
200
200
200
200
200
200
200
200
198
198
198
198
198
198
198
198
198
198
198
198
198
197
197
197
197
198
198
198
198
198
198
199
199
199
199
199
199
199
199
199
200
200
200
200
201
201
201
201
201
202
202
202
202
202
202
202
202
202
202
202
202
201
200
199
200
201
202
202
202
202
203
202
200
199
200
202
202
186
162
139
133
129
131
136
139
138
136
133
129
127
127
127
128
129
130
131
131
132
132
133
133
133
133
133
133
133
133
133
134
134
133
133
131
130
129
129
128
128
128
128
129
129
129
128
127
127
127
128
129
131
131
131
132
133
134
133
133
133
133
135
135
134
133
131
131
131
130
128
127
126
126
128
130
132
134
136
137
137
136
135
134
133
132
131
131
131
131
131
132
133
134
134
135
136
137
138
140
141
142
143
144
145
145
146
146
146
146
146
147
148
149
150
150
151
151
151
150
150
143
134
132
137
134
124
125
134
145
156
169
189
201
203
201
201
201
201
201
202
202
201
201
201
201
201
201
200
200
200
201
201
201
201
201
201
201
201
201
201
201
201
201
201
201
201
201
201
201
201
201
201
201
201
201
200
200
200
200
200
200
200
200
200
200
200
198
198
198
198
198
198
198
198
198
198
198
198
198
197
197
197
197
197
197
198
198
198
198
199
199
199
199
199
199
199
199
199
200
200
200
200
201
201
201
201
201
202
202
202
202
202
202
202
202
202
202
202
202
202
201
200
202
202
201
200
200
202
205
205
203
201
201
201
200
183
155
129
123
123
128
135
138
137
134
131
128
126
125
125
126
127
127
128
129
130
130
130
130
130
130
131
131
132
132
132
132
132
131
130
128
126
124
123
122
122
122
123
123
125
126
126
126
127
127
128
128
128
127
126
127
128
128
127
126
127
128
130
132
131
129
127
128
129
130
129
127
126
126
128
130
132
135
137
138
137
136
134
135
136
136
135
134
133
133
132
133
134
135
135
133
133
134
135
137
138
140
141
142
143
143
143
143
144
145
146
146
147
149
150
151
151
151
151
150
149
147
144
144
145
141
134
134
142
155
169
183
195
201
203
202
201
201
201
201
201
201
200
200
200
200
200
200
200
200
200
201
201
201
201
201
201
201
201
201
201
201
201
201
201
201
201
201
201
201
201
201
201
201
201
201
200
200
200
200
200
200
200
200
200
200
200
198
198
198
198
198
198
198
198
198
198
198
198
198
197
197
197
197
197
197
198
198
198
198
198
199
199
199
199
199
199
199
199
200
200
200
200
201
201
201
201
201
202
202
202
202
202
202
202
202
202
202
202
202
201
200
200
202
202
200
198
198
200
203
205
204
202
200
200
200
184
158
131
122
121
128
135
136
133
131
130
127
124
123
123
124
125
126
127
127
128
128
128
128
128
129
129
129
130
130
131
131
130
128
126
123
121
118
116
116
117
119
121
123
125
126
127
126
125
123
122
120
119
119
119
120
121
121
121
122
123
125
127
128
128
126
124
125
127
129
130
130
129
129
129
130
130
131
131
132
133
133
133
134
136
137
138
138
137
136
135
135
136
136
135
132
131
132
133
135
136
138
139
140
141
141
141
142
143
144
145
146
146
148
150
151
152
152
151
150
149
148
148
146
143
138
135
136
147
163
180
193
199
202
205
205
202
200
200
200
200
200
200
199
199
199
199
199
199
199
200
201
201
201
201
201
201
201
201
201
201
201
201
201
201
201
201
201
201
201
201
201
201
201
201
201
200
200
200
200
200
200
200
200
200
200
200
196
196
196
196
197
198
198
198
198
198
198
198
197
198
198
198
198
198
198
198
198
198
198
198
198
198
198
199
199
199
199
199
200
200
200
200
201
201
201
201
201
200
200
200
200
200
200
200
200
200
200
200
200
201
201
202
203
202
201
201
200
201
202
202
203
202
202
202
203
197
183
160
136
127
130
134
133
130
130
132
127
124
122
122
123
124
125
125
126
126
126
126
127
128
128
128
127
127
129
129
128
125
121
117
112
108
105
104
104
109
116
123
126
128
127
123
117
111
105
101
100
101
103
104
104
104
106
109
113
116
118
118
117
115
113
112
114
119
125
129
128
127
129
132
134
132
128
125
128
131
133
133
132
132
133
135
137
139
139
137
136
135
134
133
132
132
133
134
135
136
138
139
140
140
140
141
142
143
143
142
142
142
145
150
153
155
156
154
150
147
144
143
144
144
140
137
146
163
180
192
197
201
204
205
204
203
202
202
202
201
201
200
200
199
199
198
199
199
199
199
200
200
200
200
200
200
200
200
200
200
200
200
200
200
200
200
200
200
200
200
200
200
200
200
200
200
200
199
199
199
199
199
199
199
199
199
195
195
195
196
197
198
198
198
198
198
198
198
197
198
198
198
198
198
198
198
198
198
198
198
198
198
198
199
199
199
199
199
200
200
200
200
200
201
201
201
201
200
200
200
200
200
200
200
200
200
200
200
200
201
202
203
203
202
202
202
201
201
201
202
202
203
203
203
204
205
201
190
172
166
166
163
153
139
134
136
131
125
122
121
122
123
124
124
123
123
123
123
125
126
127
128
127
128
128
127
125
123
118
112
106
101
96
92
94
102
109
114
117
118
114
107
100
93
87
85
88
91
92
91
90
90
92
96
102
106
108
108
106
104
103
103
105
110
116
122
122
122
123
126
130
131
131
128
128
129
131
131
130
129
130
131
133
134
134
133
133
135
136
136
134
133
133
134
135
136
137
138
139
139
139
140
141
141
141
142
143
144
146
149
151
151
151
150
148
148
145
141
141
145
148
153
167
184
197
203
203
204
204
203
202
203
203
203
203
202
201
201
200
199
199
199
199
199
199
199
200
200
200
200
200
200
200
200
200
200
200
200
200
200
200
200
200
200
200
200
200
200
200
200
200
199
199
199
199
199
199
199
199
199
199
199
195
196
196
196
197
198
198
198
198
198
198
198
197
198
198
198
198
198
198
198
198
198
198
198
198
198
198
198
199
199
199
199
199
200
200
200
200
200
200
201
201
200
200
200
200
200
200
200
200
200
200
200
200
201
202
203
202
202
202
201
201
201
201
201
202
202
202
203
202
205
207
206
199
195
193
186
169
146
134
135
130
125
122
120
121
122
122
121
120
120
120
122
124
126
127
128
129
128
127
126
123
120
115
109
101
93
84
78
79
87
94
97
98
97
95
89
79
73
72
74
77
81
83
84
83
83
83
86
90
93
95
96
94
94
95
96
97
100
104
108
112
113
114
115
120
127
134
136
132
128
126
125
125
124
125
126
127
128
129
130
132
135
138
138
134
133
133
133
134
135
135
136
137
138
138
138
139
138
139
141
144
147
148
149
148
147
147
147
148
149
147
142
142
149
160
173
187
198
204
206
205
203
202
201
202
203
203
202
202
201
201
201
200
199
199
199
199
199
199
199
200
200
200
200
200
200
200
200
200
200
200
200
200
200
200
200
200
200
200
200
200
200
200
200
200
199
199
199
199
199
199
199
199
199
199
199
195
196
196
196
197
198
198
198
198
198
198
197
197
198
198
198
198
198
198
198
198
198
198
198
198
198
198
198
198
199
199
199
199
199
199
200
200
200
200
200
201
200
200
200
200
200
200
200
200
200
200
200
200
200
201
202
202
202
202
201
201
201
201
201
201
202
202
202
200
202
205
207
206
202
199
192
172
144
127
129
127
124
121
120
120
121
121
120
118
118
119
120
123
125
127
128
128
127
125
124
121
117
111
102
92
80
67
56
54
63
70
72
70
71
77
79
64
63
70
75
76
77
84
92
93
91
88
86
86
86
85
84
83
83
84
85
85
86
88
91
96
99
100
102
108
119
129
135
132
127
120
115
114
113
115
118
122
126
129
130
132
133
134
135
133
133
133
133
133
134
134
135
135
136
136
136
136
136
136
139
142
145
147
148
148
148
148
148
147
146
144
142
144
152
168
186
196
200
200
200
201
200
200
202
203
202
202
201
202
201
201
201
200
199
199
199
199
199
199
199
200
200
200
200
200
200
200
200
200
200
200
200
200
200
200
200
200
200
200
200
200
200
200
200
200
199
199
199
199
199
199
199
199
199
199
199
196
196
196
196
197
198
198
198
198
198
198
197
196
197
197
197
197
197
197
197
197
197
197
197
197
197
197
198
198
198
198
198
199
199
199
199
200
200
200
200
200
200
200
200
200
200
200
200
200
200
200
200
200
200
201
202
202
202
202
201
200
200
200
201
201
202
202
202
204
204
204
203
203
199
197
194
176
148
130
131
129
126
123
122
121
121
120
119
118
118
118
120
123
126
127
127
126
126
125
123
120
115
106
95
82
67
53
41
35
35
37
38
40
49
61
69
68
78
92
102
107
107
112
122
123
119
113
108
102
97
93
90
86
85
84
83
79
77
78
81
82
82
84
88
94
102
111
118
122
121
116
108
104
102
103
109
116
123
128
131
132
132
131
132
133
133
133
133
133
133
133
133
134
135
135
135
135
136
137
138
140
142
144
147
149
151
151
148
142
136
134
136
139
148
168
189
197
197
195
195
199
199
200
203
204
203
202
202
201
201
201
200
200
199
199
199
199
199
199
198
199
199
199
199
199
199
199
199
199
199
199
199
199
199
199
199
199
199
199
199
199
199
199
199
199
199
199
199
199
199
199
199
199
199
199
199
196
196
196
197
198
198
198
198
198
197
197
196
196
197
197
197
197
197
197
197
197
197
197
197
197
197
197
198
198
198
198
198
198
199
199
199
199
200
200
200
200
200
200
200
200
200
200
200
200
200
200
200
200
200
201
202
202
201
201
201
200
200
200
201
201
201
201
202
204
203
201
201
203
201
201
201
185
157
137
133
129
125
124
123
123
122
121
120
118
118
119
121
123
126
127
128
126
126
125
123
119
112
103
92
80
68
58
50
46
45
43
41
38
48
65
76
71
88
106
115
115
116
128
144
149
147
142
136
131
126
122
120
118
119
119
115
101
91
92
95
84
71
64
66
74
83
90
99
111
114
107
95
91
90
92
98
106
114
121
126
129
131
133
134
134
133
133
133
132
132
132
132
132
133
134
134
134
136
139
140
141
141
142
145
148
150
151
149
143
136
132
134
138
147
168
190
200
200
198
199
203
202
200
201
202
201
201
201
200
200
200
200
200
199
199
199
198
198
198
198
198
198
198
198
198
198
198
198
198
198
198
198
198
198
198
198
198
198
198
198
198
198
198
198
198
198
198
198
198
198
198
198
198
198
198
198
197
197
197
197
198
198
198
198
197
197
197
196
196
196
196
197
197
197
197
197
197
197
197
197
197
197
197
197
198
198
198
198
198
198
198
199
199
199
199
200
200
200
200
200
200
200
200
200
200
200
200
200
200
200
201
202
201
201
201
200
200
200
200
200
201
201
201
202
203
201
199
200
205
203
203
202
187
161
139
132
127
125
124
125
125
124
122
121
120
119
120
121
124
126
128
129
128
128
127
124
119
112
104
97
90
85
83
82
84
87
86
80
75
77
84
88
83
93
104
109
106
106
121
142
150
150
147
144
140
137
135
134
135
136
138
133
110
93
96
105
93
74
59
57
66
72
72
74
83
86
80
71
71
75
83
91
100
107
114
119
125
130
134
136
134
133
133
132
131
131
131
131
132
133
133
134
134
135
137
140
142
143
143
145
147
151
156
159
160
159
158
157
159
165
179
195
202
202
202
202
206
204
201
200
200
200
200
200
200
200
200
200
199
199
199
199
198
198
198
198
198
198
198
198
198
198
198
198
198
198
198
198
198
198
198
198
198
198
198
198
198
198
198
198
198
198
198
197
197
197
197
197
197
197
197
197
197
197
197
198
198
198
198
198
197
197
197
196
195
196
196
196
196
196
196
196
196
196
196
196
196
196
196
197
197
197
197
198
198
198
198
198
199
199
199
199
199
200
200
200
200
200
200
200
200
200
200
200
200
200
200
201
201
201
201
200
200
200
200
200
200
201
201
202
203
201
200
202
206
203
201
199
186
164
144
134
129
126
125
125
125
124
124
123
121
120
121
122
124
126
128
129
130
130
127
124
119
114
109
106
105
106
108
110
112
114
112
107
103
103
105
107
105
107
109
109
107
104
114
129
136
138
137
135
131
128
126
126
127
127
128
123
101
87
95
107
95
76
59
56
64
65
59
49
46
45
43
43
51
64
77
90
100
107
113
117
123
129
134
136
134
133
133
132
131
131
131
131
132
133
133
134
134
134
136
139
143
144
145
145
149
156
166
176
184
189
190
188
189
192
196
200
201
201
201
201
203
202
201
199
199
199
199
199
200
200
200
199
199
199
199
199
198
198
198
198
198
198
198
198
198
198
198
198
198
198
198
198
198
198
198
198
198
198
198
198
198
198
198
198
198
197
197
197
197
197
197
197
197
197
197
197
197
198
198
198
198
198
198
198
197
197
197
196
195
196
196
196
196
196
196
196
196
196
196
196
196
196
196
197
197
197
197
197
198
198
198
198
199
199
199
199
199
200
200
200
200
200
200
200
200
200
200
200
200
200
200
201
201
200
200
200
199
199
199
200
200
201
201
202
205
205
203
203
205
204
203
201
192
175
155
140
132
128
124
123
125
125
125
124
122
121
121
122
123
124
126
128
129
128
126
123
120
118
117
117
118
121
123
125
124
120
117
117
115
115
119
123
120
123
126
127
125
126
127
127
128
129
129
127
121
116
112
109
107
105
103
99
93
95
103
106
93
76
65
64
68
69
65
60
60
60
58
55
59
67
79
91
102
110
116
121
124
128
131
133
134
133
133
132
131
130
130
131
132
133
134
135
135
135
137
140
143
144
144
145
151
162
176
190
200
207
208
207
208
210
207
201
199
199
200
200
199
200
201
200
199
199
199
199
199
199
199
199
199
199
199
198
198
198
198
198
198
198
198
198
198
198
198
198
198
198
198
198
198
198
198
198
198
198
198
198
198
198
198
198
198
197
197
197
197
197
197
197
197
197
197
197
197
198
198
198
198
198
198
198
197
196
196
195
195
196
196
196
196
196
196
196
196
196
196
196
196
196
196
197
197
197
197
197
198
198
198
198
198
199
199
199
199
200
200
200
200
200
200
200
200
200
200
200
200
200
200
201
200
200
200
200
199
199
199
200
200
200
200
201
203
202
200
199
200
203
205
206
200
186
165
142
129
123
122
123
124
125
125
124
123
122
121
121
122
123
124
125
126
125
123
122
121
121
122
123
124
125
125
124
123
121
121
122
121
119
116
114
115
116
118
121
126
131
132
130
131
133
135
135
132
128
126
124
123
120
118
115
115
116
117
115
108
104
105
107
109
104
97
93
94
96
96
93
89
87
88
93
102
110
118
123
127
130
132
132
133
133
133
132
131
130
130
131
132
133
135
136
136
138
141
143
143
141
141
143
152
166
181
192
200
202
201
200
204
209
206
199
198
201
204
204
201
202
202
200
199
199
200
200
200
199
199
199
199
199
198
198
198
198
198
198
198
198
198
198
198
198
198
198
198
198
198
198
198
198
198
198
198
198
198
198
198
198
198
198
198
197
197
197
197
197
197
197
197
197
197
197
197
197
197
197
197
197
197
197
197
197
197
196
196
196
196
196
196
196
196
196
197
197
197
197
197
197
197
197
198
198
198
198
198
199
199
199
199
200
200
200
200
200
200
200
200
200
200
200
200
200
200
200
200
200
200
200
200
200
200
199
199
199
199
200
200
201
201
202
203
201
199
199
200
203
205
205
200
189
172
151
132
124
123
124
123
124
124
123
121
120
120
121
123
124
123
122
122
123
123
123
123
123
123
124
126
126
125
124
122
121
121
121
120
118
116
114
115
115
115
116
119
121
124
126
129
132
134
135
135
135
134
133
131
129
127
125
123
122
121
121
120
121
122
124
123
121
118
116
117
117
116
113
110
107
106
107
110
115
120
125
129
132
134
134
133
133
133
133
132
131
131
130
131
132
134
135
137
137
141
146
146
143
142
147
157
173
188
198
199
200
200
200
201
204
203
199
199
201
203
204
202
202
202
201
201
201
202
202
201
201
201
200
200
199
199
199
199
199
199
199
198
197
197
197
197
198
198
198
197
197
197
196
196
197
197
197
197
197
197
197
198
198
198
198
198
197
197
197
197
197
197
197
197
197
197
197
197
197
197
197
197
197
197
197
197
197
197
197
197
196
196
196
196
196
196
197
197
197
197
198
198
198
198
198
198
198
198
199
199
199
199
199
200
200
200
200
200
200
200
200
200
200
200
200
200
200
200
200
200
200
200
200
200
200
200
199
199
199
199
200
200
201
201
202
203
202
201
200
202
203
204
203
200
193
180
160
139
128
126
126
124
124
124
123
120
117
117
120
122
122
121
120
121
123
124
125
124
123
123
124
126
128
127
126
124
123
122
120
119
118
117
117
116
115
114
112
110
109
111
114
117
120
122
124
126
127
128
128
128
127
126
124
121
120
120
122
123
125
126
126
125
125
125
125
126
126
124
122
121
119
118
118
119
120
123
127
130
133
135
135
133
133
133
133
132
131
131
131
131
132
133
135
137
136
140
146
148
145
145
152
164
181
195
202
201
201
202
202
202
202
201
201
201
202
202
202
202
202
202
202
203
203
203
203
202
201
201
201
201
200
200
199
199
199
199
199
198
197
197
196
196
197
198
198
197
196
196
195
195
196
196
196
196
197
197
197
197
198
198
198
198
197
197
197
197
197
197
197
197
197
197
197
197
197
197
197
197
197
197
197
197
197
197
197
197
196
196
196
196
196
196
197
197
197
197
197
198
198
198
198
198
198
198
198
199
199
199
199
200
200
200
200
200
200
200
200
200
200
200
200
200
200
200
200
200
200
200
200
200
200
200
199
199
199
199
200
200
201
201
202
202
201
201
202
203
202
202
203
204
201
190
169
145
131
127
127
124
124
124
123
120
117
116
118
120
119
119
120
122
124
125
126
124
123
123
124
127
128
128
127
126
126
125
123
121
119
117
116
115
113
111
108
105
103
101
100
100
101
103
104
106
108
111
113
115
117
118
118
116
115
116
118
121
123
124
124
124
124
125
125
126
127
128
128
126
125
124
123
123
124
125
128
130
133
134
134
132
132
132
132
132
132
132
131
132
133
135
136
138
138
140
143
146
147
148
155
173
188
197
201
202
202
202
202
202
202
202
202
202
202
202
202
202
202
202
202
202
203
203
202
202
201
201
201
201
200
200
199
199
199
199
199
198
197
197
196
196
197
198
198
197
196
196
195
196
196
196
196
196
197
197
197
197
197
197
198
198
197
197
197
197
197
197
197
197
197
197
197
197
197
197
197
197
197
197
197
197
197
197
197
197
196
196
195
196
196
196
196
197
197
197
197
197
198
198
198
198
198
198
198
199
199
199
199
199
200
200
200
200
200
200
200
200
200
200
200
200
200
200
200
200
200
200
200
200
200
200
199
199
199
199
200
200
201
201
202
201
202
202
203
203
201
201
203
207
207
199
181
157
139
130
127
124
125
126
125
122
119
117
118
120
119
119
121
123
125
125
125
124
123
122
124
126
128
129
129
128
128
127
125
123
120
119
118
116
115
113
111
108
105
102
97
94
93
92
92
92
92
94
96
99
101
103
106
108
111
113
116
120
122
124
125
125
126
126
127
128
129
131
133
132
131
129
129
128
128
128
129
130
131
132
132
130
131
132
132
132
132
132
132
133
135
137
139
141
141
141
141
144
149
153
162
182
195
200
201
203
202
201
201
202
202
202
202
202
202
202
202
202
202
202
202
202
202
202
202
201
201
201
201
200
200
200
199
199
199
199
199
198
197
197
196
196
197
198
198
197
196
196
195
196
196
196
196
196
196
196
197
197
197
197
197
197
197
197
197
197
197
197
197
197
197
197
197
196
196
196
196
196
196
196
196
196
196
196
196
196
195
195
195
195
195
195
196
196
197
197
197
197
197
197
197
197
197
197
198
198
199
199
199
199
199
199
199
199
199
199
199
199
199
199
199
199
199
199
199
199
199
199
200
200
200
200
199
199
199
199
200
200
201
201
202
203
203
203
203
203
201
201
203
207
209
204
190
171
151
135
125
122
122
123
123
121
118
117
118
120
120
120
121
124
125
124
123
122
121
122
123
126
127
129
130
129
128
127
126
124
123
121
120
119
118
117
115
113
111
109
107
106
103
100
97
95
94
94
94
96
99
101
103
107
110
114
117
120
124
126
127
128
129
129
130
131
132
134
135
135
133
132
132
131
130
130
129
129
130
130
130
129
130
131
132
133
133
133
133
135
136
138
140
142
142
141
140
143
150
159
172
191
201
203
202
203
202
201
201
202
202
202
202
202
202
202
202
202
202
202
202
202
201
201
201
201
201
201
200
200
200
200
199
199
199
199
199
198
197
197
196
196
197
198
198
197
196
196
195
196
196
196
196
196
196
196
196
196
196
196
196
196
196
196
196
196
196
196
196
196
196
196
196
195
195
195
195
195
195
195
195
195
195
195
195
195
195
195
195
195
195
195
195
196
196
196
197
197
197
197
197
197
197
197
197
198
198
198
199
199
199
199
199
199
198
198
198
198
198
198
198
198
198
198
198
198
199
199
200
200
200
200
199
199
199
199
200
200
201
201
202
204
204
203
202
202
202
202
202
204
206
204
198
186
166
144
127
121
120
120
120
119
117
116
117
119
119
119
120
123
123
122
121
120
121
121
122
124
126
128
129
130
129
129
128
126
125
123
122
121
120
118
117
115
113
112
113
112
110
107
104
102
101
101
101
102
104
106
107
110
113
116
119
122
126
128
129
130
130
131
132
133
133
134
134
134
133
132
132
131
130
129
129
128
128
128
128
129
130
131
132
133
134
134
134
136
137
139
141
143
144
143
141
143
152
167
183
196
204
205
204
201
201
201
202
202
202
202
202
202
202
202
202
202
202
202
202
201
201
201
201
201
200
200
200
200
200
200
199
199
199
199
199
198
197
197
196
196
197
198
198
197
196
196
195
196
196
196
196
196
196
196
196
196
196
196
195
195
195
195
195
195
195
195
195
195
195
195
195
195
195
195
195
195
195
195
195
195
195
195
195
195
195
195
195
195
195
195
195
195
196
196
196
197
197
197
197
197
197
197
197
197
198
198
198
199
199
199
199
199
198
198
198
198
198
198
198
198
198
198
198
198
198
199
200
200
200
200
199
199
199
199
200
200
201
201
203
206
205
203
200
201
203
203
202
201
202
202
201
197
181
157
135
126
121
119
119
118
117
116
116
117
117
116
118
121
121
120
119
119
120
121
121
122
124
126
128
130
131
131
130
128
127
127
126
125
124
123
121
120
118
116
115
114
113
111
109
108
107
107
107
108
109
110
112
114
117
119
122
124
127
128
129
130
130
131
132
133
133
132
131
131
130
130
130
129
128
128
127
127
126
126
127
128
129
131
132
133
134
134
135
136
138
140
141
143
144
144
143
145
155
174
192
200
204
205
204
200
200
201
201
201
201
201
201
201
201
201
201
201
201
201
201
201
201
201
201
200
200
200
200
200
199
199
199
199
199
199
199
198
197
197
196
196
197
198
198
197
196
196
195
196
196
196
196
196
196
196
196
196
196
196
195
195
195
195
195
195
195
195
195
195
195
195
195
195
195
195
195
195
195
195
195
195
195
195
195
195
194
194
194
194
195
195
195
195
195
195
196
196
196
196
196
196
197
197
197
197
197
197
198
198
198
198
199
199
198
198
198
198
198
198
198
198
198
198
198
198
198
199
200
200
200
200
199
199
199
199
199
200
201
201
203
206
205
202
201
202
204
204
202
200
200
201
203
203
191
171
149
136
126
121
121
120
119
118
118
118
116
115
117
119
119
118
118
120
121
122
122
122
123
125
127
130
131
132
131
130
130
130
131
133
133
133
132
130
129
126
123
121
120
119
118
117
117
117
117
117
117
117
117
120
122
124
125
127
128
129
129
129
129
130
131
132
132
131
129
129
129
128
128
127
126
126
126
126
126
126
127
128
129
131
132
134
135
135
135
136
137
139
140
142
143
144
145
149
160
180
198
201
202
204
204
201
200
201
201
200
200
200
200
200
200
200
200
200
200
200
200
200
200
200
200
200
200
200
200
199
199
199
199
199
199
199
199
198
197
197
196
196
197
198
198
197
196
196
195
196
196
196
196
196
195
195
195
195
195
195
195
194
195
195
195
195
195
195
195
195
195
195
195
195
195
195
195
195
195
195
195
195
195
195
195
195
194
194
194
194
194
194
195
195
195
195
196
196
196
196
196
196
196
196
197
197
197
197
197
198
198
198
198
198
198
198
198
198
198
198
198
198
198
198
198
198
198
199
200
200
200
200
199
199
198
198
199
200
201
201
202
204
204
202
201
203
204
203
200
199
202
204
205
202
193
179
161
144
130
123
121
121
121
121
121
121
118
117
117
119
119
118
118
120
122
124
124
123
124
125
127
130
132
133
133
133
134
135
137
139
141
142
142
141
140
139
138
137
136
136
135
133
132
131
130
130
130
130
130
130
131
131
131
131
131
131
130
129
129
130
131
133
133
132
131
130
129
128
127
126
126
126
126
127
127
127
127
128
129
131
133
134
135
135
135
136
137
138
139
141
143
145
146
152
166
184
198
200
200
200
201
201
200
200
199
199
200
200
200
200
200
200
200
200
200
200
200
200
199
199
199
199
199
199
199
199
199
199
199
199
199
199
199
198
197
197
196
196
197
198
198
197
196
196
195
196
196
196
196
196
195
195
195
195
194
194
194
194
195
195
195
195
195
195
195
195
195
195
195
195
195
195
195
195
195
195
195
195
195
195
195
195
194
194
194
194
194
194
195
195
195
195
195
196
196
196
196
196
196
196
196
197
197
197
197
198
198
198
198
198
198
198
198
198
198
198
198
198
198
198
198
198
198
199
200
200
200
200
199
199
198
198
199
200
201
201
202
202
202
202
202
204
203
201
200
201
205
207
205
198
190
180
164
144
128
119
117
117
118
120
121
120
118
116
117
119
119
118
119
121
124
126
126
125
125
126
128
131
135
137
137
137
137
138
140
142
142
143
143
142
141
141
142
141
141
140
140
139
138
137
137
137
138
138
139
138
138
137
137
136
135
133
132
130
130
131
132
134
134
134
133
131
130
129
128
126
126
126
126
127
127
127
128
129
130
131
133
134
135
135
135
135
136
137
138
140
143
145
146
155
171
186
196
200
200
198
199
203
201
199
198
199
200
200
200
200
200
200
200
200
200
200
200
200
199
199
199
199
199
199
199
199
199
199
199
199
199
199
199
198
197
197
196
196
197
198
198
197
196
196
195
196
196
196
196
196
195
195
195
194
194
194
194
194
194
194
195
195
195
195
195
195
195
195
195
195
195
195
195
195
195
195
195
195
195
195
195
195
194
194
194
194
194
194
195
195
195
195
196
196
196
196
196
196
196
196
196
196
197
197
197
197
197
197
197
197
198
198
198
198
198
198
198
198
198
198
198
198
199
199
200
199
199
199
199
199
199
199
199
200
201
201
201
201
202
203
204
205
203
201
199
200
202
203
200
194
188
177
161
138
124
118
118
118
118
117
116
114
115
116
117
118
117
118
119
122
124
126
127
127
127
127
129
131
135
138
139
139
139
140
141
142
142
142
142
141
141
141
140
140
141
141
142
140
139
139
138
139
140
141
142
141
140
140
140
139
138
136
135
133
133
133
134
135
135
134
133
130
129
129
128
128
127
127
126
127
128
129
130
129
130
130
131
133
133
133
133
135
136
137
138
139
141
141
143
155
174
187
194
201
203
202
200
201
200
199
198
199
200
200
200
200
200
200
200
200
200
200
199
199
199
199
199
199
199
199
199
199
199
199
199
199
199
199
199
198
197
197
196
196
197
197
197
196
195
195
195
195
196
196
196
195
195
195
195
194
194
194
193
193
194
194
194
194
194
194
194
194
194
194
194
194
194
194
194
194
194
194
194
194
194
194
194
194
194
194
194
194
194
194
195
195
195
195
196
196
196
196
196
196
196
196
196
196
196
196
196
196
196
196
196
196
197
197
197
197
197
197
198
198
199
199
199
199
199
199
200
199
198
198
198
199
200
200
201
201
201
201
200
202
202
203
203
203
202
200
200
198
197
195
193
190
184
173
155
133
123
120
122
121
119
116
112
109
112
116
117
116
116
117
119
121
123
125
127
129
130
130
131
132
134
136
137
139
140
141
142
142
142
142
142
143
143
142
139
139
141
142
143
142
141
140
139
139
140
141
141
141
141
140
140
139
138
138
138
137
136
136
136
135
134
133
131
129
127
127
128
129
129
128
127
127
128
130
131
129
129
129
129
130
131
132
132
134
135
137
138
138
138
137
139
153
172
183
189
199
204
203
200
198
199
200
199
198
199
199
200
200
200
200
200
200
199
199
198
198
198
198
198
198
198
198
198
198
198
198
198
198
198
198
199
198
197
197
197
196
195
195
195
195
195
195
195
195
195
195
195
195
194
194
194
193
193
193
193
193
193
193
193
193
193
193
193
193
193
193
193
194
194
194
194
194
194
194
194
194
194
194
194
194
194
194
194
194
194
194
195
195
195
195
195
196
196
196
196
196
196
196
196
196
196
196
196
196
196
196
196
196
197
197
197
197
197
197
198
198
198
198
199
199
199
199
200
199
198
198
198
199
200
200
201
202
202
202
201
201
200
199
198
198
198
198
198
197
195
192
188
184
176
163
146
130
123
122
121
120
118
116
115
112
113
116
117
116
117
119
120
122
124
126
128
130
131
131
132
133
134
135
136
138
139
139
140
140
140
140
141
142
143
142
141
141
141
142
142
141
140
140
140
140
141
141
142
142
142
142
142
140
139
139
139
137
136
136
135
134
133
132
131
129
127
127
128
129
129
128
127
127
129
130
130
128
128
128
129
131
131
132
133
134
134
134
135
135
136
136
138
149
165
173
177
186
191
193
194
196
201
203
201
199
200
200
200
200
200
200
200
199
199
200
200
200
199
198
198
198
198
198
198
198
198
198
198
198
198
198
199
198
197
197
197
196
195
195
195
195
195
195
195
195
195
195
195
195
194
194
194
193
193
193
193
193
193
193
193
193
193
193
193
193
193
193
193
194
194
194
194
194
194
194
194
194
194
194
194
194
194
194
194
194
194
194
194
195
195
195
195
195
196
196
196
196
196
196
196
196
196
196
196
196
196
196
196
196
197
197
197
197
197
197
197
198
198
198
198
199
199
199
200
199
198
198
197
199
200
202
203
204
203
203
202
200
198
196
195
195
195
195
194
193
189
183
177
171
162
150
136
124
120
119
117
115
113
114
115
113
112
113
114
116
117
118
119
121
124
126
127
129
130
131
132
133
134
135
136
137
138
138
138
137
137
138
139
141
142
142
142
141
140
140
140
140
140
140
141
142
143
143
143
144
144
144
143
142
141
141
140
138
137
136
135
134
133
132
131
129
128
127
128
129
129
128
127
128
129
130
130
128
128
128
129
130
131
131
132
132
132
132
132
132
134
136
138
146
158
164
165
171
176
179
182
188
196
200
199
199
200
201
202
201
200
199
198
198
198
199
200
199
198
198
198
198
198
198
198
198
198
198
198
198
198
198
199
198
197
197
197
196
195
195
195
195
195
195
195
195
195
195
195
195
194
194
194
193
193
193
193
193
193
193
193
193
193
193
193
193
193
193
193
193
193
193
193
193
193
193
193
193
193
193
193
193
193
193
193
194
194
194
194
194
195
195
195
195
195
195
196
196
196
196
196
196
196
196
196
196
196
196
196
196
196
196
196
197
197
197
197
197
198
198
198
198
199
199
200
199
198
198
197
198
200
202
203
204
204
204
202
199
197
196
195
194
192
190
187
183
177
171
165
160
154
145
134
122
118
116
114
111
111
112
113
111
109
110
111
114
115
116
117
120
122
124
126
128
129
129
130
131
132
134
135
135
136
136
135
135
135
135
136
138
140
141
141
140
138
136
136
137
139
141
142
143
143
144
145
145
145
145
145
144
143
142
141
139
138
136
135
134
133
133
132
130
129
129
129
129
128
128
128
128
129
130
130
127
127
127
127
128
128
129
129
129
129
129
130
131
133
135
138
145
154
159
161
164
167
169
172
177
184
190
193
196
199
200
202
202
201
199
197
196
196
196
197
198
198
198
198
198
198
198
198
198
198
198
198
198
198
198
199
198
197
197
197
196
195
195
195
195
195
195
195
195
195
195
195
195
194
194
194
193
193
193
193
193
193
193
193
193
193
193
193
193
193
193
193
193
193
193
193
193
193
193
193
193
193
193
193
193
193
193
193
193
194
194
194
194
194
194
195
195
195
195
196
196
196
196
196
196
196
196
196
196
196
196
196
196
196
196
196
196
197
197
197
197
198
198
198
198
198
199
200
199
198
198
198
199
201
202
203
204
203
203
201
198
196
195
194
191
187
182
176
170
165
161
159
159
158
152
140
124
117
114
113
112
112
112
111
108
106
107
110
112
113
114
115
118
120
122
124
126
127
127
128
129
130
132
133
134
134
134
133
132
132
132
133
135
137
137
138
136
133
131
132
134
136
139
141
142
142
144
145
146
145
145
145
145
144
143
142
140
139
137
136
134
133
133
133
131
130
130
129
128
127
127
128
128
129
129
129
127
126
126
125
124
124
124
125
126
127
128
129
130
131
133
138
146
155
162
167
169
168
167
167
169
173
178
184
189
192
196
199
200
199
198
197
196
196
196
196
197
198
198
198
198
198
198
198
198
198
198
198
198
198
198
199
198
197
197
197
196
195
195
195
195
195
195
195
195
195
195
195
195
194
194
194
193
193
193
193
193
193
193
193
193
193
193
193
193
193
193
193
192
192
192
192
192
192
192
192
192
192
192
192
192
193
193
193
193
193
193
194
194
194
194
194
195
195
195
195
196
196
196
196
196
196
196
196
196
196
196
196
196
196
196
196
196
196
196
197
197
197
197
198
198
198
199
200
199
198
198
198
200
201
203
204
203
201
200
198
195
193
192
190
185
179
172
165
161
159
161
165
170
170
162
148
127
117
114
115
115
115
113
110
105
105
107
109
110
111
113
114
116
118
120
122
123
124
125
126
127
128
129
130
131
131
131
130
129
129
129
130
132
133
133
133
130
128
126
127
130
134
136
138
138
139
141
143
143
143
143
143
143
143
142
141
140
139
137
135
133
133
133
133
132
131
129
128
126
126
126
126
127
127
126
126
125
124
123
122
120
120
120
121
123
125
127
129
130
129
131
137
145
155
165
174
177
176
174
172
171
170
172
175
180
183
187
192
195
197
197
198
197
197
197
197
198
198
198
198
198
198
198
198
198
198
198
198
198
198
198
199
198
197
197
197
196
195
195
195
195
195
195
195
195
195
195
195
195
194
194
194
193
193
193
193
193
193
193
193
193
193
193
193
193
193
193
193
192
192
192
192
192
192
192
192
192
192
192
192
192
192
192
193
193
193
193
193
194
194
194
194
194
194
194
195
196
196
196
196
196
196
196
196
196
196
196
196
196
195
195
196
196
196
196
196
197
197
197
197
197
197
198
199
198
198
198
199
201
202
203
203
200
198
196
194
191
188
185
180
173
168
164
161
162
165
170
176
181
177
164
144
125
116
115
116
116
114
111
107
102
101
104
106
108
108
110
111
114
116
118
119
121
122
123
123
123
124
124
125
127
128
128
127
127
126
126
126
127
128
128
127
125
122
121
123
127
130
131
132
131
132
134
137
138
137
137
138
139
139
139
139
138
137
135
134
132
131
131
131
131
130
129
126
124
123
123
123
124
123
122
121
121
120
119
118
117
117
118
120
122
124
127
129
130
129
131
136
142
148
161
174
179
181
181
180
179
177
174
173
174
176
180
184
188
192
195
197
199
199
200
200
199
198
198
198
198
198
198
198
198
198
198
198
198
198
198
199
198
197
197
197
196
195
195
195
195
195
195
195
195
195
195
195
195
194
194
194
193
193
193
193
193
193
193
193
193
193
193
193
193
193
193
193
192
192
192
192
192
192
192
192
192
192
192
192
192
192
192
192
193
193
193
193
193
194
194
194
194
194
194
195
196
196
196
196
196
196
196
196
196
196
196
196
196
195
195
195
196
196
196
196
196
197
197
197
197
197
197
198
198
199
199
200
202
203
203
201
199
196
193
189
186
181
175
168
163
161
164
169
174
178
180
180
178
167
150
130
117
113
114
115
114
112
110
106
101
99
100
102
103
104
105
107
109
111
113
115
117
118
118
119
119
118
119
120
122
123
125
125
124
123
123
122
122
122
122
122
120
118
118
120
124
126
126
125
123
124
127
130
130
130
130
131
133
134
135
135
135
134
132
131
129
129
129
129
129
128
126
123
120
118
118
119
119
118
117
115
114
115
115
115
116
117
119
120
123
125
127
128
129
129
131
134
133
133
142
158
166
173
178
183
184
184
182
178
175
175
176
179
182
186
190
195
198
199
200
200
199
198
198
198
198
198
198
198
198
198
198
198
198
198
198
199
198
197
197
197
196
195
195
195
195
195
195
195
195
195
195
195
195
194
194
194
193
193
193
193
193
193
193
193
193
193
193
193
193
193
193
193
192
192
192
192
192
192
192
192
192
192
192
192
192
192
192
192
192
193
193
193
193
193
193
194
194
194
194
195
196
196
196
196
196
196
196
196
196
196
196
196
196
195
195
195
195
195
195
196
196
197
197
197
197
197
197
197
197
198
200
201
202
203
202
200
197
193
189
185
180
172
164
158
155
160
171
182
190
191
186
176
164
147
130
115
111
114
117
117
115
112
110
109
104
101
99
98
98
99
100
101
104
106
108
109
111
112
113
113
114
113
114
116
118
121
122
122
122
121
119
118
117
117
117
118
117
116
116
118
122
124
122
119
116
116
120
123
123
123
124
126
128
129
130
131
131
130
129
128
127
127
127
127
128
127
124
120
117
115
114
115
115
114
112
110
109
110
111
114
116
118
120
122
124
125
127
127
128
130
133
131
123
114
119
135
145
156
168
179
185
188
187
184
182
179
177
177
178
181
186
191
195
197
198
198
198
198
198
198
198
198
198
198
198
198
198
198
198
198
198
199
198
197
197
197
196
195
195
195
195
195
195
195
195
195
195
195
195
194
194
194
193
193
193
193
193
193
193
193
193
193
193
193
193
193
193
193
192
192
192
192
192
192
192
192
192
192
192
192
192
192
192
192
192
192
192
193
193
193
193
194
194
194
194
195
196
195
195
195
195
195
195
195
195
195
195
195
195
195
195
195
195
195
196
196
196
197
197
196
196
197
197
198
198
199
200
201
203
203
202
199
195
189
184
179
173
163
154
151
157
170
183
193
197
193
182
164
141
121
108
104
108
115
119
119
116
114
113
112
108
105
102
99
95
94
95
95
97
99
101
103
105
107
107
107
107
107
108
110
112
115
116
116
116
114
113
112
111
110
111
112
112
112
112
114
117
117
116
113
112
112
115
118
118
118
119
121
124
125
126
127
128
127
126
125
125
124
124
124
124
123
120
116
113
110
109
110
110
109
107
106
107
108
111
114
117
119
122
124
126
127
127
128
128
132
133
129
116
98
95
108
121
135
152
169
182
186
188
189
190
186
182
178
178
179
182
186
189
192
193
193
195
197
198
198
198
198
198
198
198
198
198
198
198
199
199
198
198
197
197
196
196
195
195
195
195
195
195
195
195
195
195
195
195
194
194
194
194
193
193
193
193
193
193
193
193
193
193
193
193
193
193
193
190
190
190
190
190
191
191
191
192
192
192
192
192
193
193
193
193
193
193
193
193
193
193
193
193
193
193
194
194
194
194
194
194
194
194
194
193
193
193
193
194
195
196
195
196
196
197
197
197
196
196
196
196
197
199
201
201
200
200
201
202
202
201
197
191
183
174
168
163
154
148
153
171
188
196
197
191
180
166
145
115
94
90
99
108
115
117
116
115
116
116
115
112
109
106
103
98
95
92
90
90
91
94
97
99
100
100
99
99
100
101
102
103
104
104
105
104
104
103
101
100
100
100
102
103
103
103
103
104
105
106
106
108
110
112
114
114
115
115
117
119
121
122
123
123
122
121
121
121
120
120
119
117
115
113
110
107
104
103
103
104
104
105
107
110
112
114
115
118
120
122
124
126
128
129
130
131
131
132
128
114
89
71
77
93
112
132
154
173
177
181
189
193
192
188
184
182
180
180
181
182
184
185
188
192
196
198
198
199
199
199
199
198
198
198
198
198
198
198
197
197
196
196
196
196
195
195
194
194
193
193
193
194
194
194
194
194
194
194
194
194
194
194
194
194
193
193
193
193
193
193
193
193
193
193
193
190
190
190
190
190
191
191
191
192
192
192
192
192
193
193
193
193
193
193
193
193
193
193
193
193
193
193
193
193
193
193
193
194
194
194
194
194
195
195
194
195
196
197
196
196
195
195
196
196
197
197
198
198
199
200
202
202
201
201
201
200
199
196
191
183
174
165
158
152
153
160
172
185
192
194
191
184
171
150
119
86
73
84
100
110
116
118
117
117
118
119
118
115
112
110
106
101
98
94
91
89
89
90
92
95
96
96
97
96
95
94
95
95
96
96
96
95
95
94
93
92
92
93
95
96
96
96
96
96
97
99
100
102
104
105
106
107
108
109
110
112
113
114
115
114
114
113
112
111
111
112
112
111
109
107
105
103
101
101
101
102
103
104
107
111
113
114
116
118
120
122
124
126
127
129
130
130
127
128
129
119
95
73
70
78
91
111
134
156
165
174
185
192
193
191
190
187
184
182
180
180
182
184
188
191
194
196
197
198
198
198
198
198
197
197
196
195
196
196
197
197
196
196
196
196
195
195
194
193
193
193
193
194
194
194
194
194
194
194
194
194
194
194
194
194
193
193
193
193
193
193
193
193
193
193
193
190
190
190
190
190
191
191
191
192
192
192
192
192
193
193
193
193
193
193
193
193
193
193
193
193
193
193
192
192
192
192
192
193
194
194
195
196
196
196
196
196
196
196
196
194
194
194
194
195
196
198
199
201
202
202
203
202
201
201
199
197
194
188
181
173
164
157
152
149
163
181
195
197
196
192
186
177
162
134
93
60
64
86
104
112
117
118
118
120
122
123
122
119
115
113
109
105
102
98
94
91
89
88
88
90
91
92
93
92
90
89
88
89
89
89
89
89
89
88
87
86
86
86
88
89
90
90
90
91
92
93
93
95
96
97
97
98
99
100
101
103
104
105
105
104
104
104
103
102
102
103
103
102
101
100
99
99
99
99
100
102
103
104
107
112
114
115
117
119
120
122
124
126
127
128
129
129
127
128
127
115
92
74
74
75
78
90
108
130
150
166
178
185
189
192
193
192
189
185
181
179
180
183
186
190
192
194
195
196
197
197
198
198
197
196
195
193
193
195
197
197
196
196
196
196
195
195
194
193
193
193
193
194
194
194
194
194
194
194
194
194
194
194
194
194
193
193
193
193
193
193
193
193
193
193
193
190
190
190
190
190
191
191
191
192
192
192
192
192
193
193
193
193
193
193
193
193
193
193
193
193
193
193
192
191
191
191
192
193
194
194
195
196
196
196
197
196
195
195
195
194
193
194
195
196
197
199
201
203
204
204
204
202
201
200
197
193
186
179
171
163
157
153
152
156
175
195
206
203
198
192
183
170
148
115
70
42
62
89
107
114
117
118
119
121
124
126
125
122
118
115
112
109
105
102
98
94
91
88
86
86
86
87
88
88
86
85
84
85
85
86
86
86
86
86
85
84
83
83
83
84
85
86
86
87
87
88
88
89
89
89
90
90
90
91
93
94
95
96
96
97
97
97
97
96
96
95
95
94
94
95
95
96
97
99
101
103
104
106
109
113
115
117
118
120
121
123
124
126
127
128
129
129
131
131
124
105
79
67
75
77
76
79
89
107
134
154
167
176
183
190
195
196
194
190
185
181
180
181
184
186
189
190
191
193
194
196
198
199
198
197
195
193
193
195
197
197
196
196
196
196
195
195
194
193
193
193
193
194
194
194
194
194
194
194
194
194
194
194
194
194
193
193
193
193
193
193
193
193
193
193
193
190
190
190
190
190
191
191
191
192
192
192
192
192
193
193
193
193
193
193
193
193
193
193
193
193
193
193
193
192
192
192
193
194
194
194
194
195
195
195
196
195
194
194
194
194
195
196
197
199
200
202
203
204
205
205
204
202
200
197
192
186
178
170
162
157
155
155
160
172
187
199
203
200
195
189
178
158
128
91
52
33
63
92
109
115
117
117
119
122
125
127
126
123
119
117
114
111
108
106
103
99
94
90
87
85
84
83
83
84
83
83
83
84
84
84
85
85
85
86
86
85
85
84
82
82
83
83
84
85
86
86
86
86
86
86
85
85
85
86
86
87
89
90
91
93
93
93
93
94
93
91
90
89
91
92
94
96
98
101
103
106
107
109
112
115
117
118
119
121
122
124
125
126
127
127
128
129
134
133
121
98
68
55
68
75
81
86
90
96
117
137
153
164
175
185
194
200
200
197
192
187
184
181
181
183
185
187
188
190
192
195
197
199
199
198
197
195
194
195
197
197
196
196
196
196
195
195
194
193
193
193
193
193
193
193
193
193
193
193
193
193
193
193
193
193
193
193
193
193
193
193
193
193
193
193
193
190
190
190
190
190
191
191
191
192
192
192
192
192
193
193
193
193
193
193
193
193
193
193
193
193
193
193
193
194
194
194
194
194
194
194
194
194
194
194
194
194
193
193
194
196
197
199
200
202
203
203
204
204
204
204
204
201
197
192
186
179
170
163
157
156
158
164
173
189
196
198
197
195
191
182
168
142
106
66
37
26
63
92
109
114
116
116
118
121
125
127
125
122
120
118
116
113
111
109
107
104
100
96
91
87
84
82
81
80
80
80
81
81
81
81
82
83
83
84
85
85
86
84
82
81
82
83
84
85
85
85
86
86
85
85
84
83
83
83
84
84
85
86
87
89
89
89
90
90
89
89
88
89
91
93
96
98
101
104
106
109
110
112
114
117
118
119
120
122
123
124
125
126
126
126
127
127
129
127
119
100
68
44
51
63
82
95
100
96
102
119
139
154
166
178
190
199
204
204
201
196
189
184
180
180
183
184
185
187
189
193
196
199
201
201
199
197
196
196
197
197
196
196
196
196
195
195
194
193
193
193
193
192
192
192
192
192
192
192
192
192
192
192
192
192
193
193
193
193
193
193
193
193
193
193
193
190
190
190
190
190
191
191
191
192
192
192
192
192
193
193
193
193
193
193
193
193
193
193
193
193
193
193
194
195
195
195
195
194
194
194
194
193
193
193
193
193
194
195
196
199
201
203
204
205
205
205
205
203
203
203
203
199
193
187
180
173
166
160
157
158
165
174
186
199
203
200
197
196
188
174
155
126
87
47
27
21
62
91
108
113
115
115
117
120
124
125
123
121
120
120
118
115
113
112
110
107
104
101
96
92
88
85
82
80
78
77
77
78
78
78
78
78
79
79
80
81
82
81
80
80
80
81
82
82
82
83
84
84
84
83
83
83
82
82
83
83
83
84
84
85
85
86
86
86
87
88
90
92
94
97
100
102
105
108
110
112
113
115
116
119
120
121
122
123
124
125
125
125
126
126
126
126
124
122
116
100
69
40
42
56
79
95
101
95
99
113
129
143
155
167
181
192
200
205
205
200
193
186
180
180
182
183
183
185
187
190
194
197
200
201
201
199
198
198
197
197
196
196
196
196
195
195
194
193
193
193
193
192
192
192
192
192
192
192
192
192
192
192
192
192
193
193
193
193
193
193
193
193
193
193
193
190
190
190
190
190
191
191
191
192
192
192
192
192
193
193
193
193
193
193
193
193
193
193
193
193
193
193
194
194
194
194
194
194
194
194
194
194
194
194
194
195
196
198
199
202
203
204
205
206
206
206
205
204
203
203
201
196
189
182
175
170
164
160
159
163
172
183
194
204
205
203
200
197
187
169
145
112
73
35
21
25
64
91
107
112
114
116
118
120
123
123
122
120
121
122
121
119
117
114
112
109
107
104
101
97
93
89
85
82
79
77
76
76
76
75
74
74
74
75
75
76
76
76
76
76
76
76
77
77
77
78
79
80
80
80
81
80
80
81
81
81
82
82
82
83
84
85
85
86
88
92
95
97
99
101
104
107
109
111
113
114
115
115
117
120
121
122
123
124
125
125
125
125
125
125
126
125
123
120
114
98
70
41
39
54
75
90
96
95
107
119
127
135
144
157
171
183
194
200
202
200
195
189
184
183
183
184
183
182
184
186
190
193
197
199
200
200
199
198
197
197
196
196
196
196
195
195
194
193
193
193
193
192
192
192
192
192
192
192
192
192
192
192
192
192
193
193
193
193
193
193
193
193
193
193
193
190
190
190
190
190
191
191
191
192
192
192
192
192
193
193
193
193
193
193
193
193
193
193
193
193
193
193
193
192
193
193
193
194
194
194
194
194
195
195
195
197
200
202
203
204
204
204
205
205
206
206
205
205
204
202
199
192
185
178
173
169
164
161
162
168
177
189
199
203
205
203
199
192
182
164
137
102
63
28
24
41
70
93
107
112
115
117
118
121
122
122
121
120
122
125
125
122
120
116
113
110
108
106
104
101
98
94
89
86
82
80
79
77
76
74
73
72
72
71
71
71
71
71
71
71
71
71
70
70
71
72
73
74
75
76
76
77
77
77
78
78
79
81
82
83
85
87
89
90
92
96
100
102
103
105
108
110
112
113
114
115
115
115
117
120
122
122
123
124
125
125
125
125
125
125
125
124
122
119
114
99
73
46
38
53
73
88
97
102
119
129
130
131
139
152
166
179
190
197
201
202
200
196
193
190
187
185
183
181
182
183
186
190
194
197
198
198
197
197
197
197
196
196
196
196
195
195
194
193
193
193
193
192
192
192
192
192
192
192
192
192
192
192
192
192
193
193
193
193
193
193
193
193
193
193
193
190
190
190
190
190
191
191
191
192
192
192
192
192
193
193
193
193
193
193
193
193
193
193
193
193
193
193
192
192
192
192
192
192
193
194
195
197
198
199
199
201
204
206
206
205
205
205
204
205
205
205
205
205
204
202
197
189
182
175
171
167
165
164
167
173
183
193
201
201
202
200
193
181
173
157
128
91
54
24
30
56
79
95
106
112
115
118
119
121
122
121
119
119
123
126
127
125
122
118
114
111
109
108
106
104
101
97
94
91
88
85
83
81
79
77
75
73
72
71
70
70
69
69
68
67
67
66
66
66
66
67
69
69
71
73
73
73
74
75
76
77
79
82
84
87
90
92
94
96
98
101
103
105
106
108
110
113
114
115
115
115
115
115
117
120
122
124
125
125
125
125
125
125
125
125
124
123
119
117
114
103
80
51
34
47
71
91
105
114
127
134
134
135
142
153
166
179
189
197
202
204
205
204
202
197
191
187
184
181
180
181
184
188
191
193
194
194
194
195
196
197
197
197
196
196
196
195
194
194
193
193
193
192
192
192
192
192
192
192
192
192
192
192
192
192
193
193
193
193
193
193
193
193
193
193
193
190
190
190
190
190
191
191
191
192
192
192
192
192
192
192
192
192
192
192
192
192
192
192
192
192
192
192
193
194
194
193
192
191
191
193
197
203
206
207
207
208
208
208
207
206
205
205
205
206
207
207
206
205
203
200
194
186
178
172
168
165
165
168
175
184
193
199
202
202
201
197
189
175
163
142
106
66
38
27
35
60
78
92
101
107
113
118
120
121
120
120
119
120
122
124
125
124
123
121
118
116
114
112
110
107
103
100
97
94
93
92
90
87
84
81
78
76
74
72
71
70
69
68
67
66
66
66
66
66
67
68
69
70
72
74
74
74
75
77
79
82
85
88
90
92
94
96
98
99
101
104
106
108
109
111
113
115
116
117
117
117
116
116
118
121
123
126
128
128
128
126
125
125
126
126
125
123
119
115
110
98
78
53
33
42
65
87
105
117
126
134
140
145
150
157
166
177
187
196
201
204
205
204
203
199
195
189
185
182
181
183
185
187
187
187
186
186
188
190
193
195
197
198
199
199
198
196
195
195
195
195
195
193
193
193
194
194
194
193
193
192
192
192
191
191
192
192
192
192
192
192
192
192
192
192
192
190
190
190
190
190
191
191
191
191
192
192
192
192
192
192
192
192
192
192
192
192
192
192
192
192
192
192
193
194
195
194
193
192
192
195
199
205
208
210
210
209
208
208
207
206
205
205
206
207
207
207
206
205
203
199
193
185
177
171
167
166
167
172
181
191
199
203
203
201
199
194
186
171
156
131
93
52
28
26
38
61
79
91
99
105
112
117
120
121
120
119
118
120
122
123
124
123
122
121
120
119
117
115
113
110
106
102
99
96
95
93
90
88
85
82
80
78
77
75
74
72
71
70
69
69
68
68
69
69
70
71
72
74
75
76
77
76
77
79
82
86
88
91
93
95
96
98
100
102
104
106
108
109
110
112
114
115
116
117
118
119
119
119
119
121
124
127
129
129
128
126
125
125
126
126
125
123
119
113
106
94
75
52
34
44
67
88
105
116
120
128
142
152
156
161
169
178
186
193
199
202
204
204
203
201
198
193
187
183
182
183
184
185
184
184
183
183
184
186
187
190
192
195
197
198
197
197
196
195
195
195
195
193
192
192
193
194
193
193
193
192
192
192
192
192
192
192
192
192
192
192
192
192
192
192
192
190
190
190
190
190
191
191
191
191
191
191
192
192
192
192
192
192
192
192
192
192
192
192
192
192
192
192
192
193
194
194
194
194
195
198
202
206
209
210
210
208
208
208
207
206
205
205
205
207
207
207
206
205
203
199
192
184
176
170
168
169
172
178
187
196
202
205
204
200
197
193
185
169
150
124
88
52
28
26
42
65
81
92
100
105
111
116
119
120
119
119
119
121
122
123
124
122
122
122
121
120
119
118
116
113
109
105
102
99
96
93
91
88
85
83
81
79
79
78
77
75
74
73
72
72
71
71
71
72
73
74
75
77
78
79
80
79
80
82
85
88
91
93
95
97
98
100
102
104
106
109
111
111
112
112
113
115
116
117
119
121
122
122
123
122
124
127
128
128
127
125
124
125
126
126
124
121
117
112
104
91
72
50
36
49
71
90
105
112
110
120
140
155
161
165
172
179
185
191
196
199
202
203
204
204
202
198
192
186
183
182
182
183
182
182
183
184
184
183
183
185
188
191
193
196
197
198
198
197
196
195
194
192
192
192
192
192
192
192
192
192
192
192
192
192
192
192
192
192
192
192
192
192
192
192
192
189
190
190
190
190
190
190
191
191
191
191
191
192
192
192
192
192
192
192
192
192
192
192
192
192
192
192
192
192
193
194
195
197
199
202
205
208
210
210
209
208
208
208
207
206
205
205
205
207
207
207
206
205
203
199
191
182
174
169
170
173
177
184
192
200
206
207
204
198
196
194
185
167
143
114
84
54
31
30
49
71
85
94
100
105
110
115
118
119
119
119
119
121
123
124
124
122
121
121
121
121
121
121
119
116
113
109
106
103
100
97
95
92
89
86
84
82
81
80
79
77
76
75
74
74
74
74
73
74
75
76
77
79
80
81
82
82
83
85
88
91
93
95
97
99
101
103
104
106
108
111
113
112
113
113
114
115
117
119
120
123
124
125
125
123
124
126
128
127
126
124
123
124
124
124
122
120
116
111
102
89
69
48
37
50
72
90
102
107
98
109
136
155
163
168
175
180
185
189
193
196
200
203
205
206
206
202
196
190
185
182
181
181
181
182
182
184
184
182
180
181
184
187
190
194
197
199
200
200
199
197
196
194
194
193
192
191
191
191
192
192
192
192
192
192
192
192
192
192
192
192
192
192
192
192
192
189
189
189
189
189
190
190
190
191
191
191
191
191
191
191
191
191
191
191
191
191
191
191
191
191
191
191
191
192
193
194
196
199
202
205
208
210
210
209
208
207
208
208
207
206
205
205
205
207
207
207
206
205
203
198
189
179
172
169
171
177
183
190
197
204
208
207
203
197
195
191
182
162
131
100
76
55
34
33
53
75
88
96
101
105
109
114
117
119
119
119
119
121
122
123
123
121
121
121
122
123
124
124
122
120
117
113
110
108
105
103
100
97
94
90
88
86
84
82
80
78
77
76
75
75
75
75
75
75
76
77
78
80
81
83
83
85
86
88
91
93
96
98
99
101
102
104
106
108
110
112
113
114
115
115
116
118
119
121
123
125
126
127
126
124
124
126
127
126
125
123
122
123
123
122
121
118
115
110
101
87
66
45
36
50
70
87
99
102
90
99
129
151
161
169
177
182
185
187
190
194
198
202
204
206
207
205
200
194
189
186
183
182
182
182
183
184
183
182
180
181
182
184
188
191
196
199
202
203
202
202
201
199
197
195
194
192
191
191
192
192
192
192
192
192
191
191
191
191
191
191
191
191
191
191
191
189
189
189
189
189
189
189
190
190
191
191
191
191
191
191
191
191
191
191
191
191
191
191
191
191
191
191
191
191
192
194
197
201
204
208
210
211
210
209
208
207
208
208
207
206
205
205
205
207
207
207
206
205
203
196
187
177
171
170
174
182
189
195
201
205
207
205
201
194
191
186
176
154
120
87
68
55
36
33
54
76
89
97
101
105
109
113
116
118
118
118
119
121
122
122
122
121
122
122
123
124
125
125
125
123
120
117
115
112
110
108
105
102
98
94
92
90
88
86
84
82
80
79
78
78
78
77
77
78
79
80
81
83
84
86
86
88
89
91
94
96
98
99
100
102
103
105
107
109
110
112
113
115
116
118
120
122
123
125
126
126
127
127
126
124
124
125
126
125
123
122
121
122
121
120
119
116
113
108
99
85
64
42
35
50
70
88
101
106
90
93
120
142
155
166
177
183
186
188
190
194
197
200
203
205
207
206
202
198
194
190
188
186
185
185
184
183
182
182
182
181
181
182
184
187
192
197
201
203
204
205
205
204
202
200
197
194
193
192
192
192
192
192
191
191
191
191
191
191
191
191
191
191
191
191
191
188
188
188
189
189
189
189
189
190
190
190
190
190
190
190
190
190
190
190
190
190
190
190
190
190
190
190
190
190
191
193
197
201
206
209
211
210
209
208
207
207
208
208
207
206
205
205
205
207
207
207
206
205
203
196
186
177
172
173
179
188
194
199
203
205
205
203
199
193
189
183
172
150
114
80
68
61
44
38
55
78
91
98
101
104
108
112
114
117
118
119
120
121
122
122
122
122
122
122
123
124
125
125
126
124
123
121
119
116
113
110
107
104
101
98
96
94
93
91
90
87
86
84
83
82
82
82
82
83
84
85
86
87
89
90
90
92
93
95
97
99
100
101
102
104
105
107
108
111
112
112
114
116
118
120
123
125
126
127
127
127
126
126
125
124
125
125
125
123
122
121
121
121
120
119
117
114
110
104
95
81
60
40
36
53
75
94
109
115
97
91
112
134
149
163
175
182
186
188
191
194
197
199
201
203
205
206
204
202
198
195
193
191
190
188
187
184
183
183
184
182
181
181
182
184
188
192
197
201
204
207
208
208
207
204
199
196
193
192
192
192
192
192
191
190
190
190
191
190
190
190
190
190
190
190
190
188
188
188
188
189
189
189
189
190
190
190
190
190
190
190
190
190
190
190
190
190
190
190
190
190
190
190
190
190
191
192
196
201
206
209
211
210
208
207
206
207
208
208
207
206
205
205
205
207
207
207
206
205
203
196
186
178
175
177
185
194
200
203
204
205
204
202
198
194
189
182
170
150
114
81
75
73
59
48
57
79
92
99
101
104
107
111
113
116
117
119
120
121
121
121
122
123
122
122
123
124
125
125
126
125
124
123
121
119
116
113
110
107
104
101
100
99
98
96
95
93
92
91
89
88
87
87
87
87
88
89
90
92
93
94
95
96
97
99
100
102
103
103
104
106
107
109
110
113
114
114
115
117
119
122
124
125
126
126
126
126
125
125
125
124
125
126
125
123
122
121
120
120
119
118
115
112
106
99
90
75
55
38
39
59
81
101
117
122
101
89
106
128
144
159
172
181
185
188
192
196
198
199
200
202
204
206
206
205
202
199
196
194
193
191
189
187
185
184
185
184
183
182
182
183
186
190
194
198
202
205
208
210
209
206
201
197
193
192
192
192
192
192
191
190
190
190
190
190
190
190
190
190
190
190
190
188
188
188
188
188
189
189
189
189
190
190
190
190
190
190
190
190
190
190
190
190
190
190
190
190
190
190
190
190
190
191
195
201
206
209
210
209
208
206
206
207
208
208
207
206
205
205
205
207
207
207
206
205
203
197
188
181
179
183
192
201
205
206
205
203
202
200
197
195
189
181
169
153
117
86
86
87
76
61
60
80
93
100
102
104
106
110
113
115
117
119
120
121
121
121
122
124
123
123
122
122
123
124
125
126
125
124
123
121
119
116
114
111
108
105
103
101
100
99
98
96
95
93
92
91
91
90
90
90
91
93
94
95
96
98
99
100
101
102
103
105
106
106
106
107
108
110
112
115
116
117
118
119
120
122
123
124
125
125
125
125
125
125
125
124
125
125
124
122
121
120
120
120
119
117
114
110
102
94
84
70
51
36
43
65
88
108
121
124
100
84
103
126
143
158
171
180
185
189
193
197
200
201
200
201
204
207
208
207
204
201
198
196
195
194
192
190
187
186
186
186
186
186
186
186
187
190
193
197
200
204
207
210
209
204
199
195
192
191
191
192
193
193
192
190
190
190
190
190
190
190
190
190
190
190
190
187
187
187
187
187
188
188
188
188
189
189
189
189
189
189
189
189
189
189
189
189
189
189
189
189
189
189
190
190
190
191
195
200
205
208
209
208
206
205
205
207
208
208
207
206
205
205
205
207
207
207
206
205
203
197
189
183
182
187
196
205
208
208
206
203
201
199
197
195
189
179
168
152
117
88
91
96
87
70
60
79
93
100
102
104
106
109
111
114
117
119
120
121
121
122
123
124
124
123
123
122
123
123
124
125
125
124
124
123
122
120
117
114
111
108
106
104
102
100
98
96
95
94
93
93
93
92
91
92
93
94
95
97
98
99
100
102
103
105
106
107
107
107
107
108
109
112
114
117
119
120
121
121
121
121
121
122
123
123
123
124
125
125
125
124
124
124
124
122
120
119
119
120
119
116
113
108
100
91
81
67
48
34
45
70
93
110
121
121
94
79
101
126
143
158
171
178
184
188
193
198
200
201
200
201
204
207
208
207
205
202
199
198
197
196
195
192
190
189
189
190
190
190
190
190
190
191
193
196
200
203
206
209
208
204
198
194
191
190
190
191
192
192
192
191
190
190
190
190
190
190
190
190
190
190
190
186
187
187
187
187
188
188
188
188
187
187
188
187
188
188
188
188
188
188
188
188
188
188
188
188
188
188
188
188
189
192
196
200
204
207
208
207
206
205
204
205
206
207
206
205
205
205
205
206
206
206
205
205
203
198
190
186
186
191
199
206
208
207
206
204
202
199
197
196
190
180
166
146
111
85
87
94
90
73
58
80
93
99
100
103
106
109
110
112
114
116
119
121
121
121
122
123
123
123
123
123
123
123
123
122
122
122
121
121
122
121
118
115
113
111
109
107
106
103
100
98
95
94
95
96
95
95
95
96
97
98
99
100
101
101
102
103
104
105
106
108
109
109
110
111
112
114
116
118
119
120
121
121
121
121
121
121
121
121
122
123
124
124
125
125
125
125
124
121
120
119
119
119
117
114
110
105
96
87
77
63
44
31
46
74
94
107
114
110
84
76
104
129
145
157
167
174
181
188
195
199
201
201
200
202
204
206
207
208
207
205
204
203
202
200
199
196
194
192
190
191
191
191
190
189
189
190
192
195
199
203
207
209
208
204
199
194
190
188
188
189
190
190
190
190
189
189
190
190
191
191
191
191
191
191
191
186
186
186
187
187
188
188
188
187
187
187
186
186
187
187
187
187
187
187
187
187
187
187
187
187
187
187
187
188
190
193
197
201
204
206
207
207
206
205
204
205
206
207
206
205
205
205
205
205
205
205
205
205
204
199
191
188
189
193
200
206
207
207
206
204
203
200
196
192
186
177
164
142
110
87
89
98
96
80
59
77
89
95
98
101
105
108
109
110
111
114
116
119
120
120
120
122
122
122
122
123
123
123
122
121
121
120
119
119
120
120
118
116
114
112
110
109
107
105
102
99
97
96
97
98
97
97
98
98
99
100
101
102
103
103
104
105
106
107
108
110
111
111
112
112
112
114
115
117
118
120
121
121
120
120
120
121
121
121
121
122
123
123
124
124
124
123
123
121
120
119
118
117
115
111
106
100
91
81
72
59
43
36
52
81
101
112
113
104
78
77
108
133
147
157
165
171
179
187
195
200
200
200
200
202
204
206
206
208
209
209
208
207
206
204
202
200
198
196
193
192
192
191
190
189
188
189
192
196
200
204
208
210
209
206
201
196
192
189
188
188
189
189
189
189
189
189
190
191
191
191
191
192
192
192
191
186
186
186
186
187
188
188
188
187
187
187
186
186
187
187
187
187
187
187
187
187
187
187
187
187
187
187
188
190
192
195
198
202
205
207
208
208
207
206
206
206
207
207
206
205
205
205
204
205
205
205
205
205
203
198
192
188
189
194
201
206
207
207
206
205
204
201
196
188
181
174
163
145
113
91
97
108
107
91
67
70
80
89
96
100
104
107
108
108
109
112
114
117
118
118
119
121
121
121
122
122
123
123
122
122
121
121
120
119
119
119
118
116
115
113
111
109
107
105
103
101
99
98
98
98
98
98
98
99
100
100
101
103
104
104
105
106
107
109
110
112
112
112
112
111
111
112
113
115
117
119
120
121
120
120
120
120
121
121
121
121
122
122
122
120
121
121
120
119
118
118
117
115
112
107
101
94
85
75
66
56
45
47
66
93
113
122
119
103
79
83
113
137
150
159
167
171
178
186
194
199
200
200
201
203
205
206
207
209
210
210
210
208
207
206
204
202
201
199
197
196
195
193
192
190
190
191
194
198
202
206
209
211
211
208
204
200
196
193
191
190
189
189
190
190
190
190
190
191
191
191
191
192
192
192
192
186
186
186
186
187
188
188
188
187
187
187
186
186
187
187
188
188
188
188
188
188
188
188
188
188
188
188
189
191
194
196
200
203
206
208
209
209
208
207
206
206
206
206
205
206
205
205
205
205
205
205
205
205
203
199
192
189
190
195
201
207
208
206
205
205
204
201
197
190
183
176
166
146
112
88
97
112
115
104
82
71
75
86
95
100
104
107
108
109
110
111
113
116
116
117
118
120
120
120
121
121
122
122
121
122
121
121
120
119
118
117
117
117
116
114
112
110
107
105
104
103
102
101
100
99
99
99
99
99
100
101
102
103
104
105
106
107
107
109
110
112
112
112
111
111
111
112
113
115
116
118
120
120
119
119
119
120
120
120
120
120
121
121
120
117
117
118
118
118
117
116
115
112
108
102
95
88
81
70
58
46
44
58
81
107
124
129
121
99
83
94
121
142
155
163
169
173
178
185
193
198
200
201
203
205
206
207
208
209
210
210
211
210
209
207
206
205
204
203
201
199
198
195
193
191
192
193
196
200
205
208
211
212
211
210
207
204
201
197
193
191
189
189
188
189
190
190
190
190
190
190
190
191
191
191
191
186
186
186
186
187
188
188
188
187
187
187
186
186
187
188
189
189
189
189
189
189
189
189
189
189
189
189
190
192
194
196
199
202
205
207
208
208
208
207
207
206
205
205
206
205
205
205
204
204
205
205
205
205
204
200
193
190
191
195
201
207
208
207
206
205
204
202
198
193
188
181
169
149
111
84
94
112
120
115
98
76
72
82
93
99
104
108
109
110
110
111
112
115
116
116
117
118
119
119
120
120
121
121
122
122
121
121
120
119
117
116
117
117
117
116
113
111
108
106
105
105
105
104
102
100
100
100
100
100
101
102
103
104
105
106
107
106
106
107
108
110
111
111
111
111
112
114
115
117
118
119
119
119
119
119
119
119
119
119
119
119
120
120
119
117
117
117
117
116
115
113
111
108
104
98
91
84
78
68
52
38
44
68
94
117
129
130
116
93
90
107
130
148
159
166
171
174
178
185
191
196
199
202
204
206
207
207
208
209
210
210
210
210
209
208
207
206
206
206
204
202
199
197
195
193
193
194
198
201
206
209
211
210
209
209
208
206
203
199
195
191
188
187
187
188
189
190
190
190
190
190
189
189
189
189
189
187
187
187
187
188
188
188
189
188
187
187
187
187
188
189
190
190
190
190
190
190
190
190
190
190
190
190
190
192
194
196
199
201
204
205
206
207
207
207
206
206
205
205
205
205
204
204
204
204
205
205
205
205
204
200
195
191
191
195
201
207
207
207
206
205
204
202
198
193
188
181
172
153
113
82
92
113
124
123
109
82
70
77
89
96
103
107
109
110
110
111
112
114
115
115
115
116
117
117
118
119
120
120
121
121
121
121
120
119
117
116
116
118
118
117
114
112
109
107
106
106
107
106
104
103
102
102
101
102
103
103
103
105
106
106
107
105
105
106
107
109
110
111
111
112
112
114
116
118
119
119
118
118
119
119
119
118
118
118
118
118
118
118
118
117
117
117
116
114
112
110
107
104
100
95
89
82
74
62
47
39
52
76
101
120
129
125
109
83
87
111
135
153
164
170
174
176
180
185
191
196
200
202
205
207
207
207
207
208
209
209
209
209
209
208
208
207
206
206
205
203
200
197
195
193
194
195
198
202
206
209
210
209
208
209
209
208
205
201
197
193
190
189
189
189
190
190
191
190
189
189
189
188
188
188
188
187
187
187
188
189
189
189
189
189
188
188
187
188
189
190
191
191
191
191
191
191
191
191
191
191
191
191
191
192
193
195
198
200
202
204
205
206
206
206
205
205
205
205
205
204
204
204
204
204
205
205
204
204
204
201
196
192
192
196
201
206
207
206
205
205
204
202
198
192
186
180
171
154
114
79
88
111
126
129
118
92
74
73
82
90
98
104
107
109
109
109
110
112
113
113
113
114
115
115
116
118
119
120
121
121
121
121
120
119
117
116
117
118
118
117
115
113
110
109
108
108
109
108
106
105
104
104
103
103
103
103
104
105
106
107
107
106
106
107
108
110
111
111
111
111
112
113
115
117
117
118
118
118
118
118
118
118
118
118
118
118
117
117
117
118
118
117
115
112
109
106
104
100
96
91
86
79
67
53
45
50
65
84
103
117
122
116
99
73
77
105
135
155
167
174
178
179
182
187
192
196
200
203
205
207
207
207
207
208
208
208
209
208
207
207
207
206
206
206
205
202
200
197
195
194
195
196
199
202
206
208
209
209
210
210
211
210
208
204
201
198
195
194
193
193
193
192
191
190
189
189
188
187
187
187
187
188
188
188
189
189
190
190
190
190
189
189
188
188
190
191
192
192
192
192
192
192
192
192
192
192
192
192
192
193
194
196
198
200
202
203
204
205
205
205
205
205
204
204
204
204
203
203
203
204
204
204
204
204
204
202
197
194
193
197
202
206
206
206
205
205
204
203
199
194
188
182
172
154
113
72
77
105
124
131
124
106
87
74
74
83
93
100
104
107
108
108
109
111
111
111
111
113
114
114
115
117
118
120
121
121
121
121
121
120
119
118
118
118
117
117
116
114
112
111
110
109
109
108
107
106
106
105
104
104
105
105
106
106
107
108
108
108
108
109
110
112
112
112
111
110
111
112
113
114
115
116
117
117
118
118
117
117
117
117
117
117
116
116
115
116
115
115
113
110
106
103
100
96
92
87
81
74
59
45
47
63
80
93
103
113
114
106
87
63
62
96
132
157
170
177
181
183
185
189
194
197
200
202
205
207
208
208
208
208
208
208
208
207
206
206
205
205
205
205
203
201
199
197
195
195
196
198
201
204
206
208
209
211
212
212
211
210
209
208
205
203
202
200
200
199
196
194
193
192
191
190
189
188
187
187
187
189
189
189
190
191
191
191
191
191
190
190
190
189
191
192
193
193
193
193
193
193
193
193
193
193
193
193
193
194
195
196
198
201
202
204
205
206
206
206
206
205
204
203
203
203
203
203
203
204
204
204
204
204
204
202
198
195
194
197
202
206
206
206
205
205
205
203
200
197
192
185
174
157
113
67
67
98
120
128
125
119
101
80
67
77
89
98
103
107
108
108
109
110
110
110
111
113
113
114
115
116
117
118
119
120
121
121
121
121
120
120
119
118
117
117
116
115
114
112
111
109
108
108
108
107
107
107
106
106
106
106
107
108
108
109
109
109
109
110
111
112
113
113
112
111
111
112
112
113
114
116
117
116
116
116
116
116
115
115
115
115
115
114
114
112
111
111
109
107
103
100
97
93
88
82
75
67
53
45
55
75
92
103
110
119
115
101
78
60
64
98
133
158
171
179
184
186
188
191
195
198
200
202
205
207
209
210
210
209
208
208
208
207
206
206
205
205
204
203
202
200
198
196
195
196
198
201
203
206
207
208
210
211
212
212
211
210
209
209
208
208
207
205
204
203
200
196
194
193
192
191
190
189
188
188
188
190
190
190
191
192
192
192
192
192
191
191
191
190
191
192
193
193
193
193
193
193
193
193
193
193
193
193
194
195
196
198
199
201
202
204
205
206
207
207
207
205
204
203
203
203
203
203
203
203
204
204
204
204
204
202
199
195
195
198
202
206
207
206
205
205
205
204
200
197
192
186
177
161
118
70
66
97
118
125
122
122
107
83
64
74
87
97
103
107
109
110
110
111
111
111
111
112
112
113
114
116
117
118
119
120
121
121
121
121
121
121
120
118
117
116
115
116
115
114
112
110
108
108
108
108
107
107
107
107
107
107
107
108
109
109
110
108
108
108
109
111
112
112
112
112
113
113
114
116
117
117
116
116
116
116
116
115
115
115
114
114
114
113
111
108
107
106
106
104
101
98
95
90
84
76
69
62
54
54
65
83
101
114
124
132
125
103
75
65
81
110
138
158
172
180
186
188
190
194
197
200
201
202
205
207
210
211
211
210
209
209
208
207
206
206
205
205
204
202
201
199
198
197
197
198
201
204
206
208
209
209
210
212
211
210
209
208
208
209
209
209
208
207
206
205
202
199
196
195
194
193
192
191
190
190
189
190
190
190
191
192
192
192
192
192
192
192
191
191
192
192
193
194
194
194
193
192
192
192
193
193
192
192
193
195
196
198
200
202
203
204
205
205
206
206
206
205
204
204
204
204
204
204
204
204
204
204
204
204
204
203
200
197
196
197
201
205
207
207
207
206
205
204
201
195
193
190
181
158
114
67
61
88
109
121
124
124
114
97
79
73
86
97
102
106
111
114
115
113
112
112
113
113
114
115
116
117
118
118
119
120
121
121
121
121
121
120
119
118
117
117
116
116
115
115
114
112
110
110
110
109
108
108
108
108
108
109
109
109
109
109
109
108
108
108
109
110
111
112
112
113
114
115
116
118
117
117
116
115
114
114
113
113
113
113
114
114
114
113
111
108
106
104
103
100
98
96
92
87
80
72
63
57
55
60
74
94
114
126
131
131
119
98
74
69
97
127
150
165
174
180
185
188
192
196
199
201
203
203
204
207
210
211
211
210
209
209
208
207
207
207
206
205
204
203
202
201
200
200
200
201
203
206
208
210
211
212
212
211
209
208
207
207
209
210
210
208
207
205
205
205
204
202
200
197
195
195
195
194
192
190
188
189
190
190
191
191
192
192
192
192
192
192
192
191
191
191
192
194
194
194
193
192
192
193
194
193
192
192
191
192
194
196
199
201
203
204
204
204
204
205
205
205
205
205
205
206
206
206
206
206
205
205
204
203
203
203
202
199
197
197
199
203
206
208
207
206
205
204
202
196
196
194
183
152
107
63
57
79
100
118
128
126
121
112
96
77
84
95
101
107
112
117
118
114
112
113
115
115
115
116
117
118
119
119
120
121
122
122
122
121
121
120
119
119
119
118
118
117
116
116
115
114
114
113
112
111
110
110
109
109
110
111
112
111
111
111
110
109
109
109
110
111
112
112
113
115
116
116
117
118
117
116
115
113
112
111
110
110
111
111
112
112
112
111
110
108
106
103
100
98
95
92
88
82
75
67
59
55
61
72
87
107
125
132
129
119
105
90
77
78
111
142
162
172
176
180
184
188
193
197
200
202
204
204
205
207
209
210
210
210
209
209
208
208
207
207
206
205
204
203
203
203
203
203
204
205
206
208
210
211
211
212
212
209
207
206
205
207
209
210
209
206
203
201
202
204
206
206
203
198
195
194
195
196
194
191
188
190
191
191
191
192
192
192
193
193
193
193
193
192
190
190
190
192
193
193
192
193
194
195
195
194
192
191
190
190
191
193
195
198
201
203
204
206
206
206
206
206
205
205
206
206
207
207
207
207
206
206
205
204
204
204
203
200
197
197
199
202
205
206
206
205
204
204
203
199
197
193
181
153
110
68
63
83
101
116
125
128
127
121
108
91
84
90
102
109
113
115
116
115
115
115
115
115
116
116
117
118
119
119
120
122
123
123
124
124
123
123
122
122
121
121
120
119
118
118
117
116
116
115
113
112
111
111
110
111
112
113
114
114
113
113
112
111
111
111
112
113
114
114
114
115
116
116
117
118
117
116
115
113
112
112
111
110
110
110
110
109
108
108
107
105
103
100
97
94
92
87
82
75
68
61
57
59
76
92
105
117
127
128
122
114
103
93
89
101
129
152
166
174
178
181
186
189
193
196
199
201
203
204
205
207
209
210
210
209
208
208
208
207
206
206
205
205
204
202
201
202
203
203
204
206
207
208
209
209
209
209
209
207
206
204
203
203
204
204
203
203
202
201
202
203
206
206
202
195
191
190
191
193
194
193
191
192
192
192
192
193
194
194
194
194
194
194
194
193
191
190
190
191
192
192
192
194
195
196
195
193
190
187
186
187
188
189
192
195
198
201
203
205
206
206
206
206
205
205
205
206
207
207
208
208
207
207
206
206
205
205
204
202
199
198
199
201
203
204
205
205
205
205
205
204
199
192
182
163
119
72
65
80
93
109
124
135
137
132
123
110
91
87
101
111
113
112
114
118
119
118
117
117
117
117
117
117
118
119
121
123
124
126
127
128
127
127
126
125
124
124
123
122
121
120
119
118
117
116
115
114
113
113
113
113
114
114
115
116
115
115
114
113
114
114
115
115
116
116
115
115
116
116
117
117
116
115
114
112
112
112
112
111
110
110
109
107
104
103
103
104
102
98
95
92
88
82
75
67
61
58
60
70
94
113
125
132
135
131
122
115
104
97
105
131
152
165
172
176
179
182
187
190
194
196
197
200
202
204
206
208
210
210
209
208
207
207
206
205
205
205
204
204
203
202
201
202
203
204
205
207
208
208
208
207
206
205
205
205
205
205
205
203
202
202
202
203
204
206
207
207
206
203
197
190
186
185
187
190
193
195
195
193
193
193
193
194
195
195
195
195
195
195
195
194
193
193
193
193
193
193
192
194
195
196
194
190
185
181
180
182
184
187
190
194
197
200
202
204
205
205
205
205
206
206
206
207
208
208
209
209
208
208
207
207
207
207
206
204
202
200
199
200
201
203
204
205
206
206
206
204
199
194
188
176
131
78
63
74
86
102
121
139
144
142
136
127
105
91
98
108
111
112
115
121
122
120
119
120
120
119
119
119
120
120
122
124
126
128
129
130
130
130
130
129
128
127
126
124
123
122
121
120
119
119
118
117
116
116
115
116
116
116
117
117
116
116
115
116
117
117
117
117
117
117
116
116
116
116
116
116
115
114
113
112
112
112
113
113
112
110
109
106
104
102
102
103
102
99
95
91
85
77
68
60
58
62
72
86
108
126
136
142
143
137
126
119
104
99
117
152
170
177
178
178
180
184
188
191
194
195
196
198
200
203
206
209
210
210
209
207
206
205
204
204
203
203
204
204
204
204
204
205
206
206
207
208
207
207
207
205
204
203
203
203
205
206
207
206
204
203
205
207
209
210
209
207
202
197
190
184
181
180
183
187
192
195
196
193
194
194
194
195
195
195
196
196
196
196
195
195
195
195
195
195
194
193
192
194
195
195
192
188
182
177
176
178
181
186
192
196
199
201
202
202
203
203
203
204
205
206
206
207
208
209
209
209
209
209
208
208
208
208
208
206
204
202
200
200
201
202
204
206
207
207
206
201
199
198
196
185
141
87
63
73
87
100
115
135
144
146
144
138
119
102
98
102
109
113
118
125
125
122
121
123
124
123
123
123
123
123
123
125
127
129
130
132
133
133
132
131
130
129
128
126
125
123
122
121
121
121
121
120
119
119
118
118
118
118
118
118
117
117
116
118
119
119
119
119
118
118
117
116
116
116
116
116
115
114
113
112
113
113
114
115
114
113
111
108
105
103
103
104
103
100
96
90
81
71
62
56
60
73
89
106
120
132
140
144
144
139
129
120
104
100
123
162
178
183
182
181
182
184
188
191
193
194
195
196
198
202
206
208
210
210
208
206
205
204
203
202
203
203
204
204
205
207
209
209
209
209
209
208
207
207
206
205
205
204
203
202
204
207
209
209
208
207
207
208
209
208
204
198
193
188
184
180
179
179
182
186
190
192
194
194
194
194
195
195
196
196
196
196
196
196
196
196
195
194
194
194
193
193
192
194
195
195
193
188
182
177
175
176
181
188
194
199
201
202
202
201
201
202
203
205
206
206
206
207
208
208
209
210
209
209
208
208
208
209
210
208
207
205
203
201
201
202
204
206
207
207
206
202
201
202
200
187
146
94
66
75
91
102
110
125
136
143
145
141
132
118
103
99
105
114
121
127
127
124
124
128
128
128
127
126
126
126
126
127
128
130
131
133
134
134
134
132
131
130
129
128
127
126
125
123
123
123
124
124
123
122
121
121
121
121
121
120
119
118
118
119
120
121
120
120
120
119
118
117
116
116
116
116
116
115
114
114
115
115
116
117
116
116
114
111
108
106
105
104
102
99
94
86
77
66
58
58
69
87
106
123
132
137
140
141
139
134
126
117
104
106
131
167
181
185
185
184
184
185
187
190
193
194
195
195
197
201
205
208
210
209
208
205
204
203
202
201
202
204
205
206
207
210
212
212
211
210
209
208
207
206
206
206
207
207
206
205
205
208
210
210
209
207
206
205
203
198
192
185
182
181
181
180
181
182
184
186
187
189
189
194
195
195
195
195
196
196
197
197
197
197
196
196
194
193
192
192
192
192
192
193
194
195
194
191
187
182
178
177
181
187
192
197
199
201
202
202
203
203
204
205
204
205
206
207
208
208
209
209
210
209
209
208
209
209
210
211
210
208
206
203
203
204
205
207
208
208
208
209
206
201
196
185
144
92
65
71
86
102
113
119
128
137
141
141
142
133
115
102
103
112
121
127
127
126
127
131
132
132
132
131
130
130
130
131
131
132
133
134
135
136
135
134
133
133
132
130
129
128
127
127
126
126
127
127
126
125
124
124
124
124
124
123
123
121
121
122
123
123
123
122
122
121
120
119
118
118
119
118
118
118
117
116
117
117
118
119
118
118
116
113
111
109
106
103
100
96
89
81
71
64
61
67
82
100
119
133
141
144
144
141
134
128
121
113
110
122
146
173
186
190
190
188
186
185
186
189
193
195
196
195
197
200
204
207
209
208
207
204
203
202
201
201
202
204
206
208
210
212
214
213
212
211
210
209
208
207
208
208
209
209
210
209
209
210
210
209
207
205
202
199
194
188
180
174
175
178
181
183
185
186
187
187
187
187
187
194
194
194
195
195
196
196
196
196
196
196
196
196
194
192
192
193
193
193
192
192
193
194
194
192
189
185
180
178
179
181
184
188
192
196
199
202
203
204
204
204
204
204
205
206
207
208
208
208
209
209
208
208
209
210
211
212
212
211
208
206
205
205
206
208
208
208
209
213
208
200
193
186
148
100
71
68
80
101
117
118
123
131
136
139
145
142
127
111
104
108
117
125
127
129
131
133
134
134
134
134
134
134
134
134
135
135
135
136
137
137
137
136
135
135
134
133
132
132
131
130
130
130
129
129
128
127
126
127
128
128
129
129
128
127
126
125
125
125
125
125
124
124
123
122
122
122
122
122
121
121
120
120
119
119
120
120
119
118
117
114
113
110
107
101
97
92
85
76
69
66
71
84
99
113
125
135
140
144
146
143
136
127
117
107
120
143
166
180
191
196
196
191
186
184
184
188
192
195
196
196
197
199
203
206
208
208
206
203
202
201
200
201
203
205
208
210
212
212
213
212
212
212
211
210
210
210
210
210
210
211
211
212
211
208
205
202
200
198
195
191
186
180
174
170
173
179
183
185
187
188
189
188
187
187
187
194
194
194
194
195
196
196
196
196
196
196
196
196
194
193
194
196
196
195
193
191
192
192
193
192
190
186
181
177
174
173
174
177
182
188
194
199
202
203
203
202
203
203
204
206
207
207
208
208
208
208
209
209
209
210
211
213
214
213
210
208
206
206
207
209
209
208
207
207
203
199
195
189
165
130
94
72
80
99
114
116
121
127
132
137
144
146
140
124
108
104
112
121
128
132
133
134
134
134
135
136
136
137
137
138
138
138
138
138
139
139
138
138
137
137
136
136
135
135
134
133
133
132
131
130
129
129
128
129
130
132
133
134
133
133
131
129
128
127
127
127
127
127
126
126
125
125
125
125
125
124
124
123
122
121
120
120
119
118
117
114
113
110
107
100
96
90
82
74
69
72
84
101
115
124
130
132
132
137
143
146
141
131
116
102
125
157
179
183
193
201
200
194
187
183
183
187
192
195
197
197
197
198
201
204
207
207
205
203
202
201
200
201
204
206
209
212
213
212
210
211
212
212
212
212
212
211
211
211
210
210
211
211
207
201
195
191
189
187
185
182
178
173
170
170
174
178
183
185
187
188
188
188
188
188
189
195
195
195
195
196
196
196
196
196
196
196
196
196
195
194
195
196
197
196
194
192
192
191
191
191
190
187
183
179
175
171
168
169
172
177
184
190
194
196
197
199
201
203
204
205
206
208
208
209
208
208
208
207
207
208
210
213
214
213
210
208
208
209
210
211
210
208
205
199
199
200
201
196
184
157
114
78
81
97
107
113
121
127
133
138
142
146
146
136
119
106
107
119
128
133
134
133
134
134
135
136
137
138
139
140
140
140
140
139
140
140
139
139
139
139
139
138
138
138
137
137
136
135
133
132
132
132
132
133
134
136
137
137
137
136
135
133
132
131
131
130
130
130
129
129
128
128
127
126
126
126
126
125
124
123
122
121
120
118
116
114
111
108
105
100
93
86
78
74
77
88
103
117
127
131
130
128
129
134
140
143
140
132
118
102
128
162
184
186
195
201
200
195
189
184
183
186
190
193
196
197
198
199
201
204
206
206
204
202
201
202
203
204
205
207
210
212
213
211
209
210
211
212
213
213
212
211
210
208
206
205
204
203
199
191
184
180
180
180
179
176
173
171
171
173
176
180
183
185
186
188
188
189
190
191
192
197
197
197
197
197
197
197
197
197
197
197
197
197
195
194
194
195
195
195
196
195
194
193
192
190
189
189
187
185
182
178
173
168
166
165
166
170
175
180
185
192
199
203
203
204
206
208
209
210
208
205
204
204
204
206
209
213
213
211
209
207
209
212
213
212
209
206
204
200
199
202
205
203
195
169
124
84
80
95
106
113
122
131
138
140
142
145
148
144
133
116
104
118
126
130
132
133
134
134
134
135
136
138
138
139
140
140
140
140
140
140
140
140
141
141
141
141
141
141
141
141
140
139
137
135
135
136
137
138
138
139
139
139
138
138
137
137
137
136
136
135
134
133
132
131
130
129
128
128
127
127
126
126
125
124
122
122
120
119
116
113
109
106
102
97
90
82
78
83
94
108
120
128
131
131
131
131
137
141
139
135
132
127
120
110
132
164
188
194
198
200
198
195
190
186
184
184
186
190
194
197
200
201
203
204
204
203
201
200
202
204
207
208
209
209
210
212
212
211
209
210
211
211
210
208
207
205
203
200
197
193
192
192
188
182
178
177
179
182
182
179
177
175
174
176
179
182
184
186
187
189
190
192
193
193
194
197
197
197
197
197
197
197
197
197
197
197
197
197
195
194
193
194
195
195
195
195
194
193
192
190
189
189
190
190
187
182
177
172
167
164
163
163
166
169
174
180
188
193
194
195
199
202
205
206
206
205
205
206
206
207
209
212
212
209
206
204
206
208
209
207
204
202
201
200
200
203
205
206
201
181
141
102
89
100
113
117
121
125
129
134
145
151
152
147
136
121
109
114
119
124
130
136
137
137
137
137
138
138
139
140
140
140
140
141
141
141
141
141
141
141
141
141
142
142
142
142
142
141
139
138
139
139
140
141
141
141
141
141
140
140
140
139
138
138
138
137
136
135
134
132
131
131
130
129
129
128
127
125
123
121
119
118
117
116
115
113
111
107
101
93
94
97
100
106
116
121
122
121
125
135
144
149
146
141
136
132
128
123
119
120
145
173
193
198
200
199
198
195
192
188
185
185
187
190
194
197
199
200
201
203
204
202
200
200
202
204
207
209
209
209
210
211
211
210
208
208
206
203
199
195
192
191
189
187
184
181
180
183
182
178
176
177
181
184
186
184
181
179
177
178
180
182
184
186
187
189
191
193
194
195
196
197
197
197
197
197
197
197
197
197
197
197
197
197
196
195
194
194
194
194
194
194
193
193
192
190
190
191
192
193
191
187
182
178
173
168
165
162
162
163
164
168
174
177
179
181
185
190
194
197
199
200
202
204
207
208
209
212
213
211
208
205
205
206
206
204
201
201
201
202
203
204
205
206
207
195
165
128
102
102
117
119
120
122
124
129
140
147
147
146
141
133
124
122
120
121
128
137
138
138
138
138
138
139
140
140
141
141
142
142
141
141
141
141
142
142
142
142
142
142
143
143
143
142
141
141
141
141
142
143
144
144
144
143
143
143
143
142
141
140
140
138
137
136
135
134
133
132
131
131
131
131
130
127
125
122
120
119
118
117
116
113
112
108
103
98
113
122
121
118
119
123
125
128
137
147
152
147
141
137
135
132
127
119
118
136
164
188
202
204
202
200
199
196
194
191
189
188
189
192
195
197
199
199
199
200
201
201
199
200
202
204
206
209
209
209
209
209
209
207
204
202
198
192
187
182
179
177
177
176
175
174
174
177
177
175
175
178
183
188
189
188
185
182
180
180
181
182
183
186
188
190
192
195
196
197
198
197
197
197
197
197
197
197
197
197
197
197
197
197
196
195
194
194
194
194
193
193
192
192
191
190
190
191
193
194
193
190
187
184
180
176
172
168
165
163
162
162
164
164
164
166
170
174
180
185
188
192
196
200
204
206
207
211
213
213
210
208
207
208
208
206
204
204
205
206
206
206
205
205
209
204
183
148
109
98
113
116
118
121
126
132
133
136
142
148
149
143
136
139
136
131
131
137
138
137
137
137
138
139
140
141
142
143
144
144
143
142
141
142
142
142
143
143
143
143
144
144
144
144
143
143
143
143
144
144
145
145
145
145
145
145
145
144
143
142
142
140
139
138
137
136
135
134
133
132
133
133
131
129
128
127
126
125
123
120
116
113
109
105
102
103
130
145
141
126
117
121
131
137
144
149
150
143
137
134
133
131
124
113
116
151
181
200
208
207
203
200
199
197
196
194
192
191
192
194
195
197
198
198
197
198
199
198
197
198
201
204
206
208
208
206
206
205
204
200
195
192
188
183
178
174
172
173
174
175
176
175
175
176
176
175
176
179
185
189
192
191
188
184
182
182
182
182
184
186
189
191
194
197
198
199
200
197
197
197
197
197
197
197
197
197
197
197
197
197
196
195
194
194
193
193
192
191
191
191
191
190
191
191
192
193
193
193
192
190
187
184
180
177
173
169
167
164
162
160
158
157
159
163
167
172
176
181
187
193
197
198
199
205
209
211
210
209
209
210
210
209
207
208
209
209
208
206
203
202
205
205
192
159
113
89
104
111
116
121
129
135
132
133
142
150
152
146
141
149
153
151
145
139
136
136
136
137
138
139
140
142
143
144
145
145
143
142
142
142
142
142
143
144
144
144
144
145
145
144
143
143
144
144
144
144
145
145
145
145
145
146
146
145
144
144
143
141
140
140
139
138
137
136
135
134
134
133
132
131
131
131
132
131
129
124
118
111
106
105
110
124
143
151
144
131
122
124
134
140
144
146
146
145
138
133
132
128
118
106
115
161
191
205
208
205
202
199
199
199
198
196
195
194
194
195
196
196
197
197
196
196
197
197
196
198
201
203
206
206
204
202
199
198
195
189
183
180
178
176
174
173
174
177
180
183
183
182
181
179
178
177
179
182
186
190
192
191
189
187
185
184
183
183
185
187
190
193
196
198
200
201
201
197
197
197
197
197
197
197
197
197
197
197
197
197
196
196
195
193
192
192
191
190
190
190
190
191
191
191
191
192
193
193
194
194
193
191
188
184
180
176
173
170
166
162
159
156
155
156
159
162
166
171
177
183
188
188
187
193
199
203
204
205
207
209
211
210
209
209
211
210
208
206
203
200
201
202
194
165
119
87
97
110
119
123
125
127
140
148
148
145
145
147
146
139
154
167
165
144
137
137
138
138
139
140
141
143
144
145
145
144
143
142
142
142
143
143
143
143
144
144
144
144
144
144
143
143
143
143
143
143
144
144
144
144
145
145
145
144
144
144
144
142
141
141
140
139
138
138
137
136
136
134
133
132
132
133
134
133
130
125
119
115
112
120
140
166
152
128
120
128
136
135
131
139
149
155
152
139
132
130
130
125
113
101
117
166
194
204
204
201
198
198
199
200
199
198
197
196
196
196
197
198
197
196
196
197
198
198
197
199
201
203
203
202
198
193
189
186
182
175
169
169
170
171
172
175
178
183
188
190
190
188
185
184
183
182
182
184
187
189
190
189
188
187
187
187
186
185
186
189
191
194
197
200
201
202
203
197
197
197
197
197
197
197
197
197
197
197
197
197
196
196
195
193
192
191
190
189
189
189
190
191
192
192
192
193
194
194
195
195
195
194
192
189
185
181
178
174
170
166
162
158
155
154
155
156
157
161
165
170
174
175
175
181
187
191
193
195
200
205
208
208
208
208
210
211
211
210
208
205
203
202
197
175
136
102
99
115
123
125
126
131
137
143
149
150
149
145
139
135
150
162
160
144
138
138
139
140
141
142
143
144
144
144
143
143
143
143
143
143
143
143
142
142
142
142
143
143
143
143
142
142
142
142
142
142
142
142
142
143
144
144
144
144
143
143
143
142
141
141
141
140
139
139
139
138
138
138
138
136
135
134
134
132
129
126
125
128
133
145
163
181
161
134
125
132
136
135
133
140
146
146
144
141
136
132
131
125
113
108
128
171
195
203
202
199
199
200
201
201
200
199
198
197
197
197
197
198
198
198
198
200
201
200
199
198
198
198
197
194
189
183
178
174
171
165
160
161
164
167
171
175
181
187
192
193
192
189
186
188
188
187
187
186
187
188
188
188
188
187
187
188
187
187
189
191
193
196
198
201
202
202
203
197
197
197
197
197
197
197
197
197
197
197
197
197
197
196
195
193
192
190
189
188
188
188
189
191
192
193
194
195
195
195
195
196
196
195
194
191
189
186
182
179
175
171
166
162
160
158
157
157
155
155
157
160
163
164
165
170
174
177
179
182
188
194
199
201
202
203
206
210
211
212
212
211
205
202
200
187
160
125
102
117
125
128
129
133
131
134
144
151
152
147
138
132
138
145
145
137
134
135
137
139
141
142
143
143
143
143
142
142
143
143
143
143
142
142
142
142
141
141
141
141
141
141
142
141
141
141
140
140
141
141
141
142
143
143
144
143
142
142
142
142
141
141
141
141
140
140
140
140
141
142
142
140
137
135
133
130
128
128
132
143
157
171
181
182
163
141
131
131
132
134
140
151
153
147
138
134
132
131
130
125
117
124
149
180
198
204
202
199
200
201
201
200
200
199
198
197
197
197
197
198
199
200
201
203
202
200
197
194
192
190
188
185
180
175
171
169
167
163
159
160
163
166
170
175
182
188
192
194
192
190
188
189
191
191
190
189
189
189
189
188
188
188
188
188
189
190
191
193
195
197
199
201
202
202
202
197
197
197
197
197
197
197
197
197
197
197
197
197
197
197
195
193
192
190
188
187
187
187
189
191
192
194
196
197
196
196
195
195
196
196
195
194
193
191
188
185
181
177
174
171
169
168
167
165
161
158
157
158
158
158
157
160
162
162
162
165
172
180
186
189
191
194
198
204
208
210
212
212
204
199
199
196
179
144
101
112
122
126
127
130
129
131
138
145
148
149
143
128
126
130
132
127
126
128
131
134
137
140
142
143
143
143
142
142
143
143
143
142
142
142
142
141
140
140
140
139
140
140
141
142
141
141
140
140
141
141
141
142
143
143
144
142
141
141
141
141
141
141
141
141
141
141
141
141
142
144
144
140
137
134
131
129
127
128
136
153
174
188
188
167
147
134
132
134
137
141
147
155
157
151
140
131
126
126
127
122
121
140
168
188
199
204
202
198
199
201
201
200
199
198
197
196
196
196
197
199
201
203
204
204
202
198
192
187
184
181
179
176
173
171
170
170
170
167
164
165
166
167
171
175
181
187
193
195
194
192
190
191
192
192
192
191
191
191
190
190
190
190
189
188
190
192
194
195
196
198
199
201
201
201
202
197
197
197
197
197
197
196
196
196
196
196
196
196
197
197
196
193
191
189
187
186
187
188
189
191
192
195
197
198
197
196
195
194
195
196
197
196
195
194
193
191
188
185
183
181
180
179
178
175
171
167
164
162
161
158
154
154
154
152
150
151
157
164
170
175
179
183
189
195
200
203
206
209
202
196
197
198
187
151
97
101
111
118
120
124
129
134
135
137
141
146
144
126
121
124
125
119
119
121
124
129
132
136
139
141
142
142
142
142
143
143
143
143
142
142
141
140
139
139
139
138
139
140
141
141
141
141
141
140
141
141
141
142
143
143
143
142
141
141
141
140
141
141
141
141
141
141
142
141
142
142
141
138
134
132
130
127
126
129
138
152
172
184
177
138
120
123
134
144
150
151
147
146
145
144
142
138
129
123
121
116
119
147
181
193
199
201
200
195
195
198
200
200
199
198
197
196
197
197
198
200
202
203
204
201
195
190
185
180
176
174
173
173
172
172
173
175
176
174
171
170
169
169
171
174
179
187
193
197
197
196
194
192
192
192
193
193
193
192
191
191
190
190
190
189
191
194
195
196
197
198
199
200
201
201
201
195
196
196
197
197
196
194
193
191
191
191
192
193
196
197
196
193
190
187
186
187
188
190
192
194
195
195
196
197
197
197
196
195
195
195
196
195
194
194
195
193
190
189
188
187
186
185
183
180
177
174
172
170
168
165
161
159
157
153
150
148
149
152
157
163
170
176
180
182
186
191
196
200
201
201
202
197
181
148
103
97
103
110
112
114
124
133
135
134
135
138
138
130
125
123
121
117
117
120
123
125
128
131
134
138
139
140
140
140
141
142
143
142
141
141
140
139
138
138
138
139
140
140
139
139
140
140
140
141
142
142
142
141
141
141
141
142
143
143
143
142
141
141
140
140
140
141
142
142
143
143
141
135
131
130
130
129
128
134
141
140
143
146
141
121
117
127
140
148
150
148
145
144
141
137
132
129
127
125
120
109
109
147
189
201
203
201
197
192
194
197
200
200
198
197
196
197
198
198
199
200
200
200
198
191
182
176
174
172
171
172
173
176
178
179
181
181
180
178
175
174
172
171
170
171
176
183
191
195
197
197
194
191
190
191
193
195
195
194
192
190
189
189
190
191
192
194
196
197
198
198
198
198
199
199
199
194
194
195
195
194
192
190
189
187
188
189
190
192
196
198
196
193
189
186
185
186
188
191
193
195
196
196
197
197
197
197
197
196
196
196
196
195
195
195
195
193
192
191
191
190
189
188
187
185
183
180
178
176
175
172
169
166
162
158
154
150
148
147
150
155
160
165
168
167
171
178
183
187
194
200
203
199
187
165
137
117
109
110
112
114
120
124
124
123
121
122
125
127
126
124
121
119
117
116
117
120
124
128
132
135
137
139
140
141
140
140
141
141
141
141
140
139
139
139
139
141
142
141
139
138
139
139
140
141
141
141
141
141
141
141
140
142
143
143
143
142
141
141
140
140
139
140
140
141
140
139
136
133
130
130
131
131
127
127
129
125
124
124
123
117
122
133
144
149
146
143
143
147
148
145
139
135
131
126
120
111
117
155
193
203
204
201
198
195
195
196
198
198
197
196
196
197
198
199
200
200
198
196
192
185
175
170
169
169
170
172
175
178
181
183
184
184
183
181
178
176
174
172
170
171
175
182
188
193
196
196
194
191
190
191
193
195
195
194
193
191
190
190
191
191
193
196
197
198
199
200
200
199
199
198
198
194
194
194
193
191
188
186
185
185
186
188
190
193
196
198
196
193
189
186
185
186
188
192
194
196
197
198
198
198
197
197
197
196
196
196
196
195
195
195
194
193
193
192
192
193
192
192
191
189
188
186
184
182
181
180
176
174
170
166
161
156
152
150
149
150
153
155
156
156
161
167
171
173
182
191
195
194
190
181
165
132
110
105
110
112
107
101
99
98
99
102
110
122
127
127
125
123
117
111
109
113
119
126
131
133
135
138
141
142
140
139
138
139
140
140
139
139
139
139
140
142
143
142
139
138
138
138
139
139
140
140
141
141
142
142
142
142
142
142
141
140
140
140
140
140
140
140
140
140
138
134
132
133
130
128
130
130
126
119
113
116
120
123
125
127
131
139
146
150
148
145
144
146
145
141
136
133
129
122
115
118
138
171
197
202
202
201
200
199
196
194
195
196
196
196
197
198
199
200
200
198
196
192
188
181
174
170
170
171
172
174
177
180
182
184
185
185
184
183
182
179
177
174
172
172
176
181
187
192
195
196
195
193
192
192
192
193
194
194
194
193
192
192
191
190
192
195
198
200
201
202
202
201
200
199
198
195
194
193
191
189
187
185
185
185
186
189
191
194
197
198
196
192
188
185
184
186
188
192
194
197
198
199
199
198
198
198
197
197
196
196
197
196
195
194
194
194
193
193
193
195
195
195
194
193
192
191
190
189
188
186
183
181
178
174
169
165
161
156
153
152
152
152
151
150
156
163
166
165
170
177
181
181
181
183
176
135
101
90
97
98
89
79
79
84
90
95
103
117
123
126
127
126
119
110
106
109
116
123
127
128
130
134
138
141
139
137
137
138
139
139
139
138
138
139
140
142
143
142
140
138
138
138
138
138
139
139
140
141
142
143
143
142
141
141
140
139
139
139
139
140
140
140
139
139
137
135
133
132
127
124
124
127
126
118
109
116
122
127
131
138
140
142
146
149
148
146
144
141
135
128
122
121
121
114
107
124
158
186
201
200
199
199
200
199
194
191
193
195
196
196
197
199
199
200
199
197
193
189
184
179
174
172
172
173
174
176
179
181
184
185
186
186
186
186
185
182
179
176
174
173
176
181
187
192
196
198
198
195
194
193
192
192
193
194
195
195
194
193
192
190
191
193
196
198
201
203
204
203
202
201
200
195
194
193
192
190
189
188
187
188
189
191
193
195
197
197
195
192
188
185
184
186
189
192
195
198
199
199
199
199
198
198
198
197
197
197
196
195
194
194
194
194
194
194
195
196
196
196
197
197
197
196
195
193
192
191
188
186
185
182
179
175
171
167
162
159
156
154
153
151
156
163
167
164
165
167
170
170
171
176
173
137
98
73
75
84
87
90
97
106
110
109
105
106
108
112
118
123
119
112
109
110
114
119
121
122
125
129
134
137
137
136
136
138
139
139
139
138
138
138
139
141
142
141
140
138
138
138
137
137
138
139
140
141
142
143
144
142
141
140
140
139
139
139
139
139
139
138
137
135
135
135
133
126
120
117
116
120
123
120
114
119
126
131
134
139
140
141
143
142
137
135
137
141
140
135
128
122
117
105
98
129
171
196
201
198
196
196
197
197
191
189
191
194
196
197
198
197
198
198
197
195
191
187
182
178
176
175
176
177
178
180
181
183
184
185
186
186
186
187
187
184
181
177
175
175
177
181
187
192
197
200
200
197
195
193
192
191
192
194
196
198
197
195
193
190
189
190
193
196
199
202
203
203
202
201
201
195
195
195
194
193
193
192
192
193
194
194
195
196
197
196
194
191
188
186
186
188
190
194
196
198
200
200
200
199
199
199
198
197
197
197
197
196
195
194
194
194
194
194
195
196
197
198
199
199
199
199
198
197
196
195
193
192
191
189
187
184
181
176
171
167
163
160
156
153
158
166
171
169
164
163
166
167
168
173
174
156
125
93
76
87
100
110
117
122
122
115
103
92
93
100
108
113
114
114
114
114
113
113
115
117
121
126
131
134
135
135
136
138
139
139
139
138
137
137
137
138
139
139
139
139
138
138
138
138
139
139
140
141
142
143
144
142
141
140
139
138
138
138
139
139
138
136
134
132
131
130
125
115
114
114
113
114
119
120
116
119
123
129
133
136
134
134
136
138
139
141
144
148
145
139
131
125
117
100
94
131
177
199
200
197
195
193
192
191
188
188
192
196
198
198
198
196
195
195
195
194
191
186
181
178
177
178
179
180
181
182
183
183
183
184
184
184
185
185
185
182
179
176
174
174
176
180
185
191
196
199
200
198
196
193
192
191
193
195
197
199
198
197
194
191
189
189
191
194
198
200
202
202
201
201
200
196
195
195
195
195
195
195
196
197
197
197
197
197
196
195
193
190
188
187
187
190
193
195
197
199
200
200
199
199
199
199
198
197
196
196
196
195
194
194
194
194
194
194
195
196
197
198
199
200
200
200
199
198
198
197
196
196
195
193
192
190
187
184
179
174
169
165
162
159
164
173
178
176
166
160
161
162
162
166
172
172
152
120
91
97
114
129
141
148
149
141
124
99
85
85
92
99
105
111
114
114
112
110
110
113
119
125
129
133
134
135
136
138
139
139
139
138
137
136
136
136
137
138
139
140
139
139
139
139
139
139
140
141
142
142
143
141
140
140
139
138
137
137
137
137
135
132
129
126
124
120
115
108
113
118
116
113
115
117
117
115
119
125
132
134
133
132
133
135
135
136
138
140
138
131
123
118
110
98
99
136
179
199
200
198
195
192
189
187
187
189
193
196
198
198
198
196
195
195
195
194
191
186
181
178
177
179
181
182
184
184
184
183
183
183
183
183
183
183
182
179
176
173
172
173
175
178
182
187
192
197
199
198
196
194
193
193
194
196
198
200
199
198
194
192
190
189
191
194
198
200
201
201
200
199
198
196
195
195
194
194
194
195
197
198
198
198
198
197
195
193
191
189
188
188
189
192
194
197
198
199
199
199
198
199
199
199
198
196
196
196
196
195
194
194
194
194
194
195
196
197
198
198
199
200
200
200
199
198
198
198
199
198
197
196
195
194
192
189
185
180
175
171
168
168
173
181
185
182
172
163
158
155
154
156
164
176
168
146
124
120
129
142
154
165
171
168
155
130
108
93
88
89
96
104
110
111
110
107
106
109
114
121
127
132
133
134
135
137
138
139
139
138
137
136
136
135
136
137
139
140
140
140
140
140
140
140
140
140
140
140
141
140
139
139
138
136
135
135
135
134
132
128
123
120
116
112
109
108
114
119
117
114
113
115
116
115
118
123
128
130
134
137
136
129
118
110
112
120
124
123
119
112
105
103
115
148
182
198
199
198
195
192
187
184
186
189
193
196
198
199
199
197
196
196
196
195
192
186
180
177
176
178
180
183
184
185
185
184
183
183
183
183
183
182
180
176
173
171
171
172
174
176
179
183
188
192
196
197
196
195
194
194
195
197
199
200
199
198
195
193
191
192
193
196
198
200
201
200
199
198
197
196
195
194
192
191
191
193
194
196
197
198
198
198
195
192
190
189
188
189
191
194
196
198
199
199
198
198
198
199
198
198
197
196
196
196
196
195
194
194
193
194
195
196
197
198
199
199
200
200
199
199
198
197
197
198
199
198
197
197
197
197
196
194
191
187
183
179
176
175
180
186
190
187
182
173
162
154
149
150
157
170
171
164
153
145
143
148
156
167
176
180
176
161
142
121
101
88
89
96
103
107
108
106
103
103
107
115
123
130
131
132
133
136
137
138
139
138
137
137
136
136
137
138
139
140
140
140
141
141
141
141
141
140
139
139
138
139
139
138
136
134
133
133
132
130
127
123
118
114
111
109
110
112
112
112
111
110
108
111
117
120
122
124
125
124
131
137
135
122
101
83
82
97
110
118
120
115
106
112
136
165
188
198
198
196
194
190
185
181
184
188
192
195
199
201
201
199
198
198
199
198
193
186
178
175
174
176
179
182
183
184
185
184
183
183
183
184
184
183
180
177
174
172
172
174
175
176
178
180
185
190
193
196
196
196
196
196
197
198
199
200
199
198
197
194
193
193
194
196
198
199
200
201
200
199
198
196
195
192
189
188
188
189
191
194
196
198
198
198
194
191
189
189
189
190
192
195
198
199
200
199
198
198
198
198
198
197
197
196
196
196
196
195
194
194
193
194
195
197
198
198
198
199
200
200
199
199
198
197
197
198
199
198
197
197
197
198
198
198
196
193
190
187
183
178
180
186
190
190
193
189
175
163
158
159
163
169
168
163
159
157
155
155
160
165
169
172
173
172
159
138
112
91
86
91
98
103
105
105
101
98
100
108
118
127
129
130
131
133
136
138
139
139
139
138
138
138
138
139
140
140
140
141
142
142
141
141
141
139
138
137
137
138
138
137
135
133
132
131
130
128
124
119
114
110
108
109
112
115
107
100
100
103
104
109
117
124
126
124
123
124
122
120
120
119
113
104
94
88
86
92
103
112
105
118
152
180
194
198
197
194
191
188
184
179
182
187
190
194
198
201
203
202
201
200
200
198
192
184
177
172
172
175
178
181
183
184
185
184
184
184
184
186
186
185
182
179
176
175
175
176
177
177
178
180
184
188
192
195
196
196
196
197
197
198
199
199
199
198
197
195
194
193
194
196
197
199
200
201
201
201
200
193
191
188
185
184
186
190
193
196
197
198
199
199
195
192
191
192
192
194
195
197
198
198
199
198
197
197
198
199
198
198
198
197
196
196
196
196
195
195
194
194
195
195
196
197
197
197
198
199
199
199
199
198
198
198
198
197
197
197
197
197
198
198
197
195
193
191
187
181
181
185
190
193
197
193
183
172
165
163
165
170
171
170
166
163
158
156
158
163
167
171
173
173
168
154
129
98
86
87
91
96
101
104
103
100
99
103
111
121
127
129
129
129
132
135
139
140
139
138
137
137
138
140
140
140
140
139
139
139
140
140
140
140
139
138
138
136
135
134
133
133
132
129
126
122
116
112
110
109
107
105
104
106
104
103
106
110
112
113
116
117
116
112
110
109
107
106
107
109
109
107
103
99
93
89
89
91
85
107
148
180
196
201
197
193
188
185
182
181
184
189
194
198
202
204
203
201
200
200
200
196
190
182
176
173
173
175
178
181
183
184
184
183
183
183
184
186
187
186
184
182
181
179
179
179
179
179
180
183
185
188
191
194
194
194
194
195
196
198
199
200
200
200
199
197
196
195
195
196
197
198
199
201
202
203
203
191
188
185
182
183
186
191
195
197
199
199
199
199
196
193
192
194
195
196
197
198
198
198
198
198
197
197
198
199
199
199
199
198
197
197
196
196
195
195
195
195
195
195
196
196
196
196
197
198
198
198
199
199
199
199
198
198
197
197
197
197
197
197
196
195
193
191
188
185
184
186
191
195
198
195
187
178
170
167
168
173
177
178
174
168
162
158
158
163
168
172
175
174
173
164
145
114
95
88
88
93
98
102
104
102
101
103
109
116
124
128
127
127
130
133
137
139
138
138
137
138
139
141
142
141
140
139
138
138
139
139
140
140
139
138
137
135
134
132
131
131
129
126
121
116
111
108
109
110
109
106
102
104
106
108
110
111
111
110
109
107
105
103
102
102
105
108
112
115
117
119
119
116
110
100
89
81
79
108
148
181
198
202
197
193
188
184
182
183
186
189
195
200
203
204
202
199
199
199
198
194
186
179
173
172
174
176
178
181
183
184
184
183
183
184
185
187
187
186
185
184
183
181
180
179
180
181
182
184
186
188
190
193
194
194
193
193
195
197
199
200
201
201
200
199
198
197
196
196
197
197
198
200
202
203
203
189
187
184
182
183
187
191
195
198
199
199
199
199
197
195
194
195
196
196
197
198
198
198
198
197
196
197
198
199
199
199
199
198
198
198
197
196
195
195
195
195
196
196
196
196
197
197
197
197
198
198
198
198
198
198
199
198
198
198
197
198
197
197
197
195
193
191
189
186
185
188
192
196
199
198
191
183
175
172
173
178
182
183
181
175
168
164
162
164
168
171
174
174
175
170
156
132
107
91
89
92
95
99
101
101
102
104
107
111
119
124
126
128
130
133
135
137
138
138
139
140
141
142
143
142
141
140
139
140
140
140
140
140
138
137
136
135
134
131
128
125
122
119
115
112
109
108
110
112
112
110
109
109
110
110
109
107
106
105
105
106
109
111
115
119
123
127
131
134
136
137
135
131
123
112
100
93
100
128
162
188
200
202
197
193
189
185
182
184
186
189
194
199
202
203
201
198
197
197
195
191
183
176
171
170
173
176
179
182
185
186
186
186
185
185
186
187
187
186
185
184
183
181
180
179
180
180
182
184
185
187
190
193
194
194
193
193
194
196
197
199
201
201
201
200
199
197
196
196
196
196
197
199
200
201
201
188
185
183
181
183
187
191
195
198
199
199
198
199
197
196
195
196
197
197
198
198
198
198
197
196
196
197
198
200
199
199
199
198
198
198
197
197
196
196
196
196
196
196
197
197
197
197
197
197
198
198
198
198
198
199
200
199
198
198
198
198
198
198
197
195
194
192
190
187
187
189
193
197
201
200
195
188
181
178
179
183
187
188
186
181
175
169
165
164
164
167
169
171
173
172
164
146
114
89
87
90
92
93
95
97
100
101
102
105
114
122
127
130
133
134
134
135
137
139
140
141
141
141
142
142
141
139
139
140
140
140
139
138
136
134
133
134
133
129
124
119
115
112
110
108
107
108
109
112
113
112
110
111
111
110
109
109
109
111
115
122
129
136
141
145
147
148
149
149
148
147
143
137
129
119
110
108
124
151
178
195
202
202
197
194
189
184
183
185
188
192
196
200
203
203
201
198
197
196
194
189
181
174
170
170
173
176
179
182
186
187
188
189
188
188
187
188
188
188
187
186
185
183
182
181
181
181
183
185
186
188
190
193
194
194
193
192
193
194
195
198
199
200
201
202
200
199
198
197
196
196
197
198
199
200
200
185
183
181
181
184
188
192
196
198
199
199
198
199
198
198
197
198
198
198
197
197
197
197
196
196
195
196
198
200
200
200
199
199
198
198
198
198
197
197
197
197
197
197
197
198
198
198
198
198
198
198
198
198
198
199
200
199
198
198
198
199
199
199
198
196
194
192
191
188
188
189
192
196
200
201
198
193
187
183
184
187
191
192
191
186
181
175
170
165
163
163
165
168
171
173
169
155
120
89
86
89
89
89
90
92
97
100
100
101
110
120
126
132
135
136
136
135
137
139
140
141
140
139
139
139
138
138
138
138
138
138
138
136
134
131
130
130
128
124
119
114
111
109
107
107
107
107
109
111
112
111
111
111
112
113
114
116
119
125
133
143
152
159
164
165
164
162
161
158
156
151
145
137
128
119
112
114
138
166
188
200
203
201
197
193
187
183
182
187
192
196
200
203
205
205
203
200
199
198
195
189
181
175
172
172
173
176
180
183
187
189
191
191
191
191
190
189
190
190
190
189
188
186
185
184
184
184
184
186
187
188
190
193
194
193
192
191
192
192
193
196
197
199
200
202
201
200
199
197
196
196
196
197
198
199
200
183
181
180
181
184
188
193
196
199
199
199
198
199
199
199
199
198
198
198
197
197
197
197
196
196
196
197
198
200
200
200
200
200
199
199
199
199
198
198
198
198
198
198
198
198
198
198
198
198
198
198
198
198
198
198
199
199
198
198
198
199
199
199
199
197
196
194
192
189
188
189
191
194
199
201
200
196
192
188
187
190
194
196
196
192
188
183
176
170
165
163
163
166
171
174
174
165
131
99
91
91
89
87
86
88
95
100
102
101
105
113
121
128
133
135
136
136
137
139
140
140
138
137
137
137
137
137
137
137
137
137
137
134
132
130
128
125
122
118
115
112
111
110
110
110
109
109
108
109
111
113
115
115
116
118
121
126
132
139
146
155
162
167
169
170
168
167
166
165
162
156
148
138
127
117
110
115
145
173
192
200
202
200
197
192
185
180
181
189
195
200
203
206
208
207
205
202
201
199
196
189
182
177
175
174
175
177
181
184
187
190
192
193
194
193
192
191
192
192
193
192
190
188
187
186
185
185
185
186
187
188
190
192
193
193
192
191
191
191
191
193
195
197
198
200
200
200
199
198
197
196
196
197
198
199
200
180
179
179
181
184
188
193
197
199
199
199
198
199
199
199
199
199
198
198
197
197
197
197
196
196
196
197
198
200
200
200
200
200
200
200
199
199
199
199
199
199
198
198
198
198
198
198
198
198
198
198
198
198
198
198
199
198
198
198
198
199
200
200
200
198
197
195
193
190
188
187
189
192
197
201
201
199
195
191
189
191
195
198
199
197
194
189
183
175
168
164
162
164
168
173
177
173
146
116
101
94
89
85
82
84
91
99
102
103
101
103
111
119
126
130
133
135
137
139
139
138
137
136
137
137
137
137
137
137
137
137
135
133
130
128
125
121
117
114
113
113
114
114
114
114
112
110
109
109
112
117
121
121
122
125
130
136
143
149
156
160
164
166
168
169
168
167
166
166
164
159
151
139
128
119
115
122
150
175
191
198
199
198
196
189
182
178
181
191
199
203
205
207
208
208
205
202
201
199
195
188
181
177
176
176
177
178
181
184
188
191
193
195
196
196
195
194
193
194
194
193
192
190
189
187
186
186
186
186
187
187
188
191
192
192
191
191
190
190
190
191
192
194
195
197
198
198
198
197
196
196
196
197
198
199
200
178
177
178
180
184
189
194
198
199
199
199
198
199
200
200
200
199
198
198
197
196
196
196
197
197
197
198
199
200
200
200
200
200
200
200
200
200
200
200
200
200
199
199
199
199
199
199
199
198
198
198
198
198
198
198
199
198
198
198
198
199
200
201
201
199
198
196
194
191
189
187
187
190
196
201
203
201
197
193
191
191
194
198
200
199
197
193
187
179
171
165
161
161
163
168
174
177
161
136
111
95
88
83
79
80
85
93
99
101
97
97
102
109
117
123
128
131
134
136
137
137
136
137
138
138
138
138
137
137
136
135
133
130
126
123
120
116
113
113
113
115
116
117
117
116
115
113
113
113
117
122
126
128
131
136
141
148
153
158
162
164
165
166
168
170
169
166
163
162
161
157
149
139
131
127
129
137
159
178
190
195
197
196
193
186
179
178
184
195
202
205
206
207
207
206
204
201
200
198
194
186
180
176
176
178
179
180
182
185
187
191
194
196
198
199
198
196
196
196
196
195
194
192
191
189
188
187
187
186
186
187
187
189
190
190
191
190
189
189
188
188
189
190
191
193
194
195
195
194
195
195
195
197
198
199
200
175
176
177
180
184
190
195
198
199
199
199
198
200
200
200
200
199
198
198
197
196
196
196
197
198
199
199
200
201
201
201
201
201
201
201
201
201
201
201
201
201
200
200
200
199
199
199
199
199
198
198
198
198
198
198
199
199
198
198
199
200
201
201
201
200
198
196
195
192
189
187
187
190
195
201
204
203
199
195
192
191
194
197
199
200
200
197
191
184
175
168
162
159
159
162
168
174
171
152
119
97
90
88
83
81
82
85
91
96
97
98
100
105
111
117
123
128
131
133
134
135
136
137
139
139
138
137
137
135
133
131
128
124
119
116
113
112
113
113
114
116
118
118
118
117
116
116
117
120
123
127
130
134
139
145
151
156
160
163
165
166
167
169
171
174
170
165
161
159
157
153
146
139
134
134
140
151
167
182
191
194
195
194
191
184
179
180
187
199
204
205
205
206
206
204
202
200
200
197
193
186
179
176
177
179
181
182
183
185
187
191
194
196
199
200
200
199
198
198
199
198
197
195
194
192
191
190
189
188
188
188
188
188
189
189
190
190
189
189
188
187
187
187
188
189
190
191
191
192
192
193
194
196
197
199
200
174
175
176
179
184
190
195
198
199
199
199
198
200
200
200
200
199
198
197
196
196
196
196
197
199
199
199
200
201
201
201
201
201
201
201
201
201
201
201
201
201
200
200
200
200
199
199
199
199
198
198
198
198
198
198
199
199
199
199
199
200
201
201
201
200
199
197
196
193
190
188
187
190
195
201
205
204
201
197
193
192
194
197
200
202
203
202
197
190
181
173
165
161
159
160
162
168
174
161
125
99
95
96
92
88
84
82
86
92
100
104
104
105
110
115
121
127
129
130
131
133
135
137
138
138
137
136
134
132
130
127
122
118
113
109
107
110
113
116
116
117
118
117
117
116
115
116
120
125
128
131
134
139
145
151
156
159
161
162
164
165
167
168
170
171
168
163
160
160
159
156
149
141
135
135
141
153
171
186
194
196
194
192
188
181
178
181
190
202
205
205
205
206
206
204
201
200
199
197
193
186
180
178
179
181
183
183
184
185
188
191
194
197
200
201
201
200
200
201
203
203
202
200
198
196
195
194
193
192
192
192
191
189
188
188
189
190
190
189
187
186
185
184
185
186
187
187
188
189
190
191
193
195
196
198
199
172
174
178
183
187
191
195
197
199
200
200
199
200
200
200
200
198
197
197
196
196
197
197
198
199
200
200
201
201
201
201
201
202
201
201
201
201
201
201
201
200
200
200
200
201
200
200
200
200
199
199
199
198
198
199
200
200
199
199
200
200
201
201
201
200
199
199
197
194
191
188
186
189
194
200
204
205
204
200
197
195
196
197
199
202
205
205
201
195
186
176
167
161
156
156
161
168
174
160
125
100
98
98
95
97
94
86
80
81
89
96
100
107
113
114
115
121
126
128
129
131
135
138
139
138
136
133
131
129
126
122
116
112
109
107
108
112
117
119
119
117
116
115
116
118
119
121
124
127
130
132
137
144
152
158
162
164
165
167
168
170
170
170
170
172
170
166
162
159
158
156
151
142
135
134
141
155
174
187
194
196
195
191
185
178
177
184
195
205
205
204
205
206
205
204
204
203
199
192
185
180
179
180
181
182
183
184
186
188
191
193
196
198
200
201
202
201
201
203
204
204
203
202
201
199
198
197
196
196
195
195
193
191
189
189
190
192
193
192
190
187
184
183
183
184
185
185
185
186
187
188
190
192
193
194
195
170
174
180
186
190
193
195
196
198
199
200
200
199
200
200
199
198
197
197
196
196
197
197
198
200
201
201
200
200
201
201
202
202
202
202
202
202
201
201
200
200
200
200
201
201
201
201
201
201
200
200
199
199
198
199
200
200
200
200
200
200
200
200
200
200
200
200
198
195
190
187
185
187
191
197
202
205
205
203
201
199
197
196
198
201
205
205
203
196
188
178
169
162
156
156
161
168
170
156
126
106
100
99
98
105
104
96
84
74
73
77
85
98
105
106
105
113
121
127
129
131
135
138
139
137
134
131
128
126
122
117
112
108
107
109
112
114
116
118
119
117
115
116
119
123
126
128
130
133
134
135
139
148
157
164
167
168
169
172
174
175
174
172
171
172
171
168
162
157
154
153
149
140
133
133
143
159
176
188
193
195
195
190
182
175
178
187
199
206
204
203
206
206
203
203
206
205
198
187
178
175
179
182
183
183
184
186
188
191
193
196
198
200
202
202
202
202
202
203
204
204
203
203
202
201
200
198
198
198
197
196
195
193
192
192
192
194
196
196
193
189
185
182
182
183
184
184
184
184
185
186
187
188
189
190
190
171
175
180
187
191
193
195
196
198
199
199
200
199
199
199
198
198
197
197
196
196
197
197
198
200
201
201
200
200
201
201
201
202
202
202
202
201
201
201
200
200
200
200
201
201
201
201
201
201
200
200
199
199
198
199
200
200
200
200
200
200
200
200
200
200
200
200
198
195
190
187
185
186
190
196
202
205
205
204
202
200
199
198
198
201
203
204
202
197
191
184
176
169
164
161
160
163
167
160
139
118
105
101
103
109
110
106
99
89
75
64
61
67
77
88
97
104
115
125
131
133
134
134
133
132
131
130
128
124
119
114
110
108
109
112
114
113
112
114
117
118
119
123
127
130
132
133
136
141
143
143
144
152
161
166
169
169
170
171
173
173
172
169
168
169
169
166
161
156
153
150
145
138
133
135
147
165
180
189
194
194
191
185
179
176
181
191
200
205
203
202
205
205
202
202
204
203
196
186
178
177
180
184
186
186
187
188
190
193
195
197
199
201
202
202
202
202
202
203
204
204
203
203
202
201
200
199
198
198
197
197
196
194
193
192
193
195
196
197
195
192
188
185
183
183
183
183
183
184
185
186
187
188
188
188
189
172
176
181
187
191
193
194
195
197
198
199
199
198
198
198
198
197
196
196
196
196
197
197
198
200
201
201
200
200
200
200
201
202
202
202
202
201
200
200
200
200
200
200
201
201
201
201
201
201
200
200
199
199
198
198
199
199
199
199
199
199
200
200
200
200
200
200
198
195
190
186
184
185
189
195
200
204
205
204
203
202
200
199
198
200
201
202
202
199
195
190
184
177
171
167
164
165
171
171
160
136
111
100
104
106
107
107
106
101
87
70
55
47
56
73
88
94
105
118
127
132
131
129
130
130
130
129
126
120
114
110
109
110
113
116
117
114
112
116
122
126
129
133
135
137
136
137
139
145
148
151
154
161
168
172
174
174
173
174
175
174
172
170
168
167
167
165
161
157
152
147
142
136
134
141
156
173
185
192
194
192
186
179
175
179
187
195
201
203
202
202
204
203
201
200
201
199
193
185
179
178
182
187
189
190
191
192
193
196
197
199
200
202
202
202
202
202
202
203
204
204
203
203
202
201
200
199
198
198
197
197
196
195
194
193
192
194
196
197
197
195
192
188
184
182
182
182
183
184
185
186
187
187
187
187
187
174
178
183
188
191
193
194
194
196
197
198
198
197
197
197
197
196
196
196
196
196
197
197
198
199
200
200
200
200
200
200
201
201
201
201
201
201
200
200
200
200
200
200
201
201
201
201
201
201
200
200
199
199
198
198
198
198
199
199
199
199
199
199
200
200
200
200
198
195
190
186
183
184
188
194
199
203
205
205
204
203
202
200
199
200
201
201
202
202
199
195
189
181
173
168
166
169
176
181
176
149
113
94
101
101
101
103
106
107
101
89
71
52
47
60
75
83
94
106
118
126
127
128
130
131
130
126
120
114
110
109
111
114
117
119
117
112
111
119
130
137
140
141
142
141
141
141
143
147
152
157
162
168
173
177
178
177
177
177
177
176
174
171
168
166
166
165
162
158
152
146
140
136
139
150
165
182
192
196
195
190
182
175
174
183
192
199
202
201
201
202
203
202
200
198
196
193
188
183
179
179
183
188
191
193
194
195
196
198
199
201
202
203
203
203
202
202
202
203
204
204
203
203
202
201
200
199
198
198
197
197
196
195
194
193
192
193
195
197
199
198
194
189
184
181
180
181
182
183
184
185
186
187
187
187
186
177
180
184
189
192
194
194
194
195
196
196
196
195
196
196
196
196
196
196
196
196
197
197
198
199
200
200
199
199
200
200
201
201
201
201
201
201
200
200
199
199
200
200
201
201
201
201
201
201
200
200
199
199
198
198
198
198
198
198
199
199
199
199
199
200
200
200
199
196
191
186
183
183
187
192
198
202
204
205
204
204
203
201
200
200
201
202
203
203
202
198
191
181
171
165
165
170
176
183
182
153
111
87
98
98
97
100
105
110
108
100
87
68
51
49
62
75
84
95
107
119
124
128
130
130
126
121
114
109
108
111
115
118
117
114
109
103
106
119
135
145
147
146
145
146
149
151
152
153
156
161
167
172
175
178
179
178
177
177
177
176
174
171
168
165
164
164
162
158
152
144
138
138
145
159
176
190
196
198
195
188
179
173
176
188
198
203
203
200
200
202
203
202
200
196
192
188
183
180
178
179
183
187
191
194
197
198
198
200
201
202
203
203
203
203
202
202
202
203
204
204
203
203
202
201
200
199
198
198
197
197
196
195
194
192
191
191
193
196
198
198
196
191
185
180
180
181
182
183
184
185
185
186
187
187
186
179
182
186
190
193
193
193
193
194
195
195
195
194
195
195
195
195
195
195
196
197
197
197
198
199
200
200
199
199
200
200
200
201
201
201
201
200
200
200
199
199
200
200
201
201
201
201
201
201
200
200
199
199
198
198
198
198
198
198
198
199
199
199
199
199
200
200
199
197
192
188
184
183
185
190
196
200
203
204
205
205
203
201
200
200
200
201
202
203
203
199
191
180
169
162
163
169
174
180
179
152
109
85
97
97
97
99
105
109
107
103
98
84
64
50
55
73
80
86
96
109
119
125
126
123
119
113
109
107
109
113
117
117
111
102
93
91
102
120
138
149
149
147
147
151
157
162
163
162
163
166
170
173
175
177
177
177
176
176
175
174
173
171
167
163
161
161
159
156
151
144
139
141
152
168
183
194
199
199
194
186
178
175
181
194
202
206
204
200
201
202
203
202
200
195
189
183
179
178
178
180
183
187
192
196
200
201
201
202
202
202
203
203
203
203
202
202
202
203
204
204
203
203
202
201
200
199
198
198
197
197
196
194
193
191
190
190
191
193
195
197
195
191
185
180
180
180
181
182
183
184
185
185
186
186
187
181
184
188
191
193
193
193
192
193
194
194
194
193
194
194
194
194
195
195
196
197
197
197
198
199
200
200
199
199
199
199
200
201
201
201
201
200
199
199
199
199
200
200
201
201
201
201
201
201
200
200
199
199
198
198
197
197
198
198
198
198
199
199
199
199
200
200
200
198
194
188
184
182
184
189
194
198
201
203
204
205
204
202
201
200
199
200
202
203
202
198
190
179
169
163
164
170
175
181
179
153
113
89
96
97
97
98
101
104
103
103
105
97
80
63
60
74
78
78
83
95
109
117
116
113
110
107
106
108
111
113
112
107
97
84
76
86
106
126
143
152
153
151
151
156
163
168
169
167
167
170
173
175
176
177
177
177
176
176
175
174
173
171
167
162
159
158
158
155
149
143
141
147
161
176
188
196
199
198
192
185
179
180
188
199
205
206
204
202
202
203
203
203
201
195
186
178
175
177
179
182
185
189
194
198
201
202
202
202
202
202
202
202
203
203
202
202
203
203
204
204
203
203
202
201
200
199
198
198
197
197
196
194
193
192
191
190
190
191
193
195
195
192
186
182
180
180
181
181
182
183
184
185
186
187
188
183
185
189
192
194
193
193
192
192
193
193
193
192
193
193
193
194
194
195
196
197
197
197
198
199
199
199
199
198
199
199
200
200
200
200
200
200
199
199
199
199
200
200
201
201
201
201
201
201
200
200
199
199
198
198
197
197
197
197
197
198
198
198
199
199
200
200
200
199
195
190
185
183
184
188
193
197
200
201
202
204
204
204
203
201
200
200
201
202
201
198
191
183
174
167
166
171
178
184
182
159
125
98
95
95
95
95
98
100
99
103
107
104
94
79
69
72
72
70
72
81
98
107
107
106
105
105
105
107
107
105
100
91
80
68
69
94
120
138
150
156
157
157
158
162
166
168
168
168
170
174
177
178
178
178
178
177
176
175
174
173
172
171
168
163
160
158
157
155
151
146
146
156
171
185
195
198
201
198
190
183
182
188
197
204
206
206
205
203
204
204
203
203
201
195
185
176
174
177
182
185
188
193
198
201
203
203
202
202
202
202
202
202
203
203
203
203
203
203
204
204
203
203
202
201
200
199
198
198
197
197
196
195
194
194
193
191
190
191
192
194
194
192
188
184
182
182
181
181
181
182
183
185
186
188
189
184
186
190
193
194
194
192
191
191
192
192
193
192
192
192
193
193
194
195
196
197
197
197
198
199
199
199
198
198
199
199
199
200
200
200
200
199
199
199
198
199
200
200
201
201
201
201
201
201
200
200
199
199
198
197
196
196
197
197
197
198
198
198
199
199
200
200
200
201
197
192
186
183
183
187
192
196
199
201
202
203
204
205
204
202
200
199
199
200
200
197
193
187
180
173
168
167
177
186
185
166
136
109
96
94
94
95
97
99
99
100
102
102
98
88
77
68
64
62
63
71
90
101
104
104
105
105
106
105
101
95
85
75
66
59
70
105
132
147
154
158
160
163
165
167
168
168
168
170
173
177
179
178
178
177
176
175
175
173
171
170
169
168
167
166
162
160
159
158
155
151
152
164
179
193
200
201
202
197
188
182
184
193
203
208
208
206
205
206
206
205
203
203
202
195
183
174
174
178
185
189
192
196
201
203
203
202
201
201
201
201
202
202
203
203
203
203
203
203
204
204
203
203
202
201
200
199
198
198
197
197
196
196
196
196
195
193
191
190
191
193
195
194
191
187
184
182
181
180
181
181
183
185
187
189
190
183
186
189
192
194
193
192
191
192
192
192
192
191
192
192
193
194
195
196
197
197
197
197
198
198
199
199
198
198
199
199
199
200
200
200
200
200
199
199
198
199
200
200
200
200
200
200
200
200
200
200
199
199
198
198
197
196
196
196
197
197
197
197
198
199
199
199
200
201
198
193
187
183
182
185
190
195
199
201
202
202
203
203
203
201
200
199
199
200
200
199
196
191
184
176
168
165
175
184
186
176
155
127
100
92
91
93
96
99
99
98
96
96
95
91
81
66
58
57
61
70
87
99
104
107
108
107
103
97
90
84
76
70
66
61
72
112
139
152
156
160
164
168
171
172
171
170
171
173
177
179
180
180
180
178
177
175
174
172
170
169
168
167
168
168
167
165
163
160
157
155
158
171
186
197
203
202
201
194
184
180
187
198
206
208
207
207
207
206
205
204
203
201
198
191
181
175
175
181
188
192
196
200
204
205
203
202
201
201
201
201
201
202
203
203
203
203
203
203
203
203
202
202
201
200
199
199
198
198
197
197
196
197
198
198
196
194
192
191
190
192
193
194
193
191
187
183
180
180
180
181
183
186
189
191
192
180
183
187
191
193
193
192
191
191
192
192
192
191
191
192
193
195
197
198
199
198
198
198
197
197
198
198
197
197
198
198
199
200
201
201
201
201
200
199
198
198
199
199
199
199
199
199
199
199
199
199
199
199
199
198
197
196
196
196
195
194
195
196
196
197
198
198
199
199
197
193
188
183
181
182
187
193
198
202
203
201
200
200
200
199
199
199
199
201
202
202
199
192
184
176
168
166
175
184
188
187
175
146
103
89
87
89
93
97
99
98
94
92
92
91
85
71
59
57
65
79
92
101
106
109
109
104
95
81
77
78
78
77
76
69
74
115
143
157
161
166
170
173
174
173
173
174
175
177
178
180
182
182
182
182
180
177
175
173
171
171
171
170
170
170
171
172
169
163
158
157
164
177
189
198
202
201
198
190
181
181
192
201
205
205
207
208
208
204
203
202
200
195
189
182
178
177
180
185
191
195
199
202
204
204
203
202
201
202
202
202
202
201
202
202
202
203
202
202
201
201
200
200
200
200
199
199
198
198
197
197
197
199
200
199
198
195
193
191
190
190
191
193
195
196
191
184
181
180
181
183
185
188
191
194
195
180
183
187
190
192
191
191
190
190
191
192
192
191
192
192
193
196
197
198
199
198
198
198
197
197
198
198
197
196
197
198
199
200
201
201
201
200
199
199
198
198
199
199
199
199
199
199
199
199
199
199
199
199
199
198
197
196
196
196
195
194
195
195
196
197
198
198
199
199
197
194
188
183
181
182
186
192
198
202
203
201
200
199
199
199
198
198
199
201
203
202
199
192
184
175
165
160
170
181
187
187
176
146
101
87
86
90
94
96
94
92
91
93
96
96
91
74
63
66
81
96
104
107
107
105
101
96
88
79
81
85
84
80
77
69
78
120
149
161
165
169
173
175
176
176
176
176
177
178
179
180
180
180
179
178
176
174
171
169
169
169
170
171
172
173
175
175
172
167
163
163
170
181
192
198
201
198
194
189
185
189
198
204
205
204
205
206
205
200
201
201
198
192
185
180
177
178
182
188
193
196
200
202
203
203
202
202
202
201
201
201
201
201
202
202
202
202
203
203
202
202
202
202
201
201
200
200
199
198
198
198
198
200
201
200
199
196
194
192
190
189
190
192
194
196
192
188
184
184
185
186
187
190
192
193
194
179
182
186
189
191
190
189
189
190
191
192
192
192
191
192
193
195
196
197
198
198
197
197
196
197
198
198
197
196
197
197
198
199
200
200
200
199
199
199
198
198
199
199
199
199
199
199
199
199
199
199
199
199
199
198
197
196
196
196
195
194
194
194
195
197
198
198
199
199
197
194
189
184
181
181
185
192
197
201
203
201
200
200
199
199
198
198
199
201
202
201
199
192
185
176
167
161
167
175
182
187
178
150
106
90
85
87
92
96
97
94
90
88
85
83
78
71
73
83
95
105
110
109
104
98
92
87
83
80
85
88
85
78
76
75
92
131
157
168
170
172
175
177
178
179
179
179
179
179
181
183
183
181
179
178
178
177
175
173
172
172
174
177
178
176
177
176
173
170
167
170
177
188
196
201
201
197
191
188
190
197
204
206
205
203
204
204
202
198
200
200
196
189
182
177
176
179
184
190
195
198
200
200
201
201
202
202
202
201
201
201
200
201
202
202
202
202
202
202
202
202
202
202
202
202
201
201
200
199
198
198
198
201
201
201
199
197
195
193
191
190
191
192
193
195
194
192
190
189
188
188
188
190
191
192
193
177
180
184
188
191
191
190
189
190
191
192
192
191
190
191
192
194
196
197
197
197
197
197
196
197
198
198
197
196
197
197
198
198
199
199
199
199
199
199
198
198
199
199
199
199
199
199
199
199
199
199
199
199
198
197
196
196
195
195
194
194
194
194
195
196
197
198
199
200
198
195
189
184
181
181
184
190
196
200
202
201
200
200
199
199
198
198
198
200
201
201
199
192
186
178
171
166
167
174
182
187
180
154
113
97
88
85
86
91
93
94
95
92
86
81
79
84
90
96
101
106
109
107
99
91
85
83
81
80
83
84
79
73
76
90
115
147
167
175
174
176
177
179
180
181
181
181
181
180
181
183
183
179
177
177
178
179
178
176
174
174
177
180
182
179
178
177
174
172
171
175
184
194
200
203
202
197
189
187
193
202
207
206
203
203
204
205
203
199
201
200
193
185
179
176
176
181
188
194
198
200
200
200
199
200
201
201
201
201
200
200
200
200
201
202
202
202
202
202
202
202
202
202
202
201
201
201
200
199
198
198
198
200
201
201
200
198
196
194
192
191
190
190
191
193
194
194
193
191
190
189
189
189
190
191
191
175
178
183
188
191
193
193
192
192
192
192
191
189
189
190
191
193
195
196
197
197
196
196
196
197
198
198
197
196
197
197
197
197
198
198
198
198
198
198
198
198
198
198
198
198
198
198
198
198
198
198
198
198
197
197
196
195
195
195
194
194
194
194
195
196
197
197
198
200
199
195
190
184
180
180
183
189
195
199
201
200
199
199
199
199
198
198
198
199
200
201
199
193
187
180
173
167
169
177
185
188
178
151
113
102
94
87
85
92
108
116
113
103
93
89
93
102
104
103
100
101
103
99
90
84
82
82
80
78
78
76
72
70
80
106
137
161
176
180
179
179
180
180
181
182
183
183
182
181
180
180
179
175
174
175
177
179
179
177
174
174
176
179
182
182
180
178
175
173
174
180
188
197
203
204
203
197
189
188
196
205
207
204
201
203
206
207
205
202
201
198
189
181
176
176
178
184
191
197
201
202
201
199
198
199
200
201
201
201
200
200
200
200
201
201
201
201
202
202
201
201
201
201
201
200
200
200
199
198
197
197
197
200
201
201
201
199
198
195
193
191
190
190
190
191
193
194
194
192
190
188
188
188
189
189
190
172
176
181
188
192
194
195
194
193
192
190
188
186
187
188
190
192
194
195
196
196
196
196
196
196
197
197
197
196
196
196
196
196
196
196
197
197
198
198
198
198
197
197
197
197
197
197
197
197
197
197
197
197
197
197
196
195
194
194
194
193
194
194
195
196
197
197
198
200
199
196
191
185
181
180
182
187
193
198
200
200
199
199
199
199
198
198
197
198
199
199
198
194
189
181
172
163
167
179
189
188
173
142
104
99
96
93
97
116
147
156
139
111
89
85
98
107
105
103
107
110
98
85
80
79
80
80
79
76
74
73
73
75
86
116
150
171
180
183
182
181
182
182
183
183
184
184
183
182
181
179
177
175
175
177
180
182
183
181
179
178
178
180
184
187
185
180
176
175
177
183
190
197
201
201
199
196
190
192
200
206
205
201
200
203
206
208
206
203
199
193
184
177
175
176
181
188
194
199
202
202
201
199
198
199
200
201
201
200
200
200
200
200
201
201
201
201
201
200
199
200
200
200
199
199
198
198
197
197
196
196
196
199
200
201
201
200
199
197
195
192
191
190
189
189
191
192
192
190
188
186
185
186
187
188
189
170
174
180
187
192
194
193
193
192
190
187
185
183
184
187
189
191
193
194
195
195
195
195
195
196
197
197
197
196
195
195
195
195
195
195
196
196
197
197
198
198
197
197
197
197
197
197
197
197
197
197
197
197
197
196
195
195
194
194
193
193
193
193
194
196
196
196
198
200
200
197
192
185
181
179
181
185
191
196
199
200
199
199
198
199
198
198
197
197
198
199
198
195
190
184
174
165
163
172
184
189
178
146
102
90
89
101
122
140
140
142
145
129
109
101
106
101
100
119
146
156
124
83
74
75
76
76
75
75
76
80
83
85
91
119
152
172
181
184
184
184
184
184
184
184
184
184
184
184
183
181
180
180
181
183
185
187
188
188
186
185
184
184
187
191
189
184
179
178
180
185
191
195
197
196
194
193
193
198
205
207
204
200
200
203
206
206
204
201
195
187
179
174
175
179
184
191
197
201
203
202
200
199
198
199
200
200
201
200
200
200
199
200
201
201
201
201
200
200
199
199
199
199
198
198
198
197
197
196
195
195
196
198
199
200
201
201
200
199
196
194
191
189
188
188
190
191
191
189
186
185
184
185
186
187
188
170
174
179
185
189
190
189
188
187
186
184
182
180
182
186
188
191
192
194
195
195
195
195
195
196
197
197
197
196
195
195
195
194
194
194
195
195
196
197
198
198
197
197
197
197
197
197
197
197
197
197
197
197
197
196
195
194
193
193
193
193
193
193
194
195
196
196
198
200
201
197
192
186
181
178
180
184
190
195
198
200
199
199
198
199
198
197
196
197
198
198
198
195
191
186
179
169
160
164
178
190
183
153
105
87
84
109
143
164
144
121
118
115
111
109
107
107
127
153
171
174
158
129
95
75
71
73
74
78
82
87
90
91
92
119
153
172
181
184
185
187
188
188
187
186
185
185
186
186
184
182
180
182
183
183
184
184
185
187
188
187
185
183
185
190
189
184
181
181
184
189
193
196
195
193
191
191
195
201
206
206
202
201
203
205
204
203
202
201
193
183
175
173
175
180
187
195
200
202
203
201
200
199
199
200
200
200
200
200
199
199
199
199
200
201
201
201
200
200
199
199
199
199
199
198
198
198
197
196
195
195
195
196
197
199
201
202
201
200
197
195
192
189
188
187
189
191
191
189
187
185
184
185
186
186
187
171
174
178
182
185
185
183
182
181
181
179
178
177
181
185
187
190
192
193
194
195
195
195
195
196
197
197
197
196
195
195
194
194
194
194
194
195
196
197
198
198
197
197
197
197
197
197
197
197
197
197
197
197
197
196
195
194
194
194
193
193
193
193
194
195
196
196
198
200
201
198
193
186
181
178
179
183
189
194
198
200
199
199
198
199
198
197
196
197
198
198
198
195
192
187
181
171
160
163
178
189
183
154
107
92
91
116
150
168
141
102
90
99
108
110
108
117
144
162
168
166
167
150
107
75
68
73
76
82
87
91
92
90
90
121
158
175
182
184
187
189
191
191
190
188
187
187
188
189
188
184
181
184
185
184
182
181
182
186
189
189
186
183
182
186
185
182
180
183
188
194
198
198
196
194
191
192
197
202
204
203
201
202
205
204
202
200
201
203
195
183
174
172
176
183
191
198
203
203
202
200
198
199
200
201
200
200
200
200
199
199
199
199
200
200
200
200
201
201
200
200
200
200
200
199
198
198
198
197
196
196
195
195
196
198
200
202
202
201
198
195
192
190
188
187
189
191
191
189
188
186
185
186
187
187
187
171
174
178
180
182
181
180
178
177
177
177
177
176
180
184
187
190
191
193
194
194
194
194
194
196
197
197
197
196
195
195
194
193
193
193
193
195
196
197
198
198
197
197
197
197
197
197
197
197
197
197
197
197
197
196
195
194
194
194
193
192
193
193
194
195
196
196
198
200
201
198
193
186
181
178
179
183
189
194
197
199
199
198
198
199
198
198
197
196
197
198
198
196
193
187
179
169
162
169
182
187
176
146
105
100
102
120
144
154
119
86
98
109
112
110
111
123
135
144
148
150
153
137
100
74
69
74
79
85
89
90
89
86
87
124
164
178
182
184
188
191
193
193
191
189
188
189
190
191
190
187
186
189
190
188
184
182
184
188
193
194
192
187
183
182
181
179
179
183
190
197
201
201
198
196
194
194
197
200
201
200
199
202
207
204
200
199
201
204
196
184
174
172
176
184
193
200
203
203
201
199
198
199
201
202
201
200
200
199
199
199
199
199
200
200
200
200
201
201
201
201
201
201
201
200
199
199
198
197
197
197
196
195
196
198
200
202
202
201
198
196
192
190
188
187
189
192
192
190
188
187
186
186
187
187
187
