P2
# Created by GIMP version 3.2.0 PNM plug-in
256 256
255
92
95
92
91
91
98
104
98
89
94
100
106
109
110
91
80
99
113
117
109
116
125
126
127
126
130
138
131
123
128
125
132
141
153
157
153
144
140
152
159
163
162
165
164
167
177
172
165
174
172
165
170
175
180
186
188
189
190
187
182
182
187
185
181
183
194
206
210
213
211
209
209
210
196
162
173
200
213
218
221
222
222
222
222
223
224
224
225
225
225
225
227
227
227
227
228
228
228
228
229
229
229
230
231
231
229
230
231
232
231
231
233
233
233
233
233
233
234
234
233
233
234
234
234
234
234
234
234
234
234
234
234
234
234
234
234
234
234
234
234
233
233
233
233
233
233
232
232
230
229
229
229
229
229
227
227
224
219
209
199
194
193
190
189
189
186
185
183
185
182
180
178
178
176
174
175
174
170
169
168
167
165
163
160
161
159
154
156
153
152
152
149
152
149
149
147
143
139
137
137
133
135
132
125
126
123
120
119
119
118
115
113
112
111
106
102
100
100
100
97
91
94
87
86
87
85
77
75
75
78
74
75
72
69
68
69
65
64
59
62
58
55
56
57
55
53
52
51
51
49
47
45
45
44
45
39
85
92
94
95
98
107
109
99
89
93
107
107
114
110
101
101
112
110
101
100
119
121
130
136
143
140
146
138
132
132
135
133
131
132
141
146
132
140
159
162
160
159
161
165
173
171
164
161
167
171
177
177
171
172
180
185
189
189
187
184
180
185
187
188
190
203
208
212
214
211
210
211
207
186
183
203
212
216
219
221
222
221
221
222
224
224
224
224
225
227
226
227
227
228
228
228
228
228
229
229
230
230
229
230
232
231
230
230
231
231
231
233
233
233
233
233
233
234
234
234
234
234
234
234
234
234
234
234
234
234
234
234
234
234
234
234
234
234
234
234
233
233
233
233
233
232
230
230
230
229
230
229
229
229
226
227
228
226
220
210
200
194
192
190
189
187
186
185
184
183
180
179
177
177
177
175
175
172
172
169
165
166
163
162
160
163
162
161
156
156
153
151
149
145
146
150
147
141
138
136
139
134
130
131
130
128
125
121
118
118
119
116
116
113
109
109
105
101
101
98
97
96
89
88
89
85
80
78
79
82
77
74
76
72
74
68
66
66
63
61
60
57
58
56
59
55
54
52
51
50
50
46
48
47
47
43
94
95
93
86
91
101
103
98
87
87
103
109
110
112
116
113
117
106
110
119
126
130
134
132
142
146
145
133
128
136
145
141
138
136
144
140
134
148
156
156
159
160
162
166
174
171
167
166
168
171
174
173
175
172
173
179
186
191
190
182
176
181
181
184
192
206
210
212
212
211
212
210
197
183
200
212
217
218
221
221
222
221
222
222
223
224
224
225
227
227
227
227
228
228
228
228
228
228
229
229
228
229
228
230
230
231
229
230
231
231
230
233
233
233
233
232
232
234
234
234
234
234
234
234
234
234
234
234
234
234
234
234
234
234
234
234
234
234
234
234
233
233
233
233
233
233
232
232
230
230
230
230
229
228
226
227
227
226
223
220
212
205
195
193
192
190
187
186
185
184
182
182
179
179
179
176
175
174
172
169
169
168
167
166
164
163
161
159
159
158
159
158
152
147
145
147
149
145
145
141
141
138
134
133
133
130
127
124
122
121
123
118
115
118
115
111
104
101
101
100
93
91
92
89
89
82
83
82
82
84
80
74
76
74
71
70
70
69
71
63
62
61
56
59
55
55
53
52
53
49
48
45
46
45
45
43
98
89
83
89
95
93
96
105
97
96
102
109
111
109
115
118
121
111
109
128
123
115
112
115
130
140
130
119
109
125
132
144
148
149
151
146
139
142
146
148
152
156
163
170
171
172
177
173
171
171
171
168
160
163
178
184
187
190
188
181
177
177
176
182
198
208
211
212
210
211
212
209
190
192
209
216
218
219
222
221
222
222
223
223
223
224
225
225
226
227
227
227
227
227
228
228
228
229
229
229
229
229
229
230
229
231
231
231
232
232
232
233
233
233
233
233
233
233
233
234
234
234
234
234
234
234
234
235
235
235
234
234
234
234
234
234
234
234
234
234
234
234
234
234
234
234
233
233
231
231
230
231
230
229
227
228
227
226
224
222
221
217
207
196
195
191
191
190
187
186
184
184
183
181
178
179
178
173
173
173
171
169
170
169
166
164
164
164
158
160
159
159
156
150
149
147
148
145
143
146
143
141
141
133
133
131
128
127
124
123
120
122
117
116
112
116
108
106
105
99
100
99
95
92
88
85
85
87
87
85
81
79
77
75
72
72
67
66
68
66
70
63
59
60
55
55
55
55
55
51
48
48
49
47
43
44
97
89
88
93
98
96
99
106
107
110
109
113
119
114
115
120
126
124
112
125
127
122
117
111
106
120
136
124
116
126
125
130
142
146
154
150
145
152
156
158
159
159
164
166
167
177
179
176
173
177
177
171
169
174
176
181
185
188
188
186
186
186
185
194
204
209
212
210
210
210
210
199
185
201
214
218
219
220
222
221
222
222
223
223
223
224
224
225
226
227
227
227
227
227
227
228
227
227
228
229
229
229
230
230
229
230
230
232
232
232
232
233
233
233
233
233
233
233
233
234
234
234
234
234
234
234
234
235
235
235
235
234
234
234
234
234
234
234
234
234
234
234
234
234
234
234
233
232
232
232
230
231
230
229
229
228
228
228
225
225
223
222
216
209
199
193
191
192
191
191
189
184
185
182
179
181
178
177
176
175
174
174
172
169
169
167
163
164
163
161
164
159
155
154
153
152
151
145
146
150
142
142
146
141
138
134
132
128
126
120
123
122
119
118
116
114
113
109
107
103
104
103
98
96
92
89
87
91
86
83
83
83
80
78
71
72
73
70
66
65
67
63
62
61
58
59
58
56
54
53
51
51
50
50
48
45
94
97
98
102
97
95
98
99
103
114
116
115
104
108
110
120
131
127
123
128
132
135
125
124
128
134
135
122
122
141
143
140
132
136
144
146
150
156
153
149
154
153
166
164
159
171
177
180
177
182
180
179
179
172
170
175
183
190
189
183
183
191
194
201
209
211
212
209
208
210
206
190
190
210
216
219
220
221
220
221
222
223
223
223
224
225
225
224
225
227
227
227
227
227
227
227
227
228
228
228
228
228
228
230
232
231
230
232
232
232
232
233
233
232
233
233
233
233
233
233
233
234
234
234
234
234
234
235
235
234
234
235
235
235
234
234
234
234
234
234
233
233
234
234
234
234
233
232
232
232
232
231
230
229
229
228
228
227
227
225
224
223
220
217
210
201
191
193
204
215
207
192
184
182
181
181
179
180
177
177
174
175
173
171
170
168
167
166
164
161
164
161
160
155
158
156
152
143
148
149
144
147
142
142
143
140
134
130
132
126
126
122
120
121
118
115
112
111
109
107
108
103
98
98
98
96
91
91
89
92
85
84
81
76
75
76
77
73
68
69
66
66
62
59
60
57
59
57
56
54
54
53
50
47
47
45
90
104
108
106
96
90
94
103
110
119
121
119
112
112
113
113
119
117
116
122
124
124
133
134
125
124
122
121
122
134
138
116
107
130
138
141
155
159
147
139
150
151
164
170
167
172
179
185
182
184
184
186
185
176
171
179
186
190
187
182
184
184
190
204
209
211
212
209
209
210
199
184
201
215
218
219
220
221
222
222
222
223
223
223
224
225
225
226
226
227
227
227
227
227
227
227
228
228
228
228
229
230
229
231
232
232
232
231
232
232
232
232
233
232
233
233
233
233
233
233
233
234
234
234
234
234
234
235
235
234
234
235
235
235
234
234
234
234
234
234
233
233
234
234
234
234
233
232
232
232
232
231
230
229
229
228
228
227
227
225
224
222
223
222
217
211
202
203
224
232
225
215
197
186
185
182
180
180
178
178
176
175
176
176
172
168
169
169
167
164
163
164
162
159
158
158
155
145
147
150
144
142
141
144
143
135
137
134
131
130
128
124
127
123
121
118
115
112
111
111
108
103
99
105
99
99
96
90
88
90
90
88
82
82
79
76
73
71
71
71
69
67
69
64
60
55
59
58
56
54
54
53
52
53
48
46
88
104
110
107
94
91
99
113
116
119
123
116
110
116
117
120
124
112
114
121
127
116
123
132
115
113
112
123
142
148
145
136
135
138
139
147
162
160
155
155
160
163
169
174
172
173
182
183
182
183
185
184
179
178
179
174
173
178
171
175
183
183
192
205
208
211
209
208
208
205
189
190
209
217
218
219
221
221
222
222
222
223
223
223
225
225
225
225
225
227
227
227
228
228
228
228
228
228
227
228
228
230
230
231
232
232
232
232
232
232
232
233
233
233
233
233
233
233
233
233
233
233
233
234
234
234
234
234
234
234
234
235
235
235
235
235
235
235
234
234
234
234
234
234
234
234
233
232
233
233
232
231
230
229
229
228
228
227
226
225
223
222
222
222
221
218
214
221
233
234
232
224
206
194
189
186
183
182
182
181
181
177
175
176
175
175
171
169
166
164
165
162
163
163
161
160
158
153
153
152
143
142
143
141
144
143
138
137
131
134
131
127
123
124
127
120
116
116
112
114
108
105
104
106
101
102
100
98
91
92
91
86
89
83
81
79
75
74
73
71
70
70
67
65
63
60
58
61
59
53
52
54
54
52
51
46
86
93
103
104
96
86
98
109
115
121
127
123
115
112
106
120
124
116
116
120
131
118
111
125
128
124
117
117
119
135
152
152
153
148
145
142
148
157
161
162
165
161
157
162
165
166
168
174
178
178
182
181
181
183
178
173
179
179
168
166
175
186
203
208
211
209
208
209
209
198
184
202
214
218
219
220
220
221
222
222
222
223
223
223
225
225
225
225
225
227
227
227
228
228
228
228
228
228
228
228
228
230
230
230
232
232
231
232
232
231
230
231
233
233
233
233
233
233
233
233
233
233
233
234
234
234
234
234
234
234
234
235
235
235
235
235
235
236
235
234
234
234
234
234
234
234
233
233
233
234
232
231
230
229
229
228
228
227
225
224
224
223
221
220
221
219
222
231
235
234
231
218
201
208
203
189
184
185
185
185
182
179
177
178
175
176
172
172
170
166
165
162
163
162
162
160
159
155
153
154
149
145
143
147
143
142
138
140
136
134
135
131
127
130
127
121
117
117
118
114
112
113
106
107
105
103
100
97
95
96
92
86
87
83
81
80
77
74
71
72
70
71
69
68
67
61
63
64
57
55
55
57
54
53
53
47
95
97
107
111
104
101
105
103
105
108
114
123
119
113
105
115
115
113
124
126
139
134
129
133
131
133
132
126
116
139
152
153
154
158
151
142
140
154
154
154
155
160
166
170
170
167
166
171
173
172
175
176
181
182
179
182
186
183
180
177
170
188
205
209
210
210
209
209
206
189
189
209
215
219
220
220
221
222
222
222
223
223
223
224
224
224
224
226
226
227
226
226
228
227
227
228
228
228
229
229
229
229
230
229
231
231
231
230
231
232
232
233
233
233
233
233
233
233
233
233
233
233
233
234
234
233
233
233
234
234
234
234
235
235
235
236
236
235
234
234
234
234
234
234
233
233
233
233
233
233
231
231
229
229
230
228
226
225
220
219
220
219
220
220
220
220
228
235
234
234
227
198
200
217
213
202
197
187
186
184
183
181
180
180
178
178
175
174
172
170
167
167
166
164
163
162
159
157
158
155
155
152
148
147
141
139
138
138
139
135
134
133
133
130
126
121
123
121
119
118
118
118
112
109
105
104
101
97
98
96
93
90
88
87
86
85
80
77
77
77
74
74
72
71
68
64
63
65
66
62
62
59
55
54
55
49
94
90
101
110
113
108
104
99
104
112
111
116
113
109
109
108
109
118
128
125
134
146
142
130
132
135
144
140
132
144
145
138
144
154
152
144
146
148
144
151
156
164
169
170
171
168
167
167
167
170
175
171
167
177
183
189
186
181
183
185
186
198
207
210
211
209
209
208
199
185
200
212
216
219
220
220
221
222
222
222
223
222
222
224
224
224
223
224
225
226
226
226
227
227
227
228
228
227
228
229
229
229
229
230
230
230
231
231
230
232
232
233
233
233
233
233
233
233
233
233
233
232
233
234
234
233
233
234
234
234
234
234
235
235
234
234
235
234
234
234
234
234
234
234
233
233
233
233
232
232
231
231
229
228
227
228
222
209
198
203
209
209
214
218
219
221
230
233
231
231
212
180
198
214
198
198
206
201
192
185
182
182
179
180
177
178
177
174
174
172
169
169
168
166
162
162
161
159
160
158
159
155
154
151
146
143
143
136
138
138
137
141
136
129
130
128
124
121
122
120
119
115
111
110
109
103
104
100
99
98
93
94
91
89
92
87
84
79
80
77
75
74
73
73
67
65
61
65
66
64
63
63
59
57
55
48
85
88
100
108
116
110
97
95
100
112
113
112
112
109
117
125
126
126
122
123
135
149
135
132
144
144
142
141
139
145
141
126
130
150
149
150
151
156
151
145
152
165
171
171
168
169
167
174
172
173
175
171
162
172
181
182
175
178
183
183
191
202
207
209
208
207
208
205
190
191
209
214
216
219
220
220
220
221
222
222
222
222
223
224
224
224
223
224
226
225
227
226
227
227
227
228
228
228
229
229
229
229
228
229
232
232
232
232
229
231
232
232
233
233
233
233
233
233
233
233
233
232
233
234
234
233
233
234
234
234
234
234
234
234
234
234
235
235
235
235
234
233
233
233
233
233
233
233
232
232
230
229
228
226
224
215
188
159
164
173
176
184
191
203
209
204
204
205
212
210
183
179
201
198
158
183
204
210
208
197
185
183
182
182
182
180
177
176
177
173
171
171
170
168
165
163
163
162
158
161
157
153
151
153
152
148
142
141
141
137
137
136
135
132
131
128
125
125
122
121
117
118
113
110
108
106
104
103
100
102
100
100
94
94
93
90
87
85
83
79
80
78
76
70
69
69
67
66
64
64
67
66
59
61
57
49
85
92
101
102
102
101
98
85
91
108
107
104
103
105
116
130
123
118
122
123
136
141
130
127
137
141
139
137
146
146
138
123
127
147
149
153
158
157
151
145
156
165
174
173
171
174
179
180
168
169
176
178
180
184
184
179
177
182
185
185
196
206
210
208
208
208
206
199
185
201
212
216
218
219
220
220
222
222
223
222
222
223
224
224
225
225
224
224
225
225
227
226
227
227
227
228
228
228
228
229
229
228
229
229
232
232
232
231
230
231
232
232
233
233
233
233
233
233
233
233
233
233
234
234
234
233
233
234
234
234
234
234
234
234
234
234
234
235
235
235
234
233
233
233
233
233
233
232
230
230
229
226
225
219
208
182
149
129
118
119
128
153
164
181
175
159
123
112
122
130
143
184
198
164
145
182
198
205
210
212
202
188
185
184
181
180
176
175
174
173
176
174
171
169
169
165
165
162
161
162
159
157
157
155
153
153
149
140
141
140
139
136
137
137
133
130
126
128
126
120
117
119
117
113
109
110
108
105
104
103
98
99
96
91
94
90
89
86
78
80
80
77
74
74
72
68
70
69
66
65
63
63
59
59
57
51
79
92
101
99
91
91
97
98
100
99
98
94
98
102
111
125
132
134
134
127
131
138
140
143
135
146
146
140
145
142
128
119
120
130
133
143
152
157
159
159
156
159
162
172
179
174
173
175
171
174
179
180
187
188
184
170
167
177
182
191
202
207
208
207
208
208
205
189
189
209
215
217
218
218
220
221
222
222
222
222
221
223
223
224
224
224
224
225
225
224
227
227
227
227
227
228
228
228
228
228
229
229
229
229
229
229
230
230
229
231
232
232
232
232
232
233
233
233
233
233
233
234
234
234
234
234
234
234
234
233
233
233
233
234
234
234
234
234
234
234
234
234
234
234
233
233
230
227
224
223
222
216
208
195
178
163
137
103
99
107
133
149
134
144
143
103
73
54
49
57
89
142
144
128
158
194
197
194
199
206
206
202
192
186
182
180
179
178
177
175
171
172
171
169
169
169
167
164
164
165
159
155
158
161
156
156
152
148
148
140
135
139
140
136
133
134
130
129
127
125
121
120
116
115
111
110
108
110
105
106
106
103
100
97
96
90
93
88
85
84
81
81
79
76
72
67
71
73
68
65
62
62
58
59
58
54
88
95
97
93
88
76
83
97
105
103
100
99
101
102
113
127
137
133
129
134
123
121
136
141
146
144
148
150
151
145
129
119
131
140
151
143
145
155
159
156
157
161
163
170
172
169
170
170
174
177
177
183
188
190
184
168
167
173
179
195
204
208
207
207
208
207
200
184
200
213
217
218
218
219
220
220
221
222
222
222
223
223
223
224
224
223
224
225
225
224
226
227
228
228
227
228
228
228
228
228
229
229
229
229
229
228
229
229
229
231
231
232
232
230
230
232
233
233
233
233
233
234
234
234
234
234
234
234
234
233
233
233
233
233
234
234
234
234
234
234
234
234
234
234
232
232
228
220
211
202
185
180
169
149
127
122
104
106
116
131
130
105
82
78
68
55
44
37
35
36
45
61
85
117
166
190
189
187
191
199
205
209
208
197
186
184
182
181
179
177
175
173
174
173
172
171
168
166
165
163
162
158
160
160
153
154
148
150
149
147
139
139
138
138
136
140
132
134
129
128
127
121
119
120
118
114
113
110
109
104
102
102
103
97
96
93
91
92
86
87
81
82
79
76
75
72
71
74
71
65
61
63
60
64
60
55
89
87
83
84
77
64
84
99
106
113
109
106
106
106
112
126
135
130
128
141
133
136
143
144
147
149
155
155
151
147
138
144
153
157
151
134
135
141
157
156
160
167
168
166
165
165
171
177
183
182
183
186
186
183
174
171
177
179
187
200
206
209
207
208
208
204
189
186
207
215
218
219
218
219
220
220
220
221
222
222
223
223
223
222
225
224
224
225
225
225
225
226
228
228
228
228
228
228
228
228
228
228
229
229
229
229
229
229
230
230
229
230
232
230
232
233
233
233
233
233
233
233
233
234
234
234
234
234
234
234
234
234
234
233
233
234
233
233
234
234
234
234
234
234
232
230
220
192
166
148
150
154
154
134
112
110
112
119
120
132
128
96
68
52
51
38
35
33
35
37
40
44
63
100
146
167
177
186
192
193
198
209
208
204
198
190
183
180
181
177
176
176
176
174
173
172
170
167
169
167
164
159
160
161
158
160
155
154
152
151
143
142
137
137
137
139
132
128
130
134
128
127
124
121
117
117
115
113
111
107
110
105
101
101
98
93
92
96
92
87
83
88
86
82
78
77
76
73
73
68
64
66
63
64
61
54
79
80
90
87
78
80
89
102
106
111
114
114
112
109
109
111
120
127
138
146
147
145
147
146
143
148
154
143
133
139
148
139
135
147
142
140
134
147
157
163
162
168
168
164
162
162
165
176
182
181
184
186
187
181
169
171
175
185
200
207
209
208
206
208
207
199
182
197
210
215
217
219
218
219
220
220
221
222
222
222
223
223
223
222
224
224
225
225
225
225
225
226
227
228
227
228
228
228
228
227
228
228
228
229
229
229
228
228
230
230
230
230
231
230
231
232
233
233
233
233
233
233
233
234
234
234
234
234
234
233
234
234
233
233
233
233
233
233
233
233
233
233
233
234
231
225
195
132
110
103
96
97
102
85
80
88
103
122
132
136
126
118
91
56
43
34
35
56
75
68
67
65
70
90
96
127
168
189
193
195
199
203
199
203
207
203
192
184
183
182
179
179
177
174
174
172
168
167
169
170
165
164
164
159
161
159
155
154
155
154
147
149
146
140
135
138
133
134
136
129
125
127
127
120
117
121
118
117
111
107
110
110
103
102
105
98
96
95
93
89
89
87
83
81
83
83
76
71
74
73
70
66
63
63
64
56
85
93
86
85
91
105
103
100
106
109
113
120
122
114
110
114
119
127
143
150
150
145
140
139
144
148
149
137
135
142
154
149
145
154
154
157
151
151
156
158
160
167
169
166
170
166
167
173
173
175
184
187
188
181
159
161
173
192
204
205
207
207
208
207
204
190
188
207
212
216
218
219
219
219
220
220
221
222
222
222
223
223
223
222
223
224
223
224
223
225
225
225
226
227
227
228
227
228
227
227
228
228
228
227
229
229
229
229
230
230
230
231
229
231
232
233
233
233
233
233
233
233
233
234
234
234
234
234
234
234
234
234
233
233
233
233
233
233
233
233
233
233
233
233
229
216
156
83
78
72
64
60
58
62
77
90
101
103
83
86
102
99
79
62
40
35
49
89
106
96
92
83
92
93
75
88
142
174
188
191
190
195
199
197
203
206
204
196
185
184
183
182
181
177
176
173
170
170
170
172
168
167
164
161
161
157
157
157
156
154
152
148
145
141
139
134
136
135
137
133
130
131
131
128
122
121
115
113
115
113
115
111
107
106
103
99
100
94
94
91
92
89
87
80
86
83
79
80
79
75
72
69
66
64
64
58
93
98
95
98
105
109
101
97
106
114
116
120
120
116
120
123
127
134
142
137
139
138
140
145
142
148
147
140
136
142
144
145
151
152
151
155
153
152
143
128
115
138
160
162
166
167
170
168
168
174
185
190
188
183
174
172
181
198
206
208
208
205
207
207
198
186
196
211
214
216
218
218
219
219
220
220
221
222
222
222
223
223
223
223
223
224
223
224
224
225
225
224
225
227
226
226
227
228
227
227
228
228
227
227
228
228
228
228
230
229
230
231
230
231
232
233
233
232
233
233
233
233
233
234
234
234
234
234
234
234
234
234
234
234
233
233
233
233
233
233
233
233
233
232
226
199
119
74
76
70
73
75
67
58
54
56
57
63
71
72
77
89
111
102
76
59
57
76
71
56
53
55
59
58
62
75
96
135
163
172
183
195
198
193
198
204
204
196
191
187
186
182
180
177
176
176
171
173
172
170
170
169
164
163
162
162
160
157
156
155
154
151
148
143
141
132
137
138
138
137
135
133
131
132
127
120
117
114
116
116
112
110
107
104
102
103
101
100
99
92
91
88
91
84
84
83
83
85
81
76
71
67
66
68
64
59
100
99
91
88
88
95
96
106
111
112
108
108
108
117
121
127
129
129
128
122
129
132
133
146
146
149
144
131
131
142
141
144
148
147
156
156
153
158
155
153
147
146
161
164
166
170
170
172
175
182
189
187
186
181
179
180
192
202
207
209
206
204
206
202
189
188
207
213
216
217
218
218
219
219
218
219
220
221
222
222
223
223
223
223
223
224
224
224
224
226
226
225
226
227
226
225
226
227
227
227
227
227
227
227
228
228
227
228
229
229
229
230
230
231
232
233
233
231
233
233
233
233
233
233
233
234
234
233
233
234
234
234
234
234
233
233
233
233
233
233
231
231
229
226
216
177
96
83
102
91
88
88
65
44
41
36
33
38
46
60
90
116
139
132
112
85
71
66
49
35
30
33
33
35
43
67
78
88
105
139
169
190
197
198
201
202
194
192
200
202
194
183
181
180
179
178
174
173
174
170
171
169
165
165
165
163
163
158
157
154
153
153
150
144
133
136
141
140
133
136
137
133
130
133
130
125
125
119
118
118
114
114
113
109
102
106
101
102
99
98
95
92
91
92
85
83
83
84
78
74
74
73
67
68
63
58
103
96
94
89
83
84
98
111
108
109
111
108
112
117
126
127
115
114
122
120
127
131
132
135
142
144
141
145
148
153
149
147
148
150
158
160
159
158
161
163
160
152
161
164
166
171
175
175
171
179
188
183
177
176
173
182
196
205
208
208
205
205
206
197
183
196
210
216
218
218
219
219
219
219
219
219
220
221
221
222
223
223
223
223
223
223
223
222
224
224
224
224
225
226
225
224
225
226
227
226
226
227
227
227
227
227
228
228
227
228
228
229
229
229
231
233
233
233
234
232
233
233
233
233
233
233
233
233
234
234
235
234
234
234
234
234
233
233
233
233
230
229
216
197
179
140
89
102
115
98
79
59
41
37
32
30
29
35
43
64
112
150
149
113
78
52
45
47
37
30
28
27
27
26
31
48
61
64
71
91
127
169
192
195
201
196
190
191
194
200
200
194
186
183
181
181
176
174
172
171
172
169
168
166
166
164
162
158
155
161
157
155
146
139
139
144
144
141
134
134
133
136
135
133
130
123
123
120
125
120
117
115
114
109
107
104
102
102
102
100
95
92
90
89
88
85
87
84
80
77
78
77
72
71
71
60
99
99
108
100
88
87
91
100
108
111
115
111
108
112
124
133
120
118
118
116
129
141
139
135
143
144
152
159
160
156
147
151
153
155
151
145
151
160
161
154
151
155
161
163
163
171
177
177
178
181
186
181
176
174
173
187
203
206
208
206
205
207
205
188
184
203
212
215
217
217
219
219
219
219
220
220
220
220
220
221
221
222
223
223
223
223
223
224
225
224
224
224
224
225
226
225
225
225
227
226
225
226
227
227
227
227
228
228
228
228
229
229
228
229
230
231
231
232
232
232
232
233
233
233
233
233
232
232
233
233
234
234
234
234
234
234
233
233
233
233
231
220
188
162
156
140
116
110
95
70
56
43
39
36
32
36
42
54
74
113
144
142
105
53
38
29
34
36
30
26
25
26
26
24
27
34
41
47
55
70
92
135
167
189
195
192
193
192
191
194
197
200
198
192
185
182
178
176
174
174
173
170
168
167
168
167
164
160
159
159
157
157
149
146
147
150
147
140
139
136
136
136
135
134
135
130
127
126
123
119
119
118
115
112
112
107
109
105
103
101
97
94
92
92
90
90
88
89
82
80
82
81
77
75
71
63
94
100
103
97
96
99
95
98
102
108
117
118
114
107
121
132
120
114
114
119
123
132
145
147
149
153
162
162
160
159
156
150
146
153
155
154
154
157
162
154
151
157
163
163
169
174
175
181
186
188
188
186
183
182
184
199
206
208
206
205
205
206
198
184
194
210
214
216
215
218
218
218
219
219
219
219
220
220
220
220
220
220
222
222
223
224
224
224
224
223
223
224
224
224
225
225
225
226
225
225
224
225
225
227
227
227
227
226
227
228
229
228
228
230
230
231
231
232
232
232
232
233
233
233
233
233
233
233
233
233
233
234
234
234
233
233
233
233
233
233
227
206
150
125
146
142
113
81
57
55
62
56
54
54
49
66
87
96
84
78
72
59
39
32
28
26
26
31
30
28
27
26
24
24
25
27
31
39
46
60
74
92
143
187
195
191
191
191
194
194
191
199
203
202
192
183
181
180
179
176
174
171
170
169
167
169
165
164
164
161
161
156
145
146
148
149
146
145
142
137
140
139
136
132
133
137
129
128
121
121
118
118
117
114
112
112
110
110
106
104
100
100
98
96
91
92
88
86
86
84
82
80
80
78
73
62
86
101
107
103
106
110
108
104
100
102
107
116
121
121
121
118
112
108
114
117
123
133
142
147
142
152
160
158
151
152
158
161
160
157
148
151
154
160
159
156
151
154
167
171
169
174
173
180
187
189
188
187
182
178
186
201
206
208
206
206
205
202
190
185
205
212
214
215
215
217
217
217
218
220
221
220
220
220
220
220
220
220
222
222
223
224
224
224
224
223
223
224
223
224
224
225
225
225
225
225
225
225
225
227
227
227
226
225
225
227
227
227
229
230
230
230
230
232
232
231
231
231
231
233
233
233
233
233
233
233
233
234
234
233
233
233
233
233
233
233
227
193
115
105
115
90
63
50
52
76
99
105
84
66
55
62
75
72
55
43
37
29
27
25
30
32
36
38
29
29
30
28
23
23
24
25
27
32
39
50
60
73
122
175
192
193
194
194
194
194
193
193
196
201
196
195
190
182
180
180
175
175
173
170
170
169
167
165
165
164
160
147
141
149
153
151
146
145
147
144
143
140
142
133
132
132
133
131
128
126
121
122
119
117
116
114
111
107
105
106
103
101
100
98
93
94
91
90
85
87
81
81
83
78
77
63
76
92
106
111
110
112
109
107
110
110
106
115
121
126
121
121
111
103
114
124
131
132
120
128
146
157
158
156
152
144
147
153
165
157
143
148
153
154
148
145
145
163
174
175
170
171
172
181
186
188
187
184
178
180
193
204
206
207
206
205
204
197
180
194
210
213
215
215
216
217
218
218
219
218
220
220
220
220
220
222
222
222
222
223
223
223
223
225
224
224
225
225
225
225
224
224
223
224
224
225
225
225
226
227
227
226
225
225
227
226
227
227
228
228
228
229
229
229
229
230
230
230
230
231
231
232
232
232
232
233
233
232
232
232
233
233
233
233
232
230
219
167
101
91
75
52
47
48
76
105
130
121
91
63
51
43
38
31
29
31
29
26
25
24
39
57
60
39
27
25
25
23
24
24
24
23
25
28
33
42
54
67
98
160
186
190
189
189
193
188
186
187
190
191
197
201
200
193
182
180
178
176
176
175
171
170
168
169
166
164
158
148
150
152
153
156
148
146
148
145
144
143
140
141
134
136
133
129
128
125
121
122
120
117
118
118
112
106
108
105
106
103
99
101
100
97
89
92
89
88
87
84
88
81
78
64
75
84
91
106
111
114
114
115
118
118
109
119
123
127
125
117
115
110
125
140
144
139
129
136
151
161
157
157
156
145
142
149
154
156
151
151
153
147
141
151
163
169
170
175
163
160
171
184
186
184
179
173
174
186
201
206
206
207
206
205
204
189
184
203
211
213
215
216
216
217
218
218
219
219
220
219
218
220
220
222
222
222
222
222
223
223
223
224
222
223
223
223
223
223
223
224
223
224
225
225
225
225
227
227
227
226
227
227
227
227
227
227
228
228
228
229
229
229
229
230
230
230
230
230
230
232
232
232
232
232
231
230
230
230
232
233
233
233
232
227
202
139
95
89
62
42
43
52
72
91
92
80
78
83
70
50
37
30
27
31
33
34
36
38
49
57
42
27
23
21
21
22
24
24
24
22
23
26
30
36
57
66
88
140
180
188
187
188
190
190
189
191
190
188
188
194
202
200
192
184
179
178
176
176
173
172
168
169
167
163
155
158
156
156
153
155
152
149
149
149
147
142
140
140
137
134
131
126
126
125
123
125
126
121
116
118
114
112
112
108
110
106
104
106
100
97
97
93
89
90
88
86
90
83
82
66
90
88
82
97
115
122
119
113
114
114
115
121
121
126
128
130
131
126
135
144
143
144
141
149
156
159
159
158
157
148
143
141
149
156
154
148
152
154
150
153
164
171
169
163
160
160
169
176
176
169
167
172
177
192
203
206
208
208
206
206
198
182
192
208
213
214
214
215
216
217
218
218
218
219
219
219
219
219
220
222
222
222
222
222
222
222
223
224
224
223
223
222
224
224
224
224
224
225
225
226
225
225
227
227
228
228
227
227
227
227
227
227
228
229
229
229
229
229
229
229
230
230
229
228
229
230
231
231
231
231
230
230
230
231
230
231
232
232
231
221
180
118
103
84
53
42
41
47
53
61
60
46
41
45
46
49
46
36
37
42
53
57
59
49
47
45
32
25
21
23
25
25
26
24
22
22
25
28
27
34
51
54
72
126
180
190
189
187
189
192
192
194
191
188
188
193
194
191
194
195
184
179
177
177
175
171
169
171
167
161
157
161
159
159
156
156
152
153
154
148
145
147
143
140
140
138
133
133
128
127
126
126
127
124
122
117
118
117
113
109
111
105
103
106
102
97
98
97
90
91
89
90
90
83
80
70
95
98
85
86
107
114
111
114
118
118
121
126
129
125
127
135
126
119
131
135
138
144
147
148
153
158
152
142
144
150
144
139
141
139
140
144
152
149
152
142
150
167
170
166
163
156
161
171
168
161
167
178
187
202
205
206
207
206
206
203
192
184
201
211
213
214
213
213
215
217
218
218
218
218
219
219
218
218
220
220
221
222
222
222
222
223
224
224
224
223
222
223
224
224
224
224
224
225
224
224
225
225
227
227
228
228
227
227
227
227
227
228
228
228
229
228
228
229
229
229
230
229
228
229
230
230
229
229
229
230
229
228
229
229
229
229
231
230
228
212
145
110
90
66
48
42
41
45
47
45
38
31
30
29
33
38
36
38
32
31
38
49
51
38
34
33
31
25
27
51
65
47
34
26
24
23
23
24
25
28
35
42
59
108
166
184
188
190
196
196
195
191
189
190
193
193
188
183
187
194
196
189
179
177
175
171
172
171
166
160
161
164
162
161
160
157
154
156
157
154
148
147
148
145
142
139
137
137
133
131
126
125
126
123
128
117
117
118
117
115
110
108
105
105
103
100
100
98
93
93
90
92
93
86
82
69
93
93
92
89
90
95
108
119
119
122
124
121
121
127
126
128
123
120
121
116
124
139
143
147
156
158
154
139
133
142
152
150
147
141
138
144
155
157
156
154
168
171
170
171
164
149
153
165
157
152
164
173
190
202
206
206
207
207
206
199
185
191
208
213
215
214
215
214
215
215
218
218
218
218
219
219
219
218
219
220
221
221
221
221
221
223
223
223
223
223
223
223
224
224
223
222
224
224
224
224
224
226
226
226
227
227
227
227
228
228
228
228
228
228
228
227
228
228
227
229
229
229
229
230
229
229
229
229
229
229
229
229
229
229
228
229
229
227
224
189
109
76
69
57
45
38
36
42
48
42
34
27
25
25
27
30
27
28
26
25
26
33
34
29
26
29
40
54
49
55
51
40
31
30
28
25
22
23
26
28
35
36
42
80
140
175
188
189
194
193
189
189
189
191
192
187
182
180
180
187
193
194
193
184
176
175
171
171
165
162
167
168
165
164
163
158
158
155
157
153
152
150
149
146
147
143
140
136
132
130
127
127
121
123
122
118
118
119
118
113
112
112
108
105
103
100
104
99
94
92
95
93
95
89
84
73
98
99
91
83
89
100
109
108
103
119
124
118
116
124
127
123
121
123
118
109
116
134
146
154
157
157
154
149
148
144
153
156
154
149
146
149
145
145
155
169
176
173
170
170
163
157
154
161
148
146
163
178
194
205
206
206
205
205
203
189
184
201
210
214
215
215
216
215
215
216
218
218
218
218
219
219
220
219
219
219
219
219
219
219
219
222
222
223
223
223
223
223
223
224
224
222
224
224
224
224
225
226
225
227
227
227
227
227
228
228
228
228
228
228
228
227
228
228
227
229
229
229
228
228
228
229
229
229
229
229
229
229
229
229
229
229
227
226
218
166
86
63
56
52
43
34
30
32
36
36
31
26
25
24
22
23
26
27
25
22
22
24
25
27
25
36
60
58
42
37
30
28
28
28
27
26
28
29
27
25
29
29
32
56
136
182
189
190
191
189
188
189
186
186
183
183
186
185
181
178
184
192
190
189
187
180
174
168
166
169
169
166
163
165
164
161
160
156
157
158
154
148
149
150
148
148
145
137
133
134
132
124
124
126
126
122
122
120
118
114
112
115
111
109
102
104
105
100
97
97
95
95
92
92
90
77
93
91
90
88
95
109
115
110
102
112
120
121
125
126
129
121
101
109
120
122
127
133
145
154
154
150
152
155
155
149
151
152
152
144
154
154
145
139
155
170
172
169
169
172
163
160
157
155
144
150
173
188
200
205
205
205
205
206
200
184
190
206
212
213
215
215
217
216
216
217
218
218
218
219
219
219
219
219
219
219
219
220
219
218
218
219
219
221
222
223
223
223
222
223
224
224
224
224
224
226
227
227
227
227
227
227
228
228
228
228
228
228
228
228
228
227
227
228
228
229
229
228
228
229
229
229
229
228
228
228
228
228
228
228
228
228
228
225
202
129
77
61
50
44
34
30
28
31
30
29
27
25
23
22
23
25
28
25
22
22
23
23
22
23
26
29
35
36
33
29
24
27
27
27
27
29
31
29
27
26
27
26
28
45
118
172
184
188
186
186
185
185
182
184
186
185
187
187
182
179
180
181
181
187
189
188
177
168
169
171
171
169
168
168
165
162
160
161
161
157
155
153
153
152
151
148
142
141
139
134
131
136
132
127
125
121
124
121
122
118
115
116
111
109
106
108
103
103
103
99
99
97
95
92
92
76
88
93
99
94
90
102
113
112
107
108
109
116
123
122
121
123
111
110
115
121
123
126
135
135
136
147
151
161
166
166
168
162
155
151
157
156
152
154
163
168
171
167
162
166
165
163
164
161
155
164
178
193
200
205
205
204
205
203
191
182
198
208
212
213
215
215
216
216
215
218
218
218
218
218
218
218
219
219
219
219
219
221
218
218
218
219
219
220
221
223
223
223
222
223
224
224
225
224
224
225
227
227
227
227
227
226
227
228
228
228
228
228
228
228
227
227
227
228
228
229
229
228
228
228
228
229
229
228
228
228
228
228
228
228
229
228
227
218
168
92
71
55
40
35
29
26
27
28
26
26
25
25
24
22
23
24
25
23
22
22
26
29
25
21
23
22
24
26
29
26
24
22
20
22
23
24
27
25
27
26
27
27
28
37
88
140
168
179
184
185
189
191
185
183
186
187
185
184
178
174
171
172
174
174
188
192
184
176
173
173
170
171
170
169
168
168
165
164
159
158
158
158
153
153
152
150
143
143
141
140
133
136
131
126
122
122
123
119
123
121
118
117
113
111
111
107
103
102
99
101
97
100
96
95
96
77
88
100
105
96
99
109
109
98
92
99
102
115
121
115
115
128
119
100
99
100
119
126
124
119
124
138
149
161
171
171
174
168
161
154
150
146
154
163
167
174
171
171
169
166
168
162
154
157
160
165
184
200
203
204
205
203
204
199
182
189
204
209
211
212
214
214
214
216
215
218
217
217
218
218
218
218
218
219
219
219
220
219
219
219
219
219
219
219
221
221
223
223
223
223
223
224
224
226
226
225
225
225
225
225
225
225
227
227
228
228
228
228
228
228
228
228
228
227
228
228
228
228
228
227
227
228
228
228
228
228
229
229
227
227
229
228
224
198
127
75
60
48
33
29
27
29
26
26
25
25
24
23
23
22
22
22
25
26
25
23
28
28
24
21
21
21
22
23
22
20
22
21
20
21
21
20
21
21
25
26
29
28
30
34
62
103
149
183
187
183
184
184
186
185
184
184
182
181
174
171
170
163
169
175
179
184
188
188
181
175
170
175
174
168
169
169
166
164
159
160
162
161
158
157
151
149
145
145
144
141
136
139
136
135
130
126
124
122
122
122
116
117
117
112
114
111
109
107
104
105
102
97
99
97
97
78
82
102
105
99
104
113
115
107
99
98
106
113
112
109
122
128
115
102
104
102
116
126
135
133
130
138
158
166
171
173
174
172
165
155
140
139
149
154
159
169
169
169
164
165
169
165
153
150
155
168
192
200
204
205
204
205
202
188
181
200
208
210
211
212
214
214
215
215
215
216
217
217
219
218
218
218
218
218
218
218
218
219
219
219
219
218
217
218
220
219
221
223
222
222
223
223
223
225
225
225
224
226
225
225
226
226
227
227
228
227
227
227
228
228
228
228
228
227
227
227
227
228
228
227
227
228
228
228
228
228
228
228
229
228
228
227
221
179
93
61
47
43
33
29
28
28
26
26
24
26
23
22
21
21
22
25
33
31
27
25
24
22
20
19
19
20
22
22
19
20
22
19
20
19
19
19
21
21
22
24
26
28
27
26
34
60
141
184
179
179
174
171
183
189
186
187
185
177
170
169
160
161
169
170
173
174
176
182
179
183
181
175
173
171
169
169
169
165
163
159
163
164
159
157
155
154
154
149
148
143
140
138
136
134
133
131
123
121
120
117
117
120
121
115
118
116
114
107
108
107
106
98
97
95
96
80
95
103
105
96
99
107
113
108
110
105
101
108
107
112
122
126
116
114
109
110
120
134
143
135
133
140
151
162
170
172
172
170
167
156
146
153
156
153
152
164
164
162
159
164
164
167
156
147
161
184
196
200
203
204
202
203
199
184
188
205
211
211
212
213
214
214
215
215
215
214
216
218
217
216
218
217
218
218
218
218
219
220
220
219
219
219
217
217
219
219
221
223
223
223
223
224
224
224
224
225
224
226
225
225
227
227
226
226
227
227
227
227
227
228
228
228
228
228
228
227
226
227
227
227
227
227
227
227
227
228
227
226
227
228
227
226
218
164
74
54
42
36
29
30
32
27
23
24
25
25
22
21
22
22
23
29
34
28
25
22
23
21
19
18
18
20
21
22
20
18
19
19
19
19
19
19
18
19
24
25
24
27
30
29
31
57
135
175
177
180
173
174
184
189
188
182
178
176
172
165
157
163
158
145
142
152
167
177
181
185
184
180
174
171
171
172
170
167
164
164
165
164
161
157
156
156
153
150
148
146
145
145
138
139
137
130
127
127
119
119
119
118
121
117
117
113
113
112
107
105
101
101
96
99
99
82
93
94
92
99
102
98
108
110
111
106
104
111
117
117
119
127
123
119
112
111
121
133
135
135
132
140
144
159
169
172
170
167
160
149
149
152
159
158
161
157
151
149
151
164
167
162
158
163
177
191
200
203
201
202
202
202
190
181
197
206
210
212
213
213
214
214
214
215
216
215
215
217
217
217
217
217
218
219
218
219
219
219
218
219
219
220
218
216
218
219
221
222
223
223
223
224
224
225
225
225
224
225
225
225
227
227
226
227
228
227
227
227
227
227
228
228
228
228
227
227
227
227
227
227
227
225
226
227
228
228
228
228
228
228
227
224
213
144
63
47
38
30
30
30
29
28
26
26
25
24
21
21
22
23
24
25
25
23
23
21
21
20
19
18
19
19
21
21
20
19
19
19
19
19
19
19
19
19
21
22
24
25
26
28
28
54
129
162
182
183
177
174
178
189
188
179
176
171
164
158
164
167
154
143
143
154
165
170
175
176
180
181
178
178
175
172
169
169
167
165
164
162
159
157
159
156
154
150
152
152
146
147
143
144
140
135
133
127
127
122
121
116
121
122
117
117
114
110
112
111
107
103
104
103
101
82
79
87
96
102
107
101
99
103
100
98
98
99
108
112
115
120
119
120
125
124
127
129
130
137
140
138
133
156
167
172
172
166
160
145
145
157
161
164
165
162
158
146
125
139
157
158
161
168
183
193
199
202
202
202
202
196
182
187
204
208
210
211
213
213
214
216
215
215
217
217
217
217
218
218
218
219
219
218
218
219
219
219
217
219
218
219
219
217
218
220
221
221
223
223
224
224
224
224
224
224
224
224
224
226
227
227
226
227
228
228
227
227
227
227
227
227
228
227
227
227
227
227
227
227
227
227
227
227
227
228
228
228
227
227
226
223
200
113
54
42
35
28
27
27
26
26
27
27
26
24
23
22
21
22
23
24
22
22
22
20
20
21
19
17
18
19
18
19
19
19
19
19
19
20
19
18
18
18
19
22
24
24
26
26
28
52
110
156
177
185
180
176
181
188
188
188
184
175
166
159
165
173
172
167
160
161
167
173
175
170
170
171
176
182
180
175
170
169
170
166
166
162
160
159
162
159
155
151
156
148
148
147
147
140
140
136
138
132
130
126
124
118
120
120
121
122
116
114
115
111
108
104
108
106
101
83
69
79
106
112
111
106
99
91
95
101
103
104
110
113
111
122
127
131
136
130
121
130
139
152
157
155
162
167
169
172
169
166
164
157
155
160
165
164
164
167
166
145
139
156
158
158
155
166
188
198
201
202
201
202
201
188
178
196
207
209
211
212
212
213
214
216
216
215
214
215
216
216
217
217
218
218
218
219
219
218
218
219
217
216
217
218
218
219
218
220
221
221
222
223
223
223
224
224
224
224
224
224
224
225
225
226
226
227
227
228
227
227
227
227
227
227
227
227
227
227
227
227
228
227
226
227
227
227
227
228
227
228
227
227
226
220
173
79
48
37
30
27
27
26
29
28
28
26
25
25
26
25
24
22
22
22
21
21
20
17
19
20
19
18
18
18
18
19
19
19
20
20
20
18
17
15
16
17
17
19
22
24
26
27
29
41
96
159
186
187
182
183
190
193
189
187
182
181
178
175
170
175
176
166
162
170
175
175
171
173
172
166
172
181
184
183
176
172
171
169
165
165
164
161
161
159
157
155
153
153
152
149
145
141
145
141
138
137
137
129
131
125
121
122
120
119
117
119
118
111
111
111
110
109
110
86
84
91
105
109
108
103
101
93
97
108
115
117
121
112
109
118
123
128
131
121
116
127
148
158
160
164
169
171
173
170
172
172
168
163
162
162
161
158
157
159
155
144
158
167
158
157
160
178
196
198
200
201
203
203
198
182
186
204
209
210
211
212
213
213
213
215
216
214
213
214
217
217
217
217
217
218
218
218
219
218
217
217
218
218
218
217
217
219
219
220
221
222
222
223
223
223
224
224
224
224
224
224
223
224
225
225
226
226
227
227
227
227
227
227
227
227
227
227
227
227
227
227
225
226
226
227
227
227
227
227
227
226
227
227
225
215
159
71
47
37
31
28
27
25
29
30
32
30
29
28
31
28
26
24
21
21
22
19
18
17
20
20
21
19
19
17
17
19
19
19
18
19
18
17
17
17
17
16
17
19
22
25
27
28
28
30
84
162
185
189
184
181
182
184
181
183
185
183
183
178
174
172
167
168
172
179
172
170
170
166
166
166
168
169
174
176
182
181
172
169
168
166
167
162
160
160
160
159
155
154
153
151
144
140
145
142
142
138
135
133
129
128
128
124
116
117
118
117
116
117
113
112
112
106
111
89
93
85
77
82
98
110
118
110
106
108
116
125
121
115
106
117
123
122
124
127
127
131
147
155
160
165
168
169
171
172
172
170
169
165
157
159
151
146
154
150
144
154
168
168
162
162
168
187
197
198
200
200
202
201
191
181
194
206
209
211
212
212
213
213
213
214
215
215
216
216
216
216
216
217
218
217
218
218
219
218
219
218
218
219
219
218
218
219
219
220
221
221
222
222
222
223
223
223
223
224
224
223
223
223
225
225
225
225
226
226
226
225
225
226
227
227
227
226
225
225
225
225
225
225
226
227
227
227
227
226
226
225
226
225
223
212
158
70
43
34
29
28
26
27
29
36
41
41
40
40
37
36
29
24
24
22
21
20
19
18
20
20
19
19
19
18
18
19
18
17
18
19
17
17
17
18
18
15
17
19
21
22
25
26
24
30
77
161
184
189
183
173
172
177
175
175
180
184
182
175
172
174
172
170
171
170
163
169
169
162
162
168
170
163
153
166
180
185
177
172
170
169
167
163
164
164
163
161
158
155
154
153
150
145
147
145
140
138
134
131
131
132
132
129
124
119
117
115
117
117
115
114
116
108
108
88
95
80
61
74
94
113
116
109
112
116
123
126
123
113
112
118
123
124
130
135
134
130
142
153
156
163
167
169
173
172
172
173
170
162
147
155
152
151
146
142
151
156
158
158
161
162
171
192
198
200
201
202
202
197
182
184
200
208
209
211
213
212
213
213
214
214
215
215
214
215
215
215
216
216
216
216
218
218
217
218
219
219
219
219
219
219
219
218
220
219
221
221
222
222
222
223
223
223
223
224
225
223
224
225
225
225
225
225
225
225
225
225
225
225
226
226
226
225
225
225
225
225
225
224
226
226
226
225
225
225
225
225
225
223
220
209
139
57
42
34
30
29
29
30
37
45
50
51
48
45
46
42
33
28
24
21
21
21
21
22
19
19
19
20
20
19
19
19
18
18
19
19
19
19
18
17
18
17
17
18
17
19
22
24
22
29
68
149
180
188
184
173
170
177
170
170
175
180
179
177
171
168
164
168
174
173
169
170
163
164
165
163
163
159
162
164
166
164
162
168
169
169
170
168
167
165
163
163
163
159
156
157
157
150
147
148
141
142
143
140
137
136
130
127
126
124
122
116
113
115
114
113
113
113
112
93
91
88
77
85
98
103
104
104
107
117
119
117
118
116
119
115
108
125
130
131
129
133
142
154
161
166
168
169
171
172
174
176
170
163
156
157
153
147
148
144
150
150
153
162
170
176
186
195
197
200
200
201
199
190
176
191
204
207
210
212
212
213
214
213
213
213
214
215
213
213
214
215
217
215
215
216
217
217
217
218
219
219
219
219
218
217
217
218
220
219
221
220
221
222
222
222
222
222
222
223
224
225
224
224
224
224
223
224
224
224
225
225
225
226
227
226
226
225
225
225
225
225
225
225
225
226
225
224
224
224
224
224
223
223
222
203
117
48
38
33
31
30
29
32
43
52
55
57
51
49
47
46
40
31
26
23
21
20
21
21
19
20
19
20
21
21
20
19
18
19
19
18
19
19
21
20
19
18
18
18
18
22
23
23
23
26
54
139
180
183
184
180
177
175
167
170
178
180
177
172
164
167
158
162
172
176
169
163
166
166
166
161
150
158
161
154
134
127
137
162
172
173
171
170
168
165
163
164
162
160
160
157
157
151
151
150
147
146
142
140
137
134
136
130
128
126
124
118
117
114
113
114
114
115
111
93
87
91
86
92
95
92
95
97
107
116
118
115
114
114
117
122
124
136
137
128
123
134
146
157
165
170
169
169
170
172
177
176
171
163
158
154
152
152
144
137
152
157
163
167
172
183
194
197
200
198
200
200
197
183
183
199
205
207
211
212
211
212
213
212
212
212
213
213
213
214
216
216
216
217
217
217
217
218
219
219
219
219
219
219
218
217
217
218
220
220
220
220
221
222
222
222
222
222
222
223
223
223
224
224
223
224
224
223
224
224
225
226
225
226
227
225
225
225
225
225
225
223
224
225
225
224
225
224
224
225
224
224
223
224
221
198
112
46
36
33
29
27
30
42
55
61
59
58
50
49
47
47
44
34
28
24
24
24
26
24
24
25
23
21
22
22
22
21
21
21
20
18
18
19
21
21
19
18
19
20
20
22
22
23
25
28
49
134
170
179
185
175
172
176
173
178
180
177
178
178
176
177
167
168
172
173
166
163
159
157
163
162
156
156
156
149
132
126
136
147
160
170
170
172
170
166
164
164
160
161
162
157
157
155
154
152
150
148
142
141
139
139
139
132
127
129
125
124
121
120
114
116
117
115
113
94
94
92
92
94
95
98
102
104
112
110
110
121
126
129
134
132
132
139
135
113
113
127
132
142
159
169
170
169
169
169
171
170
162
162
158
152
157
153
150
154
164
164
165
157
170
188
195
199
200
199
200
199
187
179
193
204
208
208
211
212
212
212
212
213
212
212
212
212
213
214
215
215
215
216
217
217
218
217
218
218
219
219
218
219
219
219
219
220
220
219
220
220
219
220
221
222
222
222
222
223
223
223
223
223
223
224
224
224
224
224
224
225
225
225
225
225
225
224
224
224
224
224
224
225
223
223
224
223
225
224
225
224
224
219
199
172
97
43
35
32
31
31
43
56
66
64
57
54
51
50
50
47
45
40
33
29
30
30
30
29
28
30
29
29
28
23
22
20
20
21
20
19
18
20
20
20
21
20
19
20
22
21
22
23
24
31
79
154
179
184
178
175
178
183
179
180
178
174
180
186
182
181
176
169
163
164
164
171
168
167
165
161
157
155
159
151
139
138
137
128
135
157
166
167
169
170
167
164
163
164
162
160
158
156
156
152
152
146
146
144
142
136
135
134
127
136
132
123
121
121
118
117
116
114
112
94
112
97
92
91
95
100
105
111
107
98
105
121
131
132
135
130
132
140
129
115
117
128
134
138
148
160
165
164
156
154
165
166
165
158
153
147
141
142
155
167
173
169
165
161
181
192
198
199
197
200
201
195
179
181
198
205
208
208
210
211
212
212
212
213
213
213
213
213
214
215
215
215
215
215
215
216
218
217
218
218
217
217
217
218
219
219
219
220
220
219
219
220
221
220
220
220
222
222
222
223
223
223
223
223
224
224
224
224
224
224
224
224
225
224
225
225
225
224
224
224
224
224
224
224
223
223
224
223
224
225
224
224
217
179
139
118
71
40
31
31
32
47
66
76
71
65
57
56
54
50
50
48
47
45
42
39
40
38
36
35
34
35
34
36
34
30
27
26
26
27
24
22
20
23
21
19
19
19
19
20
22
21
22
23
27
50
102
152
175
182
180
180
184
183
178
177
173
171
178
179
180
183
180
168
161
164
169
175
177
173
165
166
168
161
152
153
145
144
152
153
157
156
155
157
164
171
172
168
165
163
161
159
157
157
156
156
151
150
151
147
143
140
141
139
130
134
134
126
124
125
119
119
114
113
115
98
116
104
103
101
95
95
94
107
107
111
115
123
127
131
129
122
129
137
128
126
121
120
123
118
122
138
146
150
151
152
152
159
164
155
149
152
150
149
159
169
169
166
170
175
187
193
196
198
198
199
199
187
176
193
203
206
208
210
210
210
212
212
212
213
213
213
213
213
213
215
216
216
215
215
215
215
216
217
217
218
217
218
218
218
219
219
218
219
219
219
219
221
221
220
221
222
222
222
222
223
223
223
223
223
223
223
224
224
224
224
224
224
225
224
223
223
224
224
223
224
224
225
225
224
223
224
223
222
222
224
225
221
187
124
109
88
55
33
31
33
49
72
81
78
66
56
49
51
54
53
53
48
47
45
44
41
40
40
41
41
41
40
40
40
38
37
36
35
34
35
34
33
36
37
28
21
20
18
18
20
19
21
22
24
32
76
126
156
174
182
175
174
177
180
172
166
170
167
169
168
176
186
182
173
172
171
165
171
167
159
160
165
169
161
149
152
158
156
154
155
151
152
153
151
162
170
173
171
164
164
162
161
162
159
157
155
151
151
150
149
146
142
140
135
136
134
133
125
128
124
125
125
116
119
114
95
104
97
104
102
102
94
88
99
102
104
109
113
112
113
117
117
130
131
125
126
119
110
111
115
117
121
133
148
159
155
149
151
151
150
154
159
164
159
163
170
165
162
162
175
191
194
197
196
196
196
194
181
181
197
203
208
209
209
208
209
211
211
211
212
212
212
212
213
213
214
214
215
215
215
215
214
216
218
217
218
217
217
217
218
220
220
219
219
219
219
219
221
221
220
221
222
222
222
222
222
223
223
222
222
223
223
224
224
224
224
224
224
223
223
222
223
224
224
224
224
224
225
225
224
224
224
224
224
223
222
223
212
147
102
91
79
52
34
33
41
65
89
88
67
46
37
35
39
47
54
57
52
49
47
42
43
42
43
43
42
45
43
44
43
43
43
40
41
42
46
48
55
56
52
37
26
21
18
17
19
19
21
21
24
34
80
154
179
183
181
175
172
181
181
168
174
179
177
171
169
180
181
176
174
171
169
163
158
156
156
160
166
168
159
151
150
158
161
158
159
155
156
154
145
146
149
162
170
172
168
164
164
162
160
159
157
156
153
150
151
149
147
139
138
142
138
138
131
129
126
126
127
125
119
117
98
95
96
102
110
108
104
99
101
105
109
110
112
104
100
110
119
130
130
126
128
122
126
120
114
126
132
145
154
159
160
158
145
140
144
159
169
170
167
166
166
154
155
164
183
191
196
196
194
196
195
188
177
189
201
205
208
211
209
208
209
210
210
210
211
212
213
213
215
214
214
213
214
215
215
215
216
217
216
217
217
216
218
218
218
218
219
219
219
219
219
220
220
220
220
220
221
220
220
221
222
223
223
223
223
223
223
223
223
223
223
224
224
224
223
223
222
223
223
224
224
223
224
224
223
223
222
224
224
224
223
220
196
117
88
83
74
53
37
36
55
86
99
85
62
43
33
30
32
40
50
56
58
55
50
51
46
44
45
46
45
47
48
48
43
44
42
43
44
44
52
54
66
75
67
44
32
23
19
17
19
20
21
21
26
33
98
167
183
177
175
175
173
180
180
180
177
170
173
168
173
175
169
170
175
172
171
169
163
159
161
171
170
168
158
147
155
162
159
158
155
147
149
139
130
142
140
146
164
172
171
167
165
164
161
161
160
160
153
155
153
151
147
142
143
142
140
137
135
134
135
131
124
125
124
124
103
98
96
107
116
114
111
107
106
103
113
111
119
110
100
110
121
124
127
130
125
119
127
132
142
145
145
152
156
155
158
153
151
150
145
149
166
171
166
166
166
154
156
173
188
193
194
195
193
194
192
179
181
196
203
207
209
211
210
210
211
210
210
210
212
213
212
212
213
214
214
214
215
214
215
215
215
217
216
216
217
215
216
217
217
218
218
218
219
219
218
220
220
220
220
220
219
220
220
221
222
222
222
222
223
223
223
223
223
223
223
224
224
223
224
223
223
223
223
224
225
224
224
224
223
223
222
223
224
223
222
218
181
96
90
89
71
47
35
40
75
106
108
95
82
64
50
36
32
30
34
41
46
51
53
52
48
48
47
46
47
46
45
46
44
43
43
44
45
45
53
56
68
75
71
58
44
29
22
20
19
20
22
21
25
43
137
182
177
174
172
172
179
187
186
178
167
156
163
169
173
175
174
174
178
169
170
167
168
165
170
175
171
165
157
151
156
161
156
154
142
134
125
118
134
147
144
132
143
148
162
169
172
168
161
162
163
160
159
157
154
154
151
146
148
143
140
139
135
133
136
133
128
127
123
124
102
88
98
108
114
116
118
115
112
113
116
111
118
119
111
116
131
129
130
131
126
120
118
124
139
146
151
152
141
145
149
153
157
159
153
157
167
169
167
170
165
154
158
182
191
196
195
192
194
193
186
174
192
203
205
208
209
210
209
209
211
209
209
211
212
212
212
213
213
211
213
214
214
214
214
216
214
215
216
217
216
216
216
217
217
218
218
218
219
219
219
219
219
219
220
219
220
220
220
221
222
222
222
221
222
223
223
223
223
223
223
224
224
223
223
223
223
223
223
223
224
224
224
224
223
223
223
224
224
223
223
217
173
92
93
89
62
45
40
60
92
104
102
95
86
78
69
60
48
37
31
31
36
41
49
52
53
53
48
49
45
50
50
47
47
45
48
43
47
51
54
59
68
78
79
68
49
33
27
20
19
21
23
23
29
81
157
177
176
174
181
184
183
188
175
170
175
176
175
179
180
177
172
172
167
166
171
170
168
165
162
160
160
165
155
145
150
158
157
147
140
134
132
139
137
137
143
142
134
135
142
166
174
169
163
162
162
160
159
157
154
153
153
150
151
147
146
141
141
137
135
131
130
132
124
125
104
96
102
102
106
113
117
112
106
106
107
101
106
115
112
124
132
129
124
124
117
121
125
131
135
139
148
148
138
131
133
148
157
162
160
161
166
169
169
166
161
151
160
187
191
194
192
192
193
189
181
180
197
205
207
207
209
209
208
209
210
210
211
211
211
211
212
213
213
213
214
214
213
214
214
215
214
214
216
216
215
216
215
215
217
218
217
218
219
219
219
219
218
219
220
220
220
220
220
221
222
221
221
221
222
222
222
223
222
222
222
223
223
223
223
222
223
223
223
223
224
224
224
224
223
223
223
223
224
223
223
216
162
99
79
67
50
47
49
75
102
99
94
87
80
76
67
65
65
58
41
30
31
34
42
54
58
57
52
50
46
48
48
47
44
46
48
46
48
52
56
61
65
78
80
69
49
33
26
22
20
21
23
24
32
84
156
179
186
183
182
170
176
179
170
177
181
179
179
178
175
169
166
163
155
158
165
170
173
170
163
161
163
163
161
159
162
161
150
140
132
137
136
136
130
142
139
121
123
128
134
164
172
170
168
166
159
160
160
158
156
154
152
151
151
144
145
145
141
146
133
137
139
133
126
133
109
102
99
100
103
114
117
112
104
101
100
96
103
112
116
124
128
123
118
118
121
131
137
142
137
136
142
141
147
138
136
145
158
158
160
154
160
166
164
161
162
161
178
190
194
195
194
195
194
185
175
189
202
204
206
209
209
209
208
210
210
211
212
210
210
210
212
213
213
214
214
214
214
214
214
214
215
213
214
216
215
217
216
215
217
217
217
219
219
219
219
218
217
219
219
219
220
220
221
222
222
221
221
222
222
221
222
222
222
223
223
222
223
223
223
223
224
224
224
224
224
224
224
224
222
223
224
224
224
224
223
211
148
86
66
62
52
46
58
90
104
95
79
66
63
58
57
55
57
53
47
41
39
35
39
45
52
56
52
50
50
51
50
46
44
45
48
46
47
50
55
65
73
80
80
64
41
30
25
22
21
20
23
28
53
129
169
182
189
186
185
177
177
172
160
169
174
180
178
175
171
169
173
171
162
159
168
171
169
169
165
163
158
156
156
161
165
159
152
132
125
131
125
108
111
129
120
113
131
138
160
174
175
183
189
174
163
162
162
160
156
157
153
153
150
150
149
146
142
144
138
141
134
134
127
130
110
99
86
82
102
110
112
116
115
109
108
103
102
111
115
117
127
134
134
126
120
131
134
137
136
140
136
142
144
136
145
150
158
157
158
150
159
163
160
153
153
165
186
194
194
195
192
192
190
179
178
194
201
204
206
209
208
208
208
211
211
211
212
209
209
211
212
212
212
212
212
212
213
214
213
213
214
213
213
215
215
216
216
215
216
217
217
219
219
219
219
219
218
218
219
219
220
220
221
221
221
222
222
221
221
221
222
222
222
222
222
222
223
223
223
223
223
223
224
223
224
224
224
223
223
223
223
223
223
223
221
202
134
84
62
60
58
52
77
102
100
86
74
57
50
47
47
45
43
42
42
44
45
40
40
45
51
57
57
57
55
52
52
47
45
43
50
52
55
54
58
64
76
83
79
57
35
30
26
21
21
24
24
37
109
167
176
180
184
188
186
179
172
166
171
165
171
176
180
171
171
174
177
177
170
172
174
170
167
169
165
164
162
157
162
168
167
160
154
136
136
139
133
116
121
123
114
121
143
158
176
176
182
195
189
169
164
163
162
161
160
157
155
155
153
153
150
153
147
146
143
144
140
138
133
134
113
99
91
94
108
113
110
113
118
117
113
102
100
105
107
105
126
137
131
130
120
123
133
133
135
133
137
148
144
147
151
149
159
162
160
163
164
158
146
129
147
174
190
193
193
194
191
193
188
172
187
198
201
204
206
208
209
209
210
210
210
212
212
210
210
211
212
211
211
212
212
212
213
214
214
214
214
215
214
215
216
218
217
216
216
217
217
219
219
219
219
219
219
219
220
220
220
220
220
220
220
221
222
221
220
222
222
222
222
222
222
222
222
223
223
223
223
223
222
222
223
223
223
223
223
223
223
223
222
222
220
193
123
84
66
63
65
67
99
107
97
81
69
55
42
37
35
38
35
33
33
36
42
45
53
55
57
57
58
57
56
54
53
50
50
48
51
52
53
54
62
68
80
83
83
57
33
29
26
22
24
25
29
72
149
176
180
185
187
179
176
173
174
178
177
168
168
173
181
173
169
167
173
178
177
178
174
163
167
167
163
167
162
161
161
159
158
153
149
150
139
138
140
137
128
124
129
131
138
170
178
184
194
194
176
166
163
161
162
161
161
159
158
159
157
157
154
149
147
148
145
147
146
138
138
136
113
102
104
105
105
108
106
112
116
115
115
106
105
108
104
104
124
140
139
128
117
117
136
141
142
142
150
148
149
149
140
144
155
160
158
159
162
161
144
134
152
179
191
192
191
193
193
192
180
175
193
201
203
206
206
208
210
208
209
209
209
211
212
212
212
212
212
211
211
212
212
212
213
213
214
214
215
216
216
215
214
216
217
217
215
216
217
218
218
218
218
218
219
220
220
220
221
220
220
220
220
221
222
221
220
222
221
222
222
222
222
222
222
222
222
223
223
222
221
222
221
222
223
223
223
223
223
223
221
220
218
192
124
84
77
67
59
82
111
111
96
84
76
58
49
42
39
37
29
26
27
32
36
46
56
61
62
59
53
53
53
54
49
47
47
47
50
49
52
57
68
79
90
95
87
54
32
27
25
23
23
27
47
125
167
176
176
185
184
179
183
181
182
181
176
173
166
169
173
171
169
163
162
169
179
178
167
159
170
172
170
162
155
155
152
149
141
131
136
139
131
133
134
119
124
128
150
152
166
180
180
192
200
183
169
166
165
164
161
159
160
160
160
160
159
157
155
149
152
151
151
141
143
142
138
139
113
99
106
112
106
105
111
112
114
117
117
111
113
121
121
122
135
143
139
127
119
125
139
139
143
150
147
147
146
152
148
156
158
161
161
160
156
150
152
157
169
185
192
192
190
192
192
186
173
184
198
202
203
205
206
208
209
207
207
209
210
211
212
211
211
212
212
212
214
214
213
213
213
214
214
214
214
215
216
215
214
216
216
216
216
217
218
218
218
218
218
218
219
219
219
219
220
220
220
220
220
222
222
222
221
222
222
222
222
222
222
222
222
222
222
222
223
222
221
222
220
222
223
223
223
223
223
223
223
221
218
195
146
104
87
70
73
102
116
109
98
89
76
68
61
54
42
35
26
26
30
32
33
40
51
60
60
60
54
55
55
51
44
38
38
35
37
40
47
53
57
76
95
101
86
52
30
25
23
21
23
33
79
160
181
177
176
184
186
188
187
187
186
177
174
174
168
169
171
173
168
163
161
170
174
171
165
155
155
164
155
149
156
148
141
138
123
101
114
128
126
135
118
111
113
117
130
151
180
181
188
203
193
173
167
164
163
154
146
151
154
160
162
161
162
161
156
150
148
151
150
144
145
143
141
142
115
96
105
109
107
105
106
102
103
105
115
111
116
125
129
130
136
142
138
130
126
138
136
139
145
138
138
146
140
149
155
157
159
162
159
160
154
149
156
168
182
188
193
191
191
192
190
178
176
191
202
204
204
205
205
205
207
207
207
210
210
210
209
210
209
210
211
211
212
213
213
213
213
214
214
213
213
214
214
215
215
215
215
215
216
216
216
217
217
216
217
218
218
218
218
219
220
219
220
220
219
220
221
221
221
221
221
221
222
222
221
221
222
222
222
221
222
221
221
222
221
222
222
222
223
224
223
223
223
221
219
201
163
126
95
80
92
114
118
108
101
86
78
72
62
55
49
40
32
31
33
31
32
37
51
59
65
65
56
54
53
46
38
30
28
27
27
25
28
31
38
58
87
97
87
58
29
23
21
22
27
55
144
180
187
182
178
181
187
186
183
186
185
180
173
166
175
179
177
172
174
172
169
167
165
170
169
165
168
165
159
162
160
154
154
142
123
116
123
127
116
111
107
109
106
108
125
170
180
183
200
199
178
169
166
156
140
139
142
135
142
148
156
159
160
160
155
155
152
154
151
146
149
145
139
144
116
106
104
101
98
105
105
102
103
114
116
116
114
113
130
137
140
142
138
129
124
129
139
147
145
140
148
144
140
149
158
163
161
159
150
150
149
151
158
175
186
190
191
190
190
194
186
173
184
196
203
205
205
205
205
204
206
207
208
210
209
209
209
210
210
210
210
212
212
212
212
213
213
214
213
213
213
214
214
215
215
215
215
215
215
215
215
215
216
216
218
217
218
218
218
218
219
219
220
220
219
219
220
220
220
220
220
221
222
220
220
222
222
221
222
222
221
221
222
222
222
222
222
222
222
223
223
223
223
222
220
206
174
145
108
86
99
120
116
107
97
90
82
72
63
55
52
46
38
35
34
33
34
40
48
57
60
61
51
51
49
44
40
34
32
31
31
27
26
26
26
38
64
88
90
59
30
22
20
21
35
98
169
183
183
179
178
182
185
187
181
179
181
182
173
172
176
175
175
172
171
172
174
171
169
169
158
151
154
159
164
169
165
160
158
140
130
129
135
115
92
102
113
112
121
132
164
181
182
195
205
185
170
167
158
137
128
136
139
137
133
133
141
151
155
160
161
157
153
151
153
149
150
148
145
148
122
104
103
97
98
103
105
107
116
122
114
115
122
121
133
137
139
133
132
131
127
130
137
144
145
149
148
138
140
144
152
162
165
160
153
140
141
154
165
180
187
190
191
194
192
188
179
177
191
199
202
203
206
205
205
206
208
208
208
209
208
207
210
209
209
209
210
212
212
212
212
212
212
212
213
214
214
212
214
215
215
214
215
215
215
215
215
215
216
216
217
217
218
218
218
218
218
219
220
220
220
220
220
220
220
221
221
221
221
219
220
220
219
219
221
222
221
222
222
222
222
222
222
222
222
222
223
223
223
222
221
211
182
136
107
95
105
126
115
100
93
89
78
73
66
60
54
46
39
38
34
34
37
43
51
54
56
52
51
46
39
34
35
33
31
36
42
42
41
40
32
36
48
75
85
51
27
20
20
25
66
140
171
174
176
168
167
172
172
175
181
185
186
178
176
183
179
179
182
179
177
175
179
177
176
166
151
152
155
162
165
168
158
155
151
148
146
152
149
126
121
127
119
122
139
161
179
182
188
205
197
176
169
164
146
130
132
135
137
134
132
126
125
136
144
153
159
157
156
154
154
151
152
152
150
147
120
100
100
100
102
105
102
107
113
114
112
117
125
124
129
136
129
120
126
127
130
135
135
140
149
149
153
153
150
145
150
158
162
163
149
142
134
146
170
185
189
193
192
192
191
184
174
182
195
200
202
204
205
204
204
206
207
207
208
209
208
207
209
208
209
210
211
212
212
212
212
212
212
212
214
213
213
212
214
215
214
213
215
216
215
214
214
216
217
215
218
218
216
216
218
218
219
219
219
219
220
220
220
220
220
221
221
222
221
220
219
220
220
220
222
222
222
222
222
222
222
222
222
222
222
222
223
223
223
222
222
218
204
172
131
120
125
124
111
95
93
88
80
70
62
57
57
49
45
40
40
42
42
44
47
51
52
49
46
38
30
29
29
29
30
32
38
46
48
49
49
50
53
74
68
36
24
20
26
59
133
164
170
177
167
153
163
177
176
180
186
181
167
167
171
171
174
180
180
176
177
179
176
172
175
169
162
160
158
145
148
151
150
159
165
165
153
139
128
129
127
116
122
135
149
178
184
187
203
205
180
170
168
157
135
132
136
138
136
131
131
134
129
128
131
140
153
157
158
158
156
155
153
153
150
148
124
102
106
101
105
106
96
95
103
117
124
126
117
113
128
140
130
124
134
132
133
138
142
148
146
145
144
146
141
139
142
153
158
158
153
154
139
143
178
186
191
192
190
189
190
181
176
192
197
200
204
204
204
204
204
206
207
207
207
207
208
209
210
209
210
211
211
210
211
212
212
212
212
211
212
212
213
213
214
213
213
212
213
216
217
217
216
216
215
215
217
217
216
217
218
218
218
218
219
219
219
220
221
220
220
220
220
220
220
219
220
220
221
222
222
222
222
222
222
222
222
222
222
222
222
222
222
222
222
222
223
221
215
211
204
189
145
123
108
97
94
92
82
68
61
59
59
55
51
50
47
45
45
44
49
52
51
48
43
36
29
29
29
29
28
31
35
39
46
54
60
69
78
80
55
27
22
26
52
129
162
169
178
179
180
168
167
183
179
182
180
165
162
164
160
164
172
183
179
170
171
179
177
176
174
165
158
159
157
147
127
128
150
164
168
162
154
146
131
129
122
120
128
134
167
185
188
198
208
190
173
172
163
139
133
134
137
136
138
133
136
134
135
129
131
135
147
152
156
156
155
154
154
151
151
151
125
93
100
102
109
112
97
86
99
112
118
115
111
111
124
146
145
140
138
138
144
147
140
146
146
148
146
141
145
141
144
151
155
151
152
158
161
172
184
189
191
189
190
190
186
176
180
195
197
199
200
203
204
204
204
206
205
207
208
207
208
208
208
209
209
211
208
209
210
212
212
212
212
212
211
210
212
213
214
212
213
213
213
217
217
216
215
215
215
215
217
217
217
217
218
218
218
218
219
219
219
219
219
220
219
220
220
220
220
220
220
220
221
222
222
223
223
222
222
222
221
221
222
222
222
222
222
222
222
221
221
220
218
218
214
193
147
124
107
98
91
88
80
69
65
60
59
59
56
55
49
48
49
52
49
50
52
49
45
32
28
29
29
26
25
26
32
38
47
52
61
79
93
84
44
25
27
49
84
148
164
172
174
175
182
176
176
179
178
178
175
167
167
168
169
173
179
183
178
168
172
177
177
165
161
160
156
167
164
150
133
145
158
160
161
159
154
142
124
131
143
145
149
166
187
186
193
209
197
175
170
166
153
138
139
139
139
139
139
137
142
140
138
138
139
135
138
143
150
154
153
154
154
154
150
148
127
95
99
101
106
104
103
105
108
112
106
111
112
114
119
129
139
146
130
131
135
140
145
145
151
154
149
131
129
144
152
156
150
152
152
157
164
178
188
191
190
189
191
191
179
171
188
198
201
202
202
204
205
204
204
205
205
205
207
208
207
206
206
209
207
209
209
211
210
210
211
212
212
212
212
212
212
212
213
213
214
215
214
215
215
215
215
214
215
216
217
217
217
217
219
218
218
218
220
220
218
218
219
221
222
222
222
220
220
220
220
220
220
221
221
221
221
221
220
220
220
220
222
222
222
222
222
222
220
220
219
219
218
217
213
186
147
126
108
100
90
83
75
73
67
66
62
62
58
56
52
54
53
51
50
50
57
66
55
36
31
31
29
26
22
23
27
37
49
56
59
85
102
77
37
30
49
64
84
134
167
175
174
172
176
181
177
170
182
191
188
178
171
169
173
177
178
174
173
180
178
176
159
151
167
159
164
170
165
164
157
153
152
156
158
157
154
151
141
139
152
152
158
184
186
188
206
206
183
173
169
157
144
143
144
142
141
141
141
141
145
141
137
142
138
131
138
133
135
144
151
155
157
155
152
149
128
97
93
95
107
106
111
114
109
110
109
112
118
119
111
108
111
129
122
125
126
117
120
140
150
147
143
135
134
144
143
144
137
144
151
160
173
185
188
189
188
188
189
186
173
181
193
199
201
200
201
202
202
204
204
205
205
205
207
206
206
207
206
208
207
207
208
209
209
210
210
210
210
210
211
212
211
211
212
213
212
213
213
214
214
216
215
214
215
216
217
217
217
217
217
218
218
218
219
219
219
219
219
221
222
222
222
220
220
220
220
220
220
219
219
220
221
221
220
220
220
220
222
222
222
222
222
221
220
220
219
218
216
216
209
177
142
124
107
100
91
84
77
77
74
73
66
62
61
55
51
54
54
51
52
54
72
89
78
47
37
32
33
30
31
33
32
35
43
47
59
93
106
70
36
49
72
56
59
122
168
178
176
175
181
190
182
177
185
188
183
176
180
183
181
182
178
167
173
183
184
180
172
179
173
166
160
159
164
159
152
153
145
144
155
157
155
152
139
140
148
154
176
186
186
197
210
187
175
172
165
148
146
144
144
142
143
141
137
143
145
145
142
141
138
137
137
133
131
128
139
150
152
156
154
152
127
93
93
97
106
113
117
114
106
110
113
115
120
116
114
117
119
126
122
118
120
120
122
139
143
142
142
141
146
145
141
137
138
146
150
162
176
184
186
189
188
189
187
180
172
188
195
200
200
201
200
201
202
204
204
204
205
206
207
206
204
207
207
207
207
207
207
208
208
209
210
211
211
210
209
210
212
212
212
212
211
213
213
213
214
215
215
214
214
215
216
217
218
218
218
218
218
218
218
217
218
218
219
220
220
220
220
220
220
219
219
220
220
220
220
220
221
222
221
220
222
222
222
222
220
221
220
220
219
219
218
217
217
215
205
172
141
118
104
99
96
83
82
77
73
72
65
55
49
52
56
55
53
55
54
65
94
117
112
81
47
37
35
35
37
41
46
47
52
59
77
100
104
61
36
52
73
58
80
157
181
175
162
162
181
191
191
180
179
177
175
178
180
185
187
182
168
158
174
179
184
185
179
176
169
156
138
152
156
146
144
144
141
151
163
163
154
148
141
137
120
143
184
187
196
210
199
179
175
171
153
147
146
147
146
145
147
139
139
145
144
146
146
142
145
141
139
136
134
125
126
132
142
152
155
155
130
100
103
99
103
113
117
108
110
114
114
120
120
108
111
119
119
127
132
122
124
124
125
132
142
132
131
144
147
144
146
145
150
148
146
162
181
186
187
189
188
189
184
172
178
190
199
200
202
203
202
203
203
202
204
203
205
205
205
205
204
206
207
205
206
206
206
208
208
208
210
209
209
210
210
210
212
212
212
212
212
213
212
213
214
214
215
215
214
216
215
217
218
218
218
218
218
215
217
218
218
218
219
219
220
219
220
220
220
221
221
220
220
220
220
220
221
222
221
220
221
222
222
221
219
221
220
220
219
218
217
216
217
214
204
169
139
118
105
102
97
81
79
73
74
62
56
52
57
61
58
57
57
61
62
87
113
127
125
95
61
48
43
45
43
45
52
52
62
85
106
117
93
48
39
56
74
72
141
178
180
178
170
171
180
183
180
180
172
168
173
177
174
178
182
180
173
177
178
177
179
181
174
165
159
153
153
157
136
131
145
146
151
151
156
158
152
150
148
146
135
176
185
190
207
205
181
173
172
160
149
148
151
151
150
147
151
147
147
146
147
151
150
149
147
140
141
135
138
132
127
131
130
141
149
154
131
99
98
100
105
111
114
111
117
123
124
129
120
98
112
122
125
128
129
119
122
123
117
120
137
136
125
139
140
137
135
133
142
140
153
170
181
189
189
189
189
188
180
168
185
196
199
200
201
202
201
203
203
202
204
206
204
205
204
204
205
205
205
206
206
206
205
207
209
207
209
208
209
209
209
209
211
210
211
212
212
212
212
213
213
213
214
214
214
214
215
216
217
218
218
218
218
218
218
219
219
219
219
219
219
220
220
221
220
220
220
220
220
220
220
221
220
220
220
220
220
220
221
221
221
220
219
219
218
218
217
215
215
215
204
167
134
117
106
103
99
84
76
76
67
60
57
64
71
73
68
62
68
66
72
99
123
124
116
86
63
53
48
46
46
50
56
71
88
110
116
113
79
39
38
54
74
108
165
173
178
183
175
172
178
179
177
178
179
178
177
168
159
163
175
174
174
180
175
164
159
163
170
169
168
167
164
152
133
149
148
148
156
155
154
152
150
155
154
139
172
187
188
201
211
190
174
171
163
152
149
151
153
154
152
152
151
147
151
146
147
150
150
149
148
147
144
140
141
135
137
138
129
128
137
141
128
103
95
100
109
110
108
116
125
120
119
118
119
117
123
126
128
124
127
131
136
125
116
115
127
142
133
134
142
144
145
146
146
148
163
180
186
188
188
188
188
185
171
176
193
198
200
200
202
200
202
203
203
202
202
203
202
203
203
204
205
204
205
207
207
206
208
206
208
206
207
207
208
209
209
208
208
210
212
212
212
212
212
213
212
213
214
214
216
216
216
217
215
216
218
218
218
219
219
219
219
219
219
220
221
219
219
220
219
220
220
219
220
220
219
220
220
220
220
220
220
220
219
219
219
219
219
219
218
218
216
215
214
217
208
168
135
115
100
97
94
81
77
74
69
62
58
72
81
79
77
74
66
68
79
104
121
109
88
66
63
63
54
56
50
61
68
84
106
123
125
113
63
39
39
56
84
134
166
173
179
174
176
178
175
180
179
183
180
179
180
175
170
172
167
164
166
170
169
167
160
168
166
155
160
159
153
153
151
140
117
131
151
147
141
150
157
158
150
165
190
188
196
213
200
180
177
171
157
150
153
154
155
155
152
151
150
150
150
147
147
148
150
149
145
149
147
141
138
135
136
140
135
130
128
134
121
105
105
102
109
110
114
116
117
110
107
109
114
120
124
127
127
119
127
133
128
126
125
126
128
147
151
153
145
137
137
143
134
142
171
182
186
188
187
187
187
178
171
184
195
200
200
200
202
203
203
203
205
203
204
202
204
203
204
205
205
205
207
208
206
205
207
207
209
207
207
207
208
209
208
208
209
210
212
212
212
212
212
213
212
213
214
214
215
215
215
215
216
216
218
218
219
218
219
219
219
219
220
220
221
221
220
219
220
219
220
220
221
221
220
220
219
220
220
220
220
220
221
222
220
220
218
218
219
218
217
216
216
218
210
166
135
115
104
99
90
79
81
72
68
63
57
55
59
67
79
80
68
64
81
106
113
88
59
58
59
63
58
55
60
67
75
98
118
127
123
94
45
39
39
63
102
147
160
175
177
173
172
172
182
181
178
177
182
189
189
185
179
169
168
168
170
156
154
160
168
169
168
155
150
148
159
168
162
141
122
129
152
138
147
163
162
162
177
194
190
194
209
208
184
179
175
163
155
151
155
158
155
155
156
155
152
152
153
150
149
149
148
149
151
148
146
142
137
141
139
142
136
132
131
125
110
114
108
108
111
110
111
113
104
104
113
118
118
121
127
122
121
123
130
137
122
126
131
136
139
153
154
154
146
141
140
145
143
159
179
186
187
185
188
189
185
172
174
191
198
198
200
199
201
203
202
200
202
203
202
203
204
204
203
204
204
205
206
205
205
206
206
206
207
207
207
207
206
208
208
208
209
209
211
212
211
212
212
212
213
212
211
214
214
214
214
216
217
217
217
218
220
219
223
228
232
233
233
236
239
241
242
239
233
227
221
219
220
218
218
219
220
220
220
220
220
220
220
221
219
220
219
218
218
217
216
217
219
222
205
162
136
110
101
96
86
78
79
75
69
65
58
55
52
59
70
77
71
69
77
101
101
78
54
55
55
60
60
62
71
73
90
107
122
124
114
71
46
50
52
75
128
174
173
173
171
177
179
176
183
181
176
174
182
188
186
180
177
175
174
178
179
170
166
164
169
173
170
170
167
161
156
163
164
147
135
130
130
135
154
164
166
175
190
191
192
205
210
189
180
176
167
155
157
154
155
157
159
154
153
156
156
153
154
152
150
151
150
154
151
154
146
144
143
137
141
143
139
137
133
129
110
116
113
113
108
103
104
112
109
108
110
118
118
125
132
131
130
134
134
133
126
125
124
130
137
140
143
151
152
153
147
143
148
167
181
185
186
186
187
187
176
169
182
192
197
198
199
200
201
201
200
200
203
203
202
204
204
203
204
204
205
205
205
205
206
206
207
207
207
205
208
207
205
207
209
209
210
210
209
211
210
210
212
212
212
213
211
213
214
214
215
216
217
217
218
224
231
241
246
249
250
250
250
250
249
246
244
245
246
244
237
228
223
221
220
220
220
220
221
222
220
220
220
221
219
221
219
217
216
216
214
218
221
219
195
157
135
113
102
95
87
83
82
78
66
62
60
57
54
56
60
65
65
63
67
84
99
93
57
54
56
62
65
76
78
80
94
113
119
117
93
61
77
78
68
94
158
186
181
182
181
189
189
179
176
172
170
178
183
179
171
176
179
175
178
183
179
173
174
176
177
169
168
167
163
159
157
157
155
153
147
127
122
122
145
154
172
188
194
191
198
212
200
182
177
170
155
155
160
156
156
156
158
159
158
158
156
154
156
152
151
152
151
153
153
152
149
144
145
141
141
140
136
137
134
133
113
114
113
114
109
110
107
103
106
109
109
113
116
120
122
129
133
130
132
135
138
139
127
124
127
129
138
143
149
140
129
136
158
175
183
185
187
188
186
185
169
174
187
193
196
199
201
199
201
200
199
201
202
202
201
202
203
204
204
204
204
205
204
206
205
206
207
207
207
206
207
207
206
208
208
209
208
208
209
209
209
209
211
212
212
212
212
212
213
214
215
216
219
223
235
246
249
249
249
251
251
250
251
249
247
244
240
242
245
247
247
245
242
236
230
225
222
221
222
221
220
220
219
220
219
218
216
216
214
214
215
219
221
214
176
152
138
120
103
91
88
88
84
77
73
71
65
59
60
54
53
51
50
46
49
64
83
73
57
57
63
64
68
80
82
91
103
112
120
115
91
79
84
72
79
128
172
183
186
185
184
188
187
179
175
172
179
179
174
167
161
159
170
174
175
176
168
167
171
169
163
165
163
152
157
162
162
155
147
145
130
125
125
136
139
152
173
193
192
195
210
209
188
178
177
165
153
157
162
159
160
155
157
158
159
155
153
154
156
153
154
155
154
155
154
149
148
150
152
147
140
141
142
138
133
136
111
101
105
113
111
111
110
107
107
101
103
117
125
124
119
119
123
126
132
138
134
137
124
121
138
144
143
140
129
129
129
145
166
181
185
186
186
187
186
179
170
185
193
195
197
198
198
199
199
198
198
199
201
202
200
202
201
202
202
204
203
203
204
206
206
206
207
207
207
206
206
206
206
208
208
209
209
209
209
208
210
210
210
212
212
212
212
212
212
213
214
217
224
238
245
248
248
248
249
250
250
250
249
246
244
243
239
237
242
246
248
249
249
248
248
246
243
237
234
228
224
221
218
218
217
216
215
215
215
215
216
220
221
204
155
142
136
120
103
95
86
86
80
75
78
75
74
62
58
54
52
52
51
47
52
57
53
51
56
59
65
71
77
82
92
103
110
118
121
106
90
85
82
92
125
163
177
182
184
188
184
180
180
179
177
176
175
171
173
170
160
156
172
174
171
164
165
170
169
159
157
155
141
156
165
164
162
151
134
124
128
139
136
141
152
163
186
193
194
206
215
194
182
175
168
156
156
159
160
160
162
158
159
159
157
155
155
155
156
155
154
154
152
155
155
149
150
152
151
151
146
143
141
139
135
138
112
95
106
115
111
104
106
115
113
112
112
117
121
123
121
118
120
129
128
127
127
125
124
122
134
140
141
143
138
136
126
144
173
182
185
187
186
188
184
171
172
188
195
197
197
197
198
198
198
199
198
198
200
200
201
202
200
201
204
204
202
202
203
205
206
204
206
207
206
207
206
207
206
207
207
207
209
209
208
208
210
211
210
211
211
211
211
211
212
213
214
221
234
236
240
246
246
247
248
245
246
245
244
243
242
241
239
236
239
243
246
249
249
249
249
248
248
248
248
248
245
242
237
231
226
222
219
219
218
217
221
221
217
185
142
136
134
116
106
98
82
68
60
58
63
67
64
62
56
45
47
52
53
56
58
61
54
49
55
59
64
72
79
91
102
109
114
116
110
84
86
97
108
139
164
178
175
183
189
186
174
170
177
171
175
176
172
173
187
183
176
172
179
182
169
155
163
169
164
157
158
156
159
165
165
161
152
142
120
124
122
125
124
143
163
177
191
191
201
213
202
186
178
172
162
156
159
161
161
159
161
159
161
160
158
158
157
156
160
157
158
156
155
156
156
156
153
154
152
150
147
149
143
143
143
140
118
102
107
101
101
102
111
118
115
115
119
122
124
123
129
127
131
132
126
128
133
123
124
120
127
132
136
140
135
129
132
164
179
184
188
185
186
183
177
167
180
191
196
197
197
198
197
197
198
199
199
198
200
200
200
199
199
202
202
202
201
201
202
206
205
205
206
205
204
206
206
207
207
207
207
207
208
207
208
209
210
210
210
210
210
210
210
210
212
213
218
232
236
227
231
242
246
243
228
211
210
212
210
211
211
214
221
227
229
236
243
246
248
249
249
248
246
246
246
246
246
247
249
249
248
247
244
244
245
239
225
221
212
163
128
127
133
120
108
92
81
66
60
54
46
47
49
57
50
49
49
53
54
56
66
64
55
51
52
66
70
72
83
93
106
112
117
128
139
121
107
120
146
168
178
165
168
182
183
184
180
182
181
179
177
176
172
169
173
181
181
183
184
182
173
172
175
167
161
157
158
157
155
152
149
143
143
153
151
140
124
116
130
154
175
193
191
196
212
209
188
182
176
164
153
159
162
162
162
162
160
160
162
160
161
159
161
158
160
159
157
157
158
157
158
156
155
155
152
150
149
149
143
142
140
140
116
108
103
97
93
104
117
121
120
120
121
132
143
135
130
133
136
128
127
129
129
123
125
132
133
136
136
129
137
145
151
174
179
185
185
187
187
183
171
171
189
194
196
197
198
198
198
197
197
199
200
201
201
199
199
199
199
200
202
201
201
201
202
204
204
204
204
206
206
205
206
207
208
208
207
207
208
207
208
209
210
210
210
211
210
210
210
210
211
215
227
235
233
224
229
240
238
228
201
189
200
203
207
208
203
202
201
197
196
199
210
222
236
245
248
248
247
245
245
244
243
243
246
247
247
246
246
246
239
221
217
217
192
143
123
124
125
119
104
92
86
79
77
66
49
41
39
44
52
53
53
54
56
58
66
66
64
57
61
69
77
89
93
107
115
119
128
159
181
172
165
169
183
185
177
174
180
179
179
183
178
176
182
178
174
169
167
167
171
175
175
176
179
179
176
174
173
167
157
156
159
149
144
135
132
136
140
140
142
151
140
122
124
155
188
195
196
207
214
192
183
180
170
155
156
162
163
165
163
162
160
162
160
160
160
161
163
161
160
156
155
156
160
157
155
156
157
158
156
152
149
152
150
143
140
140
119
108
98
98
97
110
119
120
124
125
130
136
135
128
127
134
137
130
129
124
116
111
119
124
121
133
122
115
136
153
164
180
181
184
184
185
185
179
171
181
190
195
196
197
196
196
198
200
199
199
200
200
200
200
200
200
200
200
200
200
202
203
202
204
204
204
204
205
205
205
206
206
206
207
207
206
207
208
208
209
210
210
210
210
210
210
211
211
213
223
233
230
226
219
221
230
226
202
182
195
203
204
210
211
210
210
209
205
196
197
194
197
212
225
238
246
246
244
244
243
240
238
241
243
243
241
242
233
220
227
227
214
172
132
110
113
115
121
105
98
88
86
92
84
63
47
44
39
41
43
42
50
57
67
67
68
66
64
71
78
81
97
106
111
116
124
146
175
183
185
190
188
186
178
175
177
177
178
182
185
172
172
171
170
169
177
182
179
174
173
168
172
176
176
170
171
178
172
149
152
161
161
153
139
128
130
135
138
137
148
144
133
145
176
195
194
202
214
200
183
180
176
159
156
159
162
163
165
164
163
161
162
162
160
161
162
160
161
161
159
158
159
160
157
156
159
156
157
158
152
150
151
148
143
143
140
120
103
99
99
105
112
119
117
111
122
135
129
122
127
127
127
131
131
125
120
117
110
118
129
135
127
102
108
136
154
170
180
183
183
185
185
182
172
170
186
191
196
195
196
198
198
197
198
198
200
200
200
200
199
200
199
199
200
201
202
202
203
201
202
202
203
204
204
204
205
206
206
205
205
207
208
206
208
209
210
209
209
209
209
211
211
211
212
219
230
229
223
215
208
213
222
209
183
187
198
197
204
211
208
208
211
211
206
199
202
196
200
215
223
232
241
244
243
243
244
241
238
238
238
237
238
232
213
217
219
214
191
146
121
105
106
112
118
108
98
90
87
88
91
84
64
48
40
39
37
36
41
47
66
73
73
67
71
75
85
96
103
113
117
125
141
168
179
186
189
189
187
184
174
173
174
176
178
183
175
167
164
165
173
177
178
174
173
172
168
176
180
171
169
168
173
181
175
149
141
154
160
157
151
147
146
129
124
140
152
145
133
169
194
195
198
215
208
186
183
179
166
160
163
163
162
162
162
162
162
162
161
164
162
164
166
163
161
161
160
161
159
160
159
159
159
159
156
153
154
150
147
149
148
146
143
119
113
110
118
114
113
114
119
119
129
136
133
129
128
122
126
133
134
128
129
126
122
132
140
143
134
128
131
148
164
175
181
182
183
183
185
177
168
180
190
192
195
196
197
197
197
196
196
197
197
197
199
199
198
199
198
200
201
200
199
201
202
202
202
202
202
204
204
204
204
205
205
205
206
207
208
208
207
208
208
208
209
209
209
212
212
211
216
225
226
222
215
206
200
204
206
187
176
189
190
190
201
205
201
201
205
210
207
201
201
191
195
209
220
230
238
239
239
239
241
240
237
231
229
232
234
212
203
209
208
200
162
134
115
98
95
107
114
112
101
95
85
83
88
88
75
61
50
41
39
37
36
38
50
66
75
71
75
82
91
99
105
118
123
135
169
184
184
183
186
184
181
173
166
175
173
177
173
170
165
171
178
180
182
179
174
171
176
179
177
179
180
172
166
169
173
178
172
154
155
165
151
144
156
159
143
130
131
149
152
131
134
183
195
197
211
216
192
181
181
171
159
160
163
163
162
166
161
161
164
164
162
163
163
161
163
164
163
163
162
163
162
159
160
160
158
161
159
154
155
153
151
152
149
146
144
119
110
116
115
118
118
116
123
124
124
121
123
128
121
111
112
122
124
127
125
126
122
135
144
141
134
136
133
147
169
178
181
183
183
184
183
172
171
185
191
193
194
196
197
197
198
196
196
196
198
196
200
199
198
198
198
200
199
200
200
200
201
201
203
204
203
203
203
204
204
204
205
206
208
208
207
208
208
208
208
209
209
209
210
210
210
212
218
226
223
218
208
199
188
191
185
170
176
183
179
181
192
192
190
192
196
199
201
199
196
184
184
196
211
227
235
237
236
236
238
238
235
230
225
225
216
194
200
203
201
179
147
126
106
89
94
101
105
112
107
97
87
82
79
79
70
63
64
54
54
47
42
40
41
48
62
73
79
89
98
102
112
123
133
157
185
192
193
188
189
181
180
180
181
180
177
177
166
162
169
176
181
174
166
171
183
185
179
181
182
181
171
169
171
176
175
171
173
167
167
158
146
153
153
161
162
155
151
150
153
154
182
197
196
208
217
200
186
181
178
166
162
165
164
162
165
164
163
165
164
165
163
163
167
164
163
164
163
163
161
159
162
162
162
160
158
155
158
160
158
155
153
151
148
147
146
121
111
107
107
123
124
121
123
131
130
119
116
117
119
115
113
125
126
125
128
128
120
127
137
137
132
127
132
157
172
178
180
181
183
184
177
168
177
189
192
193
195
195
198
198
198
196
197
197
197
199
199
200
202
201
197
201
200
202
202
201
201
201
201
202
203
203
203
205
204
204
204
205
208
210
207
207
207
208
209
209
209
210
211
210
210
214
224
225
218
207
198
190
183
178
169
164
176
176
172
180
188
182
176
181
182
187
191
194
190
178
179
184
199
217
229
234
234
237
238
236
232
231
231
230
212
196
200
200
190
160
133
120
113
99
97
98
105
109
113
98
89
81
73
70
60
62
63
71
75
69
65
61
56
50
59
71
83
93
102
108
118
128
143
167
187
191
188
188
189
181
180
180
185
179
173
170
164
168
163
163
165
163
167
180
187
182
176
174
174
176
174
174
178
181
168
163
169
167
157
152
135
138
140
159
167
162
161
151
158
176
195
196
200
215
209
190
184
181
172
162
164
165
164
166
166
165
162
164
165
163
166
164
165
166
164
162
161
161
163
164
161
159
162
159
160
158
158
159
160
156
152
152
151
150
151
125
110
114
118
128
136
136
126
127
127
128
129
124
120
117
121
133
123
114
131
135
136
136
137
142
139
128
143
168
176
181
181
180
184
182
171
169
185
192
194
195
194
195
197
198
197
196
198
197
198
200
199
199
199
196
196
200
201
200
200
201
202
203
203
202
202
203
203
202
203
205
204
205
206
207
208
207
207
209
210
210
210
209
210
210
211
220
226
221
213
202
192
186
179
172
166
169
175
170
170
178
180
172
170
175
173
175
180
187
184
174
170
179
190
206
222
231
234
237
236
233
233
232
232
230
210
201
200
193
169
143
128
117
112
105
101
100
101
104
108
102
94
88
81
72
64
62
63
68
74
74
77
77
72
60
66
73
83
96
108
118
127
150
169
177
185
182
178
184
183
186
183
183
180
175
172
168
173
173
165
163
163
164
171
177
180
183
174
170
170
173
173
168
170
170
168
171
169
160
159
147
142
150
153
161
158
153
150
153
161
189
197
198
210
214
193
184
180
174
165
166
167
169
166
167
168
168
167
165
166
163
166
166
166
164
165
165
163
164
163
161
160
160
158
157
158
156
157
158
156
157
154
154
152
151
151
127
107
119
122
124
139
138
130
128
129
124
123
118
112
116
126
136
127
115
129
135
138
145
142
135
130
127
153
175
180
181
179
179
181
176
166
177
189
192
194
194
194
195
196
197
194
195
196
196
198
197
200
199
198
198
198
198
198
200
200
201
201
202
203
203
202
202
202
203
203
204
203
205
208
206
205
206
207
209
210
209
208
209
210
211
217
227
223
215
207
194
187
181
176
171
167
174
173
165
170
177
175
169
172
167
165
166
172
182
178
171
172
180
185
196
215
227
233
235
234
233
233
233
232
227
204
201
194
178
150
134
125
114
106
104
101
99
100
99
101
103
98
98
92
84
72
68
66
69
70
69
74
73
77
70
72
79
96
107
120
134
160
180
180
186
185
182
184
188
185
182
177
181
184
180
172
171
180
179
168
169
169
166
170
174
177
180
175
172
173
174
168
158
159
161
166
165
159
168
167
157
157
163
167
164
158
148
148
150
184
199
196
206
217
201
187
183
178
168
167
168
169
170
169
168
167
166
166
167
167
167
165
168
166
166
166
165
164
162
165
162
159
160
160
160
160
159
159
158
154
157
157
157
153
153
149
129
106
122
133
133
134
139
140
140
140
121
110
110
108
117
129
138
140
132
130
136
139
146
130
118
123
142
166
177
181
181
182
183
179
171
169
184
191
194
195
194
196
197
197
197
197
195
196
196
199
197
199
200
198
200
201
199
198
199
199
200
201
202
201
201
202
202
203
204
202
203
206
207
204
205
206
205
205
207
208
207
207
207
209
211
223
224
217
211
203
191
182
177
177
170
170
172
166
164
171
176
167
163
167
162
160
164
171
179
171
169
173
177
181
193
208
222
232
233
233
234
233
233
232
219
197
192
178
156
131
120
119
114
106
106
103
103
102
96
94
99
97
96
91
88
83
78
73
68
70
66
71
73
73
76
82
94
107
117
133
151
170
180
181
184
189
190
194
192
189
183
184
180
181
177
180
188
185
179
172
174
176
166
167
174
177
181
174
172
167
162
160
165
167
159
159
152
154
160
166
170
169
160
152
158
156
150
153
170
193
197
202
216
208
189
186
181
173
168
169
169
170
172
171
167
167
167
167
167
167
167
166
169
169
167
167
166
165
165
165
164
163
163
161
161
161
162
162
161
160
156
157
155
153
153
152
129
122
126
128
121
121
120
127
133
145
135
121
117
115
135
136
125
130
136
134
136
133
133
128
116
123
153
176
179
183
181
181
181
177
165
177
189
193
194
195
195
195
194
195
197
196
197
196
197
197
197
198
198
198
199
200
201
199
199
199
200
201
202
201
201
202
203
201
202
202
203
206
205
205
206
204
204
205
206
207
207
207
208
210
218
225
220
211
206
198
187
180
177
174
170
171
169
164
167
174
174
166
164
164
159
161
166
175
176
167
170
170
177
181
190
201
216
226
231
233
232
231
232
231
211
185
178
160
136
125
118
117
112
109
108
106
104
99
96
93
94
94
90
90
90
89
88
79
71
71
73
73
72
74
77
88
102
114
121
138
173
176
177
175
181
185
189
188
183
184
187
183
175
182
189
188
187
183
178
176
176
172
168
173
179
183
178
172
172
164
156
164
175
178
169
162
156
153
146
147
162
169
165
162
154
151
153
169
193
198
199
213
216
196
187
184
176
168
168
169
169
170
170
169
170
168
167
168
166
168
170
169
171
169
166
168
166
167
167
165
164
160
162
161
159
162
161
161
160
158
154
156
156
155
153
157
128
109
118
117
118
115
107
108
120
129
130
121
125
129
142
128
118
121
132
138
136
130
125
125
129
145
168
181
182
184
182
182
179
169
170
185
193
192
193
195
194
194
195
196
197
196
197
197
198
197
197
195
198
198
198
199
200
198
198
199
200
200
201
201
203
203
202
200
201
202
202
204
204
205
204
203
203
204
204
206
206
207
209
214
224
224
216
206
198
195
184
176
172
173
170
173
166
160
166
173
172
166
164
161
159
160
168
180
174
166
171
175
180
185
188
194
207
219
228
231
232
232
233
229
199
171
157
136
125
120
119
115
108
109
109
106
106
105
99
92
86
88
90
88
87
87
87
81
79
76
79
77
79
82
87
98
101
107
125
166
189
182
176
177
180
185
186
181
166
171
183
181
181
193
190
184
182
175
164
167
166
164
157
169
177
180
175
172
173
160
163
173
178
177
164
161
169
148
114
123
133
146
157
156
161
165
167
192
201
200
208
218
201
188
185
179
170
167
169
170
169
169
170
170
171
170
171
170
170
170
168
168
170
169
168
167
166
167
168
165
164
160
162
164
160
160
161
160
159
155
153
156
154
156
152
154
128
103
101
103
114
110
102
115
122
126
134
133
131
130
137
134
123
120
130
136
135
134
121
136
145
158
174
182
184
183
183
181
176
169
181
190
193
193
193
195
194
194
195
194
193
195
197
197
198
196
197
196
199
198
197
198
200
200
200
201
200
200
200
201
202
203
202
202
201
200
200
204
203
202
202
201
202
203
203
205
205
206
209
220
225
219
211
201
194
192
183
173
173
174
171
171
167
162
167
172
169
163
158
157
160
165
172
182
170
167
174
178
181
185
189
193
202
214
225
230
231
232
232
225
190
158
142
119
113
114
115
116
116
115
117
114
110
107
108
106
101
92
90
92
93
93
86
82
81
83
84
86
88
87
89
91
100
112
142
182
186
173
180
177
179
185
192
190
186
187
185
184
179
183
183
179
176
170
159
146
155
158
164
162
165
162
151
151
165
175
179
179
175
169
168
174
173
157
148
149
135
142
148
154
161
164
178
201
199
204
218
209
188
187
184
172
168
170
172
170
169
167
170
170
170
169
169
169
171
170
170
170
169
169
169
169
166
168
168
166
167
162
164
163
161
160
162
161
162
160
158
157
156
155
152
150
127
107
103
100
107
111
118
123
121
127
135
142
125
120
125
127
135
142
140
135
138
136
127
131
145
167
180
182
183
182
185
180
171
170
185
191
194
195
195
194
195
195
196
195
194
195
197
197
196
195
197
199
198
198
197
199
198
199
200
200
200
199
199
201
201
201
202
201
202
202
202
203
204
202
203
202
203
204
204
205
207
207
213
224
221
211
206
194
189
189
183
174
176
172
170
170
165
162
170
172
166
162
154
154
159
167
176
180
167
169
178
181
184
189
189
191
196
204
216
224
228
232
232
220
183
148
123
113
107
111
121
128
135
140
144
148
156
159
164
169
174
175
176
171
167
151
134
136
131
119
102
90
79
75
82
88
99
121
152
188
201
197
187
180
174
187
194
186
180
184
187
178
172
177
171
168
172
180
178
173
172
166
159
158
147
148
153
162
169
173
176
177
166
164
170
172
162
150
154
159
148
151
156
153
154
163
194
200
199
213
216
195
187
183
176
170
170
169
172
170
167
169
170
171
170
169
170
172
173
170
170
170
171
169
168
169
169
170
168
167
165
163
163
165
162
161
163
162
159
156
158
158
155
156
154
151
129
103
94
85
101
113
115
121
125
126
132
132
125
134
130
127
140
143
141
133
121
120
120
122
150
174
182
183
181
183
185
177
165
178
190
193
194
195
196
196
195
195
195
195
196
197
196
196
197
197
199
199
198
198
196
197
197
198
199
199
200
199
200
200
201
200
200
201
201
205
202
200
204
203
203
202
204
204
205
205
206
210
220
223
216
203
195
188
184
186
181
177
175
173
174
168
163
164
171
173
168
161
155
158
164
168
177
174
166
169
181
184
187
189
187
189
191
193
202
215
223
230
230
218
179
142
114
105
89
72
72
86
92
95
97
102
111
118
127
141
155
168
176
179
181
170
167
154
140
108
75
60
66
77
85
98
112
126
138
172
205
218
203
176
174
182
183
184
186
185
180
165
166
170
164
171
179
183
188
187
183
161
159
169
163
166
162
145
140
165
172
175
169
160
159
164
154
151
160
161
146
148
145
141
151
173
196
198
207
220
202
190
186
180
169
169
170
170
172
170
168
169
171
173
173
172
172
171
172
172
172
173
172
170
171
172
170
169
165
167
167
165
165
165
162
162
162
159
159
157
159
158
156
156
157
152
128
102
78
83
102
120
119
127
127
127
136
126
126
125
126
133
138
133
133
133
124
117
117
123
163
177
184
185
184
184
184
171
169
186
192
194
194
194
195
197
195
195
194
195
197
197
194
196
197
197
198
198
198
197
197
197
198
198
199
199
199
199
201
199
200
198
200
202
202
202
202
201
202
202
203
203
204
204
206
206
206
217
224
217
208
196
189
184
180
181
178
174
175
173
171
167
163
166
171
172
166
160
156
163
169
172
177
172
165
172
182
185
190
189
189
189
185
186
194
206
215
221
223
211
183
152
118
86
54
40
41
46
47
45
49
51
49
49
51
55
54
60
63
67
67
64
76
74
64
47
38
40
50
72
90
106
121
124
121
144
195
230
230
206
177
166
167
176
185
184
179
172
174
168
163
171
178
184
186
179
179
176
173
175
178
176
155
144
149
151
169
179
175
168
169
166
154
146
151
144
137
145
154
156
166
190
197
202
217
209
192
187
183
173
166
173
172
172
171
173
170
171
173
173
172
173
173
172
172
174
171
173
171
171
170
169
169
171
168
166
166
169
166
163
163
164
163
162
159
159
158
158
159
158
156
155
130
107
95
99
111
122
129
131
129
137
140
135
132
121
120
129
139
137
135
133
135
131
138
154
173
181
183
184
186
186
178
166
177
192
195
192
195
194
194
196
194
193
193
195
196
197
196
195
196
196
197
198
197
196
197
197
197
197
199
198
198
199
199
198
199
200
201
201
202
202
202
202
200
201
205
205
204
204
206
207
215
225
221
211
198
190
184
180
178
177
173
171
174
175
169
163
162
165
171
169
164
158
158
164
168
176
176
169
165
174
183
187
190
189
189
188
183
187
194
194
198
210
213
206
189
167
124
69
42
38
37
39
38
38
40
39
39
37
37
37
38
39
38
35
34
34
35
35
34
33
32
34
43
73
97
110
124
124
112
115
173
226
233
226
194
175
170
167
176
179
174
165
157
160
173
169
161
167
177
187
186
180
172
172
177
175
173
164
154
162
163
164
166
168
165
164
156
159
155
157
154
152
158
163
189
198
200
213
214
195
188
185
177
170
171
172
173
174
174
171
171
172
170
173
171
174
175
174
174
174
172
172
172
172
172
171
170
171
167
166
167
170
168
166
165
166
163
161
160
158
159
161
158
157
154
156
131
107
106
106
111
115
118
121
130
143
135
124
138
135
137
145
148
138
139
133
142
136
146
167
181
184
185
185
185
184
170
168
184
192
194
194
195
193
195
195
194
195
194
195
196
198
197
195
194
195
195
195
196
197
197
197
197
197
198
197
198
198
198
198
199
200
200
200
200
202
201
201
200
201
203
205
203
203
205
211
224
221
213
204
192
185
179
176
175
174
171
170
171
173
168
160
161
167
172
166
161
156
160
164
170
175
174
168
169
181
186
190
189
188
187
183
186
194
193
186
187
197
206
203
197
181
137
67
39
37
36
34
35
37
37
36
33
33
28
29
32
29
29
31
30
30
30
30
30
30
31
33
43
73
99
115
125
124
98
81
161
208
225
226
218
199
182
181
182
182
178
168
164
174
180
174
171
179
183
180
170
170
167
171
170
166
171
165
151
144
143
146
163
171
166
161
161
176
174
155
145
156
165
187
199
199
208
219
201
190
187
183
171
173
173
174
175
174
173
172
173
173
172
172
176
174
174
175
175
173
172
172
173
172
171
170
168
171
169
167
168
169
168
167
165
167
163
162
160
159
158
160
157
156
156
158
133
92
100
104
112
120
124
127
134
135
132
135
141
140
149
155
150
139
133
133
130
135
157
175
184
185
186
185
186
180
166
178
191
193
195
197
195
194
195
196
195
196
194
194
193
196
196
196
195
196
195
197
196
196
197
196
196
196
197
197
198
197
197
197
198
198
199
201
199
199
200
200
201
203
202
204
203
205
208
224
225
215
207
197
186
180
178
174
172
173
172
171
174
172
166
160
161
165
172
166
157
155
161
165
170
175
169
166
172
184
188
188
188
189
186
182
190
195
183
174
180
189
193
193
190
183
143
67
40
36
36
35
36
38
37
33
31
30
31
37
39
34
28
28
29
29
29
30
30
31
31
31
41
71
97
115
125
109
77
107
180
197
207
219
226
219
207
188
178
180
179
172
174
173
165
167
168
167
176
178
177
176
177
173
169
169
172
166
153
144
140
151
164
175
176
161
152
162
162
154
157
161
176
196
198
206
216
211
192
189
185
176
172
173
173
176
178
175
173
175
174
173
172
173
175
174
173
175
175
174
173
172
175
173
171
171
169
170
170
170
169
168
166
166
168
166
165
164
166
161
159
159
157
159
158
156
132
95
102
107
117
124
132
129
128
134
132
135
128
122
136
150
149
147
143
144
139
139
164
179
183
184
185
185
188
173
165
185
193
196
196
196
196
195
196
196
197
196
195
195
193
195
195
196
195
196
196
196
196
196
195
195
194
195
195
197
197
197
197
197
196
199
202
199
198
197
199
199
202
203
203
204
203
205
218
228
220
209
199
188
179
177
177
174
173
173
169
172
176
169
165
162
161
166
168
159
152
154
162
165
173
174
165
168
178
185
187
186
187
187
185
187
195
190
173
172
178
181
185
179
172
171
147
70
39
37
36
37
37
38
34
35
58
47
37
38
37
35
28
29
29
29
30
29
29
29
30
29
39
65
98
113
115
87
70
152
181
188
189
194
205
220
227
210
187
179
174
158
156
161
162
170
170
168
176
179
179
176
177
177
182
177
175
171
159
149
145
141
151
170
166
152
134
140
151
149
149
168
193
199
200
212
215
196
189
186
176
169
171
173
175
176
175
172
173
177
175
174
174
173
174
174
176
176
174
174
176
177
178
172
171
171
170
170
169
167
167
168
163
165
163
164
163
161
163
164
162
162
161
157
158
155
130
109
111
110
115
122
132
129
122
127
133
140
135
124
125
135
139
137
140
147
148
157
178
183
183
183
183
186
180
168
178
189
193
195
195
196
195
196
196
196
195
196
196
195
195
195
196
196
194
193
195
195
194
195
196
195
195
194
195
196
197
197
197
197
197
197
199
198
198
198
200
200
202
201
202
204
203
213
229
226
212
203
192
184
177
173
171
175
173
171
168
169
172
166
164
163
162
160
144
133
144
155
162
166
175
171
163
167
179
188
187
185
184
182
184
190
195
184
171
176
181
180
179
172
153
154
135
64
39
38
34
33
33
36
31
41
63
43
35
36
37
35
27
26
29
29
27
27
26
27
30
30
36
72
101
115
105
65
98
155
169
166
165
176
206
228
232
230
218
192
168
167
175
179
180
179
170
169
170
167
166
170
176
181
179
181
173
174
163
154
144
129
139
151
154
144
139
148
140
137
159
187
199
199
209
218
202
190
189
182
169
171
175
175
176
178
174
174
175
175
173
172
172
177
177
176
176
176
173
173
174
175
174
175
173
172
170
170
169
169
170
170
169
167
166
162
164
165
163
163
163
163
160
161
157
154
129
118
117
115
109
113
122
120
121
122
127
140
143
145
147
145
138
129
135
141
149
167
181
182
183
183
184
183
174
172
187
191
194
195
195
197
197
196
195
195
193
196
195
195
195
194
195
195
194
193
194
195
195
194
193
193
195
194
195
195
196
198
198
197
198
200
199
199
198
199
202
202
202
201
201
202
211
228
231
222
209
197
188
182
178
175
173
171
173
171
168
167
168
164
164
162
164
152
124
105
116
145
161
168
173
169
163
172
184
191
189
186
183
182
186
191
187
176
173
182
181
178
182
178
146
135
114
60
40
37
33
34
34
33
30
30
30
31
33
37
36
33
26
26
29
28
27
28
28
28
29
29
38
71
100
109
85
73
118
143
151
152
151
162
191
218
230
236
230
215
189
171
175
177
180
173
162
167
169
163
160
161
169
169
166
162
171
175
162
150
139
145
146
149
144
145
152
152
139
146
171
197
200
206
218
210
193
189
184
172
172
172
174
176
176
177
176
176
177
178
177
177
175
176
178
178
175
177
176
174
176
173
174
176
173
172
172
171
170
169
171
170
167
168
165
165
166
165
165
164
163
162
162
158
159
155
133
127
123
121
118
115
118
116
113
119
126
135
133
138
132
128
119
108
116
131
153
173
182
185
185
184
184
180
167
177
191
194
194
195
195
195
194
196
196
196
196
196
196
196
196
195
195
195
194
194
194
195
193
195
196
194
195
195
196
195
196
197
198
197
199
198
198
200
200
199
201
203
201
202
202
208
223
231
228
218
205
194
187
180
177
172
173
172
172
173
169
167
168
164
164
162
160
142
108
87
96
114
139
153
166
166
164
174
187
189
188
183
182
182
189
191
182
171
176
186
180
177
184
181
146
124
104
62
43
39
34
34
34
32
30
29
29
27
29
32
30
28
25
27
29
27
28
28
28
29
28
29
41
70
102
98
83
104
122
130
139
148
164
191
208
206
214
222
227
231
223
206
182
171
173
166
162
162
163
170
167
166
170
160
135
155
172
170
161
144
133
147
154
150
157
159
152
145
132
149
185
198
202
216
217
197
189
186
177
173
177
179
178
176
175
177
177
176
175
176
178
180
179
174
177
175
177
176
176
176
176
177
174
175
175
172
172
174
173
171
170
167
167
167
165
166
166
165
166
164
164
164
163
162
158
155
131
122
118
121
129
122
118
122
116
117
123
127
128
130
125
128
124
117
111
123
159
178
184
184
184
184
185
173
170
186
195
194
197
195
195
196
195
197
196
197
197
197
196
195
195
195
195
195
195
195
195
194
195
197
197
196
195
194
195
196
197
197
197
197
198
199
198
197
199
201
201
202
202
202
206
223
232
233
224
215
202
187
184
180
174
173
174
172
169
172
172
171
166
165
165
164
158
130
100
83
90
103
111
122
134
150
162
178
187
185
186
185
182
185
191
190
178
171
180
187
177
173
183
180
151
115
101
66
40
35
34
34
33
31
28
28
27
24
25
27
26
24
24
25
26
25
27
27
27
27
29
29
41
73
95
90
100
113
127
126
140
164
184
188
185
190
196
192
211
223
229
230
215
190
170
168
165
156
160
167
169
165
166
158
159
172
175
173
154
132
138
155
165
164
166
165
155
135
110
170
197
199
209
218
202
190
188
180
169
174
177
179
180
177
178
178
178
178
176
177
180
181
177
178
177
176
177
176
174
175
174
175
177
175
174
172
172
173
173
172
171
169
168
169
166
168
165
164
165
165
162
163
163
164
162
159
134
119
119
125
139
134
118
121
127
120
117
132
139
145
136
124
116
121
123
143
173
182
183
184
185
183
181
170
177
192
197
197
197
196
196
197
197
196
196
196
196
195
196
195
194
195
195
194
195
195
194
195
195
193
197
197
194
194
194
196
197
197
198
198
198
198
197
197
199
201
202
202
203
203
217
233
233
230
219
212
199
184
181
178
175
170
170
172
170
170
170
170
166
163
163
164
148
121
95
82
93
106
110
110
117
122
145
169
180
182
184
184
182
189
188
183
172
172
184
186
171
169
177
184
162
113
97
59
39
33
33
34
33
29
31
28
24
23
24
25
25
25
24
25
26
27
28
26
25
26
29
30
39
64
91
104
109
117
123
129
149
165
170
168
172
172
171
192
206
212
230
235
234
224
184
168
168
166
163
167
163
168
170
171
167
171
171
167
152
133
142
163
166
157
158
154
141
138
165
196
197
204
218
208
193
191
186
173
173
177
176
178
179
179
178
178
176
178
176
176
178
179
178
178
178
176
177
177
178
174
173
173
175
176
173
171
172
172
172
173
172
170
169
168
169
170
168
166
165
166
164
162
163
161
159
160
134
120
122
125
127
122
118
125
141
134
132
143
149
147
141
126
117
127
135
157
179
180
181
184
185
183
174
167
186
195
196
198
196
196
197
198
197
197
198
196
196
194
195
195
194
195
196
195
195
194
193
195
195
194
197
197
195
194
196
198
198
197
198
199
199
198
198
199
200
200
202
203
204
213
231
233
232
223
213
209
195
181
177
177
176
174
171
173
168
172
174
170
166
163
165
162
139
111
89
82
103
109
108
111
111
109
120
141
156
164
174
178
181
189
188
177
169
175
189
182
167
167
174
183
170
122
101
56
35
33
33
32
31
29
29
28
25
22
23
24
23
24
24
25
26
26
27
26
27
26
29
29
38
82
118
120
115
116
122
129
140
147
151
154
154
160
182
210
224
229
224
228
233
228
218
200
185
168
161
155
154
162
166
168
166
166
163
164
165
158
161
155
156
159
158
144
147
157
189
199
202
213
216
196
188
186
179
169
174
177
178
178
179
179
178
177
177
180
179
179
179
179
178
179
179
177
177
177
179
175
176
176
176
175
171
172
172
172
173
173
173
169
169
166
167
169
166
167
166
167
164
162
164
163
161
160
135
119
122
123
126
128
126
128
131
133
135
146
146
136
126
125
121
122
141
169
179
181
184
185
185
180
168
176
191
196
196
197
196
197
197
198
198
197
197
197
196
195
195
194
195
195
196
194
193
192
192
195
194
195
195
194
195
196
197
198
198
197
198
198
198
199
199
200
201
201
200
200
209
224
230
230
229
214
208
208
193
181
179
178
176
176
173
171
169
170
174
170
164
160
164
161
129
105
91
98
113
114
109
111
110
113
119
130
137
143
150
161
174
182
181
171
168
179
185
178
165
168
173
176
170
132
103
58
35
32
32
32
30
29
29
28
26
23
23
23
23
24
23
26
25
27
27
29
29
27
29
29
42
96
120
123
119
119
122
124
128
136
143
144
152
186
212
222
218
217
227
233
231
237
234
229
215
190
168
153
150
150
158
149
151
151
139
153
167
163
156
152
153
158
162
154
155
174
196
200
210
219
202
191
187
181
172
178
179
178
178
178
181
180
178
180
179
181
180
181
180
179
179
180
181
179
178
179
178
177
177
176
176
173
173
174
173
175
171
172
173
170
169
169
170
170
168
167
165
167
164
163
165
162
161
159
135
124
122
133
133
127
122
119
122
127
127
140
143
132
119
125
122
120
152
175
181
183
182
184
183
171
166
184
193
196
195
195
197
197
197
198
198
198
198
197
196
195
193
194
195
195
196
194
195
195
193
194
195
194
196
195
194
195
197
198
198
197
198
198
198
200
198
198
199
201
202
205
222
226
226
228
222
204
201
205
189
177
176
175
177
176
172
171
171
170
175
168
162
163
167
151
122
100
101
109
125
127
124
117
109
111
117
126
133
132
132
140
148
156
158
156
165
179
182
169
164
168
172
174
175
143
105
63
33
30
29
29
29
27
27
26
24
21
23
23
23
23
22
26
26
26
26
28
27
29
27
31
52
101
125
128
123
124
127
127
128
129
135
152
184
205
200
198
207
221
228
231
232
234
234
232
226
211
184
161
169
167
158
150
146
139
139
147
167
167
166
150
147
148
153
150
165
193
198
206
218
209
193
191
187
175
173
179
179
177
177
180
179
176
178
181
180
180
180
181
183
179
181
180
180
178
179
179
179
178
176
176
175
175
175
175
173
172
171
172
173
171
170
171
171
169
167
167
168
166
164
164
165
162
160
161
135
123
126
127
127
128
124
121
119
123
123
132
142
135
129
133
123
139
169
175
179
183
182
181
179
169
174
190
193
193
195
195
197
196
197
197
197
198
197
196
196
195
196
197
197
197
197
196
197
194
192
193
195
195
197
196
195
196
196
196
195
196
197
198
198
198
198
198
198
200
203
215
224
226
228
223
210
194
196
202
188
178
175
176
176
175
174
170
169
169
171
165
163
168
165
143
118
102
96
99
117
130
135
128
119
118
121
129
129
127
134
139
142
135
130
127
149
172
173
164
164
168
167
168
174
154
121
74
33
29
27
26
26
26
25
25
23
20
22
25
24
23
22
23
25
24
26
29
27
28
28
31
57
111
126
127
126
129
133
132
130
132
145
165
174
168
173
191
205
213
220
223
228
232
229
226
223
222
215
200
177
166
169
164
154
146
146
161
164
165
159
145
139
137
148
164
194
199
201
215
214
194
191
189
180
173
179
179
180
176
179
180
180
180
179
181
179
178
181
182
183
181
180
180
181
179
180
179
177
179
180
178
176
175
173
175
174
171
171
174
174
172
172
172
169
169
168
167
168
165
165
165
163
163
163
161
134
127
124
116
123
127
130
124
116
118
124
132
144
138
141
131
128
157
175
178
181
181
182
181
172
168
185
194
193
191
194
195
197
197
196
197
197
199
199
197
197
196
197
198
198
198
197
197
195
194
195
196
195
195
197
195
195
195
194
195
193
195
197
199
199
195
198
200
199
200
211
225
228
227
224
216
205
188
188
193
187
177
174
174
175
173
171
169
169
169
172
169
166
168
160
139
120
100
94
98
111
120
124
127
130
138
144
137
130
127
133
141
143
133
120
116
131
147
146
147
160
167
166
166
173
178
166
125
71
42
30
24
24
23
22
23
24
23
25
27
26
23
22
24
25
26
26
28
27
28
28
30
60
112
130
133
134
132
138
137
132
135
141
147
144
153
170
180
192
202
210
216
220
219
221
224
227
231
230
222
206
189
178
162
153
160
171
175
171
166
154
150
138
141
162
192
199
198
210
216
199
189
188
182
174
177
180
179
180
179
179
180
180
179
180
179
181
182
183
183
181
182
179
180
182
179
179
178
178
177
179
178
178
176
177
175
174
173
172
173
174
173
172
170
172
170
169
169
166
166
164
165
164
165
164
161
135
123
114
113
123
122
121
125
123
126
133
136
139
133
131
128
137
168
178
179
180
182
182
178
165
173
189
192
192
193
194
194
196
197
196
196
196
198
196
197
197
197
197
197
196
197
196
196
196
196
195
195
195
195
197
194
196
195
196
194
193
195
196
197
197
197
198
198
200
206
224
230
228
227
219
208
197
184
185
184
182
177
174
175
176
174
171
169
165
170
171
167
168
168
152
130
109
96
95
101
113
119
122
121
122
131
143
150
143
142
135
132
134
122
116
118
127
132
125
123
150
164
165
168
167
163
155
133
106
87
60
41
28
24
23
21
22
22
25
26
23
23
24
26
26
26
26
27
27
28
28
31
63
123
140
140
138
133
141
138
133
135
137
135
139
149
160
169
181
189
198
204
208
213
220
227
233
235
235
231
229
217
192
165
161
168
172
162
157
150
158
158
142
141
180
202
199
207
218
206
193
188
184
176
177
180
180
178
179
182
181
180
180
181
178
179
180
182
182
182
182
182
182
180
179
178
176
177
177
177
177
177
177
177
177
177
174
173
170
171
171
170
168
170
172
170
171
168
167
167
165
166
164
163
163
162
136
114
113
123
129
128
132
137
132
135
134
133
133
133
134
137
157
174
181
181
180
181
180
174
163
179
189
194
195
194
193
194
196
196
196
195
195
198
197
195
197
196
197
196
197
194
195
197
198
198
196
195
195
196
194
193
194
194
194
192
191
193
195
195
196
197
198
199
204
222
229
227
227
225
211
202
191
182
182
180
180
178
176
174
173
172
172
167
164
170
170
164
168
163
143
128
107
95
99
109
117
121
123
120
117
125
128
133
140
150
153
154
137
121
113
117
121
128
114
109
122
142
151
161
150
141
131
114
102
95
83
70
56
39
30
24
23
23
24
25
26
25
24
26
26
26
26
27
27
28
28
29
65
127
148
148
147
143
142
137
135
141
139
137
140
142
153
161
169
178
185
193
201
208
217
225
230
235
238
238
237
232
219
198
168
167
167
167
160
140
146
157
148
163
199
201
203
217
214
194
189
186
175
175
179
181
181
179
178
182
181
178
181
180
180
179
181
182
182
181
178
180
180
179
178
178
176
178
177
176
176
174
176
175
174
174
172
172
168
168
169
167
168
166
169
166
168
166
165
165
164
164
163
163
163
161
133
115
125
131
126
126
134
140
134
127
125
123
130
123
128
141
167
178
181
181
180
180
179
168
169
187
190
192
192
194
195
194
195
195
196
195
196
197
197
197
197
197
197
197
196
196
196
197
197
197
196
196
195
196
195
197
194
194
196
194
194
194
196
195
195
197
197
202
217
230
227
224
224
218
204
194
187
182
178
179
178
175
175
173
171
170
171
169
165
173
173
167
166
153
140
124
100
101
106
108
119
125
121
120
122
126
125
124
130
133
146
155
148
130
122
121
121
124
109
106
115
116
121
138
132
127
117
107
100
95
88
89
88
81
64
46
33
26
22
21
21
22
23
23
25
26
26
27
27
26
27
31
66
131
150
150
150
145
143
140
137
142
144
143
141
142
148
157
163
167
172
181
190
199
209
217
226
232
233
234
235
236
230
218
198
180
170
167
163
139
143
153
155
182
198
199
213
219
201
189
188
181
173
179
180
181
180
179
180
183
182
180
180
180
179
180
181
181
179
180
179
181
179
176
178
179
177
177
174
173
174
173
173
173
172
170
169
170
168
167
168
167
166
165
167
165
162
162
162
163
164
161
160
159
162
159
133
115
124
119
122
122
123
128
126
125
133
127
126
118
126
151
174
180
184
181
177
180
175
167
179
189
192
193
192
192
193
193
194
193
195
197
196
195
195
197
196
197
196
195
195
197
195
195
196
196
197
198
198
196
196
198
196
195
196
194
195
194
196
195
194
196
199
210
227
229
228
227
224
212
200
188
182
179
177
178
178
173
174
175
170
169
172
168
168
174
172
171
165
149
138
117
99
103
107
115
121
126
120
126
126
127
128
131
123
130
136
136
131
132
140
142
139
123
110
112
115
108
107
118
124
124
115
110
101
98
90
98
108
110
103
93
82
56
36
24
21
21
22
23
25
27
25
27
27
26
29
31
69
133
147
146
150
152
152
144
142
141
145
144
147
146
149
152
156
157
162
168
177
186
197
209
216
223
231
234
237
237
236
231
218
187
158
165
170
162
153
158
170
195
199
206
219
207
192
188
182
174
176
179
179
181
180
179
179
180
181
180
179
182
181
183
181
179
179
180
180
180
178
175
176
178
175
173
171
172
173
172
169
170
169
169
165
164
165
167
164
164
164
162
162
160
159
155
157
157
160
159
157
156
157
157
132
123
127
125
116
109
117
118
119
121
124
123
128
126
136
163
177
179
181
182
180
176
169
174
188
190
191
193
191
193
193
193
195
196
197
197
195
193
196
197
197
197
196
196
196
196
197
197
197
197
197
196
197
197
196
195
195
195
197
194
195
196
197
197
197
196
206
224
225
223
226
226
214
200
193
189
183
180
180
179
178
177
174
173
171
171
171
171
172
172
167
169
158
145
135
113
103
108
109
120
130
132
127
126
127
130
130
127
125
129
140
131
123
125
131
145
149
135
114
114
113
109
108
122
132
131
121
116
102
102
100
111
121
123
119
113
100
81
64
46
32
21
21
22
22
25
26
27
26
25
26
29
81
134
147
149
150
152
152
149
151
151
151
150
146
146
150
150
148
151
155
158
167
178
190
200
209
219
226
227
231
234
234
233
226
200
164
167
170
159
151
166
192
201
203
216
212
197
190
185
175
175
180
180
179
181
182
180
178
180
179
178
179
178
179
180
180
180
179
180
179
178
178
176
175
174
174
172
174
171
169
169
165
167
165
167
164
162
163
163
163
161
160
160
161
158
156
153
154
158
156
154
153
155
156
155
132
120
120
121
114
109
117
123
125
125
113
118
120
124
152
172
177
179
180
181
181
173
166
180
189
190
190
191
192
192
195
194
193
195
195
196
194
195
195
196
195
197
197
197
197
196
197
197
197
197
197
195
195
195
195
195
196
196
197
196
195
197
197
195
195
201
221
227
220
220
221
219
210
196
189
183
182
180
178
178
176
176
174
173
170
168
167
170
173
169
167
166
150
138
128
108
105
109
111
121
127
128
132
135
129
133
136
132
131
135
132
125
122
123
126
130
135
134
123
119
115
110
111
119
128
132
122
104
91
96
107
124
126
129
129
118
100
90
84
76
63
38
24
20
21
25
25
26
25
26
26
29
78
134
150
153
157
154
154
153
155
155
154
153
151
150
150
149
147
148
150
153
161
169
181
191
202
207
212
219
220
227
231
231
230
222
204
181
168
163
170
195
202
203
212
218
202
192
189
181
173
176
180
181
181
181
181
179
179
178
179
178
178
179
179
179
179
180
179
180
179
177
178
174
174
170
172
172
171
170
168
166
164
166
166
161
164
161
161
161
161
159
162
163
160
154
153
156
154
155
155
156
156
155
154
154
131
118
121
122
119
113
114
127
126
124
128
126
121
140
167
176
178
180
180
178
177
166
171
188
193
191
192
194
191
191
193
194
194
194
194
195
195
195
195
195
197
198
195
194
196
196
197
197
197
197
197
196
195
196
196
196
197
197
197
197
195
197
197
196
196
207
223
222
217
220
220
218
212
200
189
181
181
180
178
179
179
175
174
174
170
169
165
168
176
170
170
163
145
134
119
106
111
114
115
127
134
131
136
138
136
137
137
133
136
134
129
125
122
122
124
126
125
119
125
134
136
122
113
120
125
127
118
86
62
71
94
115
128
135
130
124
114
104
97
89
85
72
51
27
20
22
22
25
26
27
28
31
80
140
155
156
157
156
157
158
159
158
157
155
153
155
154
149
149
150
150
155
158
162
169
182
188
195
203
210
220
224
227
223
220
215
211
195
177
172
188
202
202
209
219
207
193
189
184
173
174
177
181
179
180
180
181
178
179
180
181
181
179
180
180
178
178
178
175
179
177
174
176
174
172
169
170
170
168
165
167
166
164
164
165
163
164
160
161
158
160
158
160
162
162
158
153
156
157
155
154
153
155
154
154
153
131
125
130
126
126
120
125
126
126
126
135
133
138
158
172
178
180
180
180
178
173
166
186
190
194
192
192
194
193
193
193
194
194
192
193
193
194
195
195
194
195
197
195
196
197
196
197
197
197
197
197
196
197
197
196
197
198
197
197
197
196
196
196
195
195
200
213
219
220
220
220
213
207
203
192
184
180
178
177
178
178
176
175
174
173
168
164
167
173
172
171
158
143
135
118
109
112
116
122
138
134
133
140
138
136
142
138
135
135
132
126
124
126
124
125
126
121
118
114
120
125
126
120
119
120
128
120
76
35
33
48
74
103
125
130
127
119
110
100
88
87
91
86
58
33
24
24
24
24
25
28
32
79
141
158
156
158
162
160
162
161
157
158
159
157
155
153
152
154
153
152
153
153
159
163
174
183
191
203
202
206
209
204
203
203
204
202
190
173
171
196
201
206
218
215
196
190
189
178
176
180
179
180
182
180
179
179
179
180
179
180
180
177
180
179
178
178
178
174
175
173
171
170
170
169
167
169
167
167
167
167
168
165
162
160
159
163
160
158
159
158
157
158
157
159
156
156
157
157
155
156
158
157
156
155
154
132
118
122
116
111
118
123
124
129
134
139
138
144
161
176
178
181
180
177
176
164
166
188
192
193
191
193
194
191
192
193
194
193
194
193
193
195
194
194
194
196
196
196
196
197
196
197
197
197
197
197
195
197
197
196
197
197
196
197
199
195
196
195
195
195
197
203
214
223
223
221
212
201
192
190
186
180
177
176
175
177
173
172
172
172
169
162
168
174
171
166
150
144
131
114
111
114
118
128
139
134
137
144
139
141
141
140
139
138
132
129
128
128
126
124
128
122
115
114
115
120
118
123
129
130
126
118
70
32
26
29
34
50
82
110
120
116
112
100
97
96
100
107
98
69
40
26
24
23
25
28
31
79
138
155
159
159
161
163
163
161
159
160
160
160
159
156
155
156
156
157
153
153
155
161
167
177
188
183
187
194
196
197
202
205
205
198
176
166
188
203
204
212
219
200
192
189
180
176
179
180
179
179
182
182
181
181
180
180
178
179
179
177
177
179
178
177
179
174
173
173
172
173
170
170
169
170
168
167
167
167
166
162
161
161
162
161
162
159
158
159
159
157
157
158
159
157
157
156
157
155
157
156
154
157
156
135
114
114
115
113
117
118
124
132
139
138
137
151
170
178
179
179
179
177
172
149
162
187
193
192
190
192
191
192
192
193
194
196
194
193
193
195
192
193
195
195
195
197
196
196
197
197
197
197
197
197
196
195
196
195
197
197
197
197
198
196
196
196
195
195
195
197
205
217
224
221
211
199
188
182
182
181
177
176
176
174
173
173
170
172
167
163
169
170
168
158
149
141
128
117
113
118
122
133
134
137
144
146
146
140
138
141
139
141
133
134
135
133
129
130
130
122
115
115
118
122
114
112
120
130
134
123
74
31
25
24
24
26
33
56
84
100
109
112
109
108
109
113
120
110
85
47
26
23
24
26
30
83
142
156
159
160
160
161
162
162
164
162
162
160
156
160
162
160
159
157
158
158
159
162
164
168
169
179
187
193
201
207
211
214
212
201
183
184
201
202
210
219
207
195
190
185
175
180
180
179
178
179
180
179
179
179
179
179
177
178
179
180
175
175
177
176
177
176
174
175
173
171
172
169
171
168
168
167
166
167
167
161
162
161
162
162
162
162
160
161
161
160
159
159
159
157
157
157
159
154
155
155
156
156
156
134
118
116
114
120
125
119
119
119
124
114
134
159
172
178
181
177
178
179
161
160
179
188
191
192
192
193
191
191
190
194
194
192
194
193
193
193
192
191
194
194
194
197
197
195
196
197
196
195
197
196
196
195
195
197
196
196
196
197
197
196
196
196
195
195
197
197
197
202
211
216
208
197
186
182
180
180
178
177
176
175
175
172
169
169
168
164
171
170
161
151
148
143
133
122
118
120
127
133
137
142
146
144
146
147
142
141
141
139
138
137
137
140
137
134
134
122
115
115
122
122
114
113
115
119
126
120
80
32
24
21
20
21
20
23
36
58
87
106
120
117
120
118
123
124
117
97
59
36
24
24
28
75
131
148
154
159
160
161
161
161
161
159
160
160
159
159
161
160
160
160
160
161
159
162
164
162
169
173
174
179
189
200
213
220
222
215
196
197
201
205
218
213
199
194
188
178
177
180
180
180
181
180
180
180
180
179
179
180
178
179
178
178
177
177
175
177
175
174
174
176
173
171
172
171
171
168
167
165
165
164
164
165
163
162
164
160
161
160
160
159
159
158
158
157
156
158
158
156
157
154
155
157
158
158
160
134
112
109
113
119
122
124
121
119
110
105
135
165
173
175
178
178
178
169
158
171
184
187
189
191
190
191
191
192
192
194
193
192
194
193
193
193
191
190
191
192
194
195
195
195
195
196
195
196
195
195
196
195
195
197
197
196
196
197
197
197
196
195
196
194
194
196
197
192
170
161
186
189
186
183
180
181
179
178
175
173
173
171
168
168
170
171
177
174
160
151
151
144
123
114
117
118
129
133
141
143
144
148
147
148
142
141
142
144
140
139
139
141
145
141
133
124
114
123
126
124
115
114
120
117
123
116
70
30
22
19
20
21
20
20
21
26
43
76
104
119
126
126
127
123
123
122
108
83
42
29
29
65
118
134
138
145
148
150
153
156
155
156
158
158
159
158
159
159
159
162
162
163
161
161
162
164
166
168
175
188
201
212
219
224
226
221
209
202
201
212
217
200
194
191
182
174
177
180
181
182
180
180
177
181
180
177
178
178
175
179
181
180
179
178
178
177
176
176
174
173
172
172
171
170
170
169
167
164
165
163
164
164
161
161
160
160
163
158
159
160
159
159
159
159
158
158
157
158
156
157
158
159
159
159
158
131
111
107
118
119
112
116
115
122
124
126
154
172
175
176
177
177
176
163
160
178
184
188
190
190
190
191
190
191
194
194
192
192
194
194
193
192
192
193
194
192
193
195
195
195
195
196
196
197
196
194
196
195
195
197
197
197
197
196
197
197
196
196
195
195
195
194
196
181
126
102
132
165
182
182
179
179
178
177
174
174
174
171
169
169
169
172
176
170
157
151
151
141
116
109
113
118
131
136
138
124
120
145
149
147
148
148
146
146
145
140
138
140
144
139
127
126
124
130
131
121
117
117
123
132
147
150
93
37
24
22
23
20
19
19
18
19
22
37
68
101
120
124
127
126
125
128
125
119
89
57
36
72
115
125
126
135
131
132
135
140
143
143
141
145
140
146
146
148
147
154
162
163
166
162
164
166
168
172
180
189
199
209
218
223
226
224
216
205
208
219
206
194
192
186
175
177
179
180
180
182
181
178
176
179
179
178
179
179
178
180
180
179
178
178
179
178
178
178
177
172
171
171
171
168
167
168
169
167
166
166
165
163
162
160
160
159
161
163
160
159
160
160
161
159
158
155
158
156
157
159
159
159
157
157
156
132
101
117
127
113
94
96
105
120
128
147
166
175
177
177
178
177
167
158
168
184
187
190
189
189
190
190
189
191
192
193
191
191
192
192
191
193
193
194
193
193
195
195
196
195
196
195
195
196
196
194
196
196
196
197
197
197
196
197
198
198
197
197
196
195
196
196
191
160
100
92
100
116
146
169
180
179
177
176
176
174
171
171
168
168
167
169
171
165
156
153
148
133
119
116
120
123
131
139
127
98
115
146
146
150
150
149
149
148
144
147
143
144
141
139
132
130
130
136
134
124
123
124
134
156
178
177
132
98
79
66
53
36
24
20
18
20
19
21
33
66
98
116
123
127
126
128
126
124
119
98
76
85
121
128
129
133
129
134
132
132
135
136
131
138
134
136
136
136
146
155
161
162
162
163
164
165
166
173
180
190
198
207
215
221
224
226
217
210
218
213
197
192
190
179
174
177
181
182
180
181
180
178
177
177
179
179
178
179
181
180
178
179
177
177
178
176
176
175
176
171
170
171
170
170
168
167
167
164
164
164
164
161
162
164
165
162
160
162
162
159
158
159
160
159
160
157
157
156
159
159
156
158
158
157
157
134
108
124
126
111
90
96
117
121
131
160
170
176
178
177
178
177
163
160
178
188
189
189
190
191
189
190
188
189
191
192
189
190
191
191
193
193
193
194
194
193
194
193
192
193
194
195
195
195
194
194
196
197
197
197
198
196
196
198
198
198
197
197
196
197
195
194
179
128
97
92
95
100
111
129
154
169
174
176
175
172
171
171
169
166
165
170
166
160
155
152
148
139
120
124
128
130
138
138
107
86
121
149
146
152
151
149
150
150
148
145
147
148
146
143
131
135
138
138
133
124
124
129
131
137
149
150
129
115
102
95
89
80
74
50
32
21
19
18
19
29
53
93
114
122
128
127
127
126
124
122
120
126
132
130
133
137
134
135
134
134
136
141
134
137
135
131
131
138
152
161
164
157
161
167
165
166
170
173
180
185
194
203
211
218
221
223
219
219
218
203
195
189
180
174
178
180
181
182
180
180
179
179
178
175
176
180
178
181
180
178
176
178
177
175
176
177
175
175
173
171
171
172
170
169
166
166
164
163
162
164
163
163
164
162
161
162
160
162
164
162
157
158
158
159
160
159
155
158
158
156
157
159
158
156
156
133
111
113
115
107
103
116
125
119
136
163
173
175
176
176
178
170
157
168
183
187
189
190
189
190
189
189
191
192
193
192
190
191
194
193
191
193
193
193
194
193
193
194
192
194
195
197
194
196
193
194
196
196
197
197
197
195
195
196
197
197
197
197
196
197
194
192
162
109
93
93
95
102
107
111
116
132
153
169
173
171
171
169
168
164
163
171
163
157
156
151
143
133
122
127
133
136
141
130
91
95
135
149
150
154
155
152
153
152
151
150
152
152
152
146
138
136
138
142
132
128
124
126
122
115
130
132
127
113
104
101
103
100
104
102
90
68
43
24
18
19
32
62
90
112
121
125
129
129
124
127
132
150
162
152
144
140
142
139
137
139
138
134
137
135
132
133
135
146
158
163
154
155
164
168
167
166
167
171
174
181
189
197
204
210
215
218
219
219
203
195
192
186
174
177
181
180
179
180
181
181
180
177
180
180
181
181
182
181
179
179
178
176
177
177
177
175
173
176
176
172
172
171
171
168
167
167
167
163
164
163
164
164
164
164
162
160
161
162
163
161
161
159
158
159
156
157
156
159
157
158
158
160
155
156
158
135
100
113
116
110
105
100
109
125
154
168
173
176
177
175
171
154
159
178
184
187
188
189
190
190
190
191
189
191
190
190
190
190
192
194
191
192
194
193
194
191
192
194
191
193
195
195
193
194
193
194
196
196
197
197
196
195
194
196
198
197
197
197
196
196
194
183
135
97
94
96
97
108
108
106
105
114
119
137
158
167
168
169
165
161
161
172
165
158
157
153
142
127
128
136
139
140
145
115
85
119
149
156
156
156
158
155
154
151
153
152
153
152
149
149
143
146
139
138
135
135
130
131
123
120
125
130
124
113
102
101
98
105
112
118
125
117
101
76
47
29
32
62
88
103
116
118
123
126
123
119
127
149
170
180
172
158
152
149
150
149
147
142
139
137
137
134
143
157
161
151
142
161
167
165
166
169
167
170
174
183
191
198
205
213
216
220
220
210
197
191
188
178
177
180
180
180
180
181
183
181
181
178
181
181
182
179
180
180
177
180
178
177
177
175
177
176
174
173
174
174
172
170
169
165
168
168
168
169
166
163
166
164
161
166
165
161
159
159
161
157
155
159
157
158
160
157
158
159
158
157
157
159
156
158
159
135
101
101
104
109
102
97
101
133
162
172
174
176
176
176
166
147
167
181
185
186
188
188
189
191
190
189
188
191
191
189
190
189
189
193
191
191
193
192
192
194
193
193
192
194
195
193
195
195
195
194
195
197
196
196
198
198
196
197
198
199
197
197
198
196
193
169
111
92
88
89
99
107
106
106
109
109
109
111
122
141
157
165
164
159
163
171
165
161
159
156
142
128
136
142
145
152
145
96
98
143
153
157
158
158
159
156
152
153
152
151
152
152
152
148
145
148
145
138
133
138
134
131
124
117
122
128
126
115
106
106
100
105
113
123
131
130
125
121
113
89
85
100
105
113
120
117
121
119
118
115
116
134
163
184
187
173
152
146
148
149
147
148
145
140
135
137
152
164
148
143
157
164
167
166
164
169
169
167
170
173
184
193
203
214
218
220
221
210
195
190
181
176
178
179
179
178
180
180
179
180
180
179
181
181
180
178
180
180
179
179
179
177
176
175
175
176
175
173
175
173
172
171
168
166
165
168
167
166
166
164
165
165
161
163
166
161
159
158
158
157
155
156
157
156
157
159
159
158
154
158
158
158
160
157
158
134
115
109
106
109
107
109
117
150
167
171
174
177
177
173
155
153
177
182
186
188
189
189
189
189
190
188
190
191
190
191
189
189
190
191
191
191
191
190
192
193
192
192
192
194
195
193
194
196
196
197
195
195
195
195
197
195
196
197
197
198
197
197
198
196
190
137
96
86
92
97
97
102
106
107
109
111
106
102
97
101
115
139
154
158
168
171
166
164
163
159
141
138
144
153
158
160
134
92
124
153
160
162
162
159
160
158
153
156
153
153
154
156
153
151
151
151
148
146
142
142
144
135
132
125
122
123
122
117
113
112
111
119
126
131
132
132
133
133
128
125
124
127
128
130
132
128
123
117
112
112
114
128
152
175
187
187
169
150
143
145
143
144
146
140
141
146
161
154
137
152
162
167
167
165
164
163
165
164
168
175
187
195
200
208
214
218
219
211
195
185
173
178
178
180
180
181
180
179
179
181
180
179
180
180
180
179
180
178
180
179
178
178
176
174
173
176
172
171
172
171
171
170
169
165
167
167
166
163
165
165
164
162
162
164
162
159
159
162
159
157
158
157
157
158
157
158
158
155
156
158
163
159
157
157
159
132
124
122
109
99
107
119
133
164
168
171
174
177
176
168
152
167
181
183
188
189
188
188
189
191
190
189
190
192
191
190
189
190
190
191
190
191
192
192
192
192
193
192
192
194
193
192
194
196
195
196
197
196
197
195
195
196
196
195
197
197
195
197
198
196
180
118
93
90
94
97
99
100
107
109
110
109
98
94
94
94
95
95
109
141
164
170
168
167
164
157
144
146
153
160
163
157
113
100
147
158
161
165
165
163
160
158
155
155
158
159
160
159
155
155
155
153
150
152
150
148
148
140
140
140
136
136
112
98
107
116
120
129
131
134
133
130
130
137
137
135
134
132
130
131
133
129
126
120
117
112
117
127
145
162
178
185
180
162
143
141
149
149
142
140
147
157
155
137
152
163
167
167
166
164
161
162
165
166
168
170
176
179
185
199
212
218
219
213
196
176
175
177
178
180
179
179
179
180
182
182
180
181
181
181
181
179
178
179
179
178
179
179
176
173
173
174
170
171
172
172
172
171
170
170
170
167
166
166
166
164
164
163
162
162
163
163
163
161
161
160
160
157
157
158
158
158
155
157
158
158
160
160
159
158
159
133
115
116
111
105
109
118
149
167
172
174
175
176
172
157
157
178
183
186
187
186
184
188
188
189
188
189
189
190
190
190
190
191
191
189
190
191
192
191
189
191
194
192
191
194
192
192
195
195
195
195
196
194
196
195
197
197
196
197
198
197
196
197
197
192
164
107
92
94
96
102
104
108
103
102
103
105
99
96
95
91
89
83
84
126
164
168
168
167
165
159
153
158
163
163
164
144
102
128
163
167
167
167
168
167
167
164
159
159
161
163
163
162
159
160
157
155
152
153
151
152
150
145
147
151
150
142
98
48
55
78
102
123
131
131
136
134
131
133
133
133
137
132
131
132
130
130
130
129
124
121
120
124
137
153
169
179
183
173
154
143
150
147
145
147
151
154
138
145
160
166
168
166
163
158
161
163
166
167
168
170
176
184
189
198
205
210
214
211
191
176
177
179
179
180
180
179
178
181
181
180
179
181
180
182
181
180
181
180
177
178
179
178
175
175
172
171
171
171
173
172
171
168
170
170
169
167
165
166
166
164
163
163
164
160
162
162
163
162
162
161
163
160
155
157
154
155
156
158
158
159
154
157
157
157
157
134
109
112
111
108
108
121
157
169
172
172
175
174
169
156
170
184
185
187
188
186
187
189
188
189
189
189
188
189
191
190
188
190
191
190
192
192
190
192
194
192
192
194
192
193
192
192
195
194
194
194
195
193
194
196
197
197
196
197
196
196
197
196
196
184
138
99
94
93
96
101
107
109
102
107
102
102
101
99
96
87
85
78
82
132
165
167
164
164
162
155
155
161
165
163
160
126
109
155
171
173
170
170
171
168
169
167
164
165
165
166
165
166
164
165
162
160
160
160
157
157
156
154
151
152
146
132
91
34
22
26
37
63
90
113
124
129
128
128
132
130
133
135
137
134
131
131
128
134
133
127
124
127
133
140
158
167
180
178
166
155
151
147
151
153
147
134
140
157
164
169
167
161
159
163
163
165
167
170
172
172
178
185
189
199
208
212
217
212
191
181
178
179
180
181
181
181
181
180
181
181
178
180
181
180
181
182
181
180
177
178
178
178
175
174
175
172
172
171
173
171
170
167
170
170
170
168
166
165
163
164
163
164
165
162
162
158
161
159
161
158
158
159
160
156
156
158
159
156
158
159
155
158
159
157
158
132
105
114
109
104
113
137
165
167
171
174
174
174
161
158
178
186
186
187
187
187
189
188
187
187
191
189
187
190
190
189
190
192
192
191
194
193
190
192
193
193
192
192
193
192
192
193
192
194
193
194
195
194
192
194
195
195
196
195
194
195
196
194
193
168
115
96
91
93
99
103
104
105
101
103
103
100
89
95
95
90
82
75
77
133
165
165
168
167
158
154
155
162
165
166
154
103
129
168
174
176
172
169
171
173
173
171
170
167
168
170
167
168
167
169
166
164
163
164
164
163
161
164
158
137
121
115
80
47
30
24
22
23
29
49
74
97
116
127
128
128
132
132
132
132
129
126
126
133
135
131
129
128
130
134
144
157
170
177
177
167
156
153
151
142
131
137
155
163
165
170
162
155
158
162
164
166
166
166
166
169
173
179
186
198
208
214
218
215
194
183
179
179
180
182
183
183
179
177
180
179
180
181
179
177
180
181
180
180
177
178
178
178
176
175
176
173
171
171
171
171
172
171
170
169
170
169
165
165
165
165
163
163
163
162
162
162
159
159
160
160
160
158
156
156
155
158
158
157
155
158
156
156
158
158
157
134
100
111
109
107
119
150
168
169
171
171
171
168
156
168
181
184
184
185
185
186
187
187
187
187
188
188
188
192
190
189
188
191
191
190
191
192
191
191
192
192
191
192
192
193
192
194
195
195
195
195
194
192
195
196
196
195
195
196
195
196
194
193
188
151
104
90
89
88
96
105
103
105
101
106
103
95
92
95
92
86
78
73
81
138
161
165
170
166
155
151
156
162
164
160
130
97
128
157
169
170
172
172
171
173
173
173
171
167
169
169
169
169
168
167
165
166
167
165
166
169
172
168
156
131
129
127
112
94
76
63
50
43
33
27
26
36
56
93
114
124
129
131
130
125
125
123
124
130
131
130
129
126
125
125
136
148
158
171
179
175
165
156
145
132
138
154
163
164
166
168
158
158
161
164
164
163
165
165
165
169
175
182
189
199
204
208
213
211
198
184
180
180
181
181
179
177
178
180
181
180
183
181
180
179
179
179
177
176
177
178
177
177
177
176
174
172
171
172
170
169
169
171
171
168
168
169
168
167
164
166
164
164
159
159
161
161
161
159
159
159
159
157
157
158
158
160
156
154
156
157
158
158
155
155
156
131
106
110
107
117
141
161
170
171
170
171
168
156
156
176
184
185
186
185
188
189
189
188
188
189
188
188
189
190
190
190
190
190
189
190
190
191
192
193
193
193
194
191
192
193
193
193
193
193
193
193
192
195
195
196
196
197
197
196
197
196
194
193
179
126
94
91
87
90
98
101
102
102
104
107
101
97
91
92
88
83
75
67
88
145
160
164
167
163
154
151
160
165
167
156
114
94
83
104
130
159
168
171
171
172
173
175
172
169
171
170
171
169
170
169
165
166
168
168
169
170
171
166
152
130
130
127
117
104
102
106
104
105
99
85
73
55
55
71
94
110
120
126
123
123
123
119
117
119
124
127
126
120
115
116
129
136
145
159
173
179
175
159
132
138
152
160
162
164
164
159
156
161
163
161
162
164
168
166
167
169
171
177
182
192
201
207
211
208
196
183
179
180
181
176
177
177
178
180
181
181
182
181
179
180
179
177
178
177
179
178
176
176
177
175
175
173
171
172
172
170
169
170
170
171
167
166
167
163
163
166
164
163
162
162
162
159
161
160
160
158
158
157
155
159
158
157
155
157
159
156
157
156
154
156
158
132
112
116
112
128
153
169
168
171
172
171
166
151
166
180
185
187
187
185
186
189
187
187
188
189
189
188
189
188
189
189
189
192
190
191
192
192
192
191
190
191
192
192
193
194
194
195
192
193
193
193
194
196
196
194
194
194
195
196
195
195
195
191
162
107
94
88
85
92
97
101
100
100
101
104
99
101
96
92
85
80
74
60
99
156
166
169
165
157
146
152
163
165
164
140
102
127
120
91
83
106
130
159
170
173
173
170
171
171
170
170
169
168
169
169
165
169
167
171
172
173
169
165
149
127
127
123
118
104
102
110
120
123
127
126
121
120
118
118
115
117
117
121
118
119
122
119
115
110
123
129
128
123
113
112
120
125
137
152
164
179
181
166
150
150
161
164
162
162
158
154
160
162
161
159
163
166
166
164
165
168
171
174
180
188
199
207
213
210
196
183
176
178
179
177
178
179
180
180
179
180
181
180
180
181
180
178
177
175
176
176
177
176
176
174
174
173
168
170
170
170
171
170
167
163
164
162
164
162
162
164
164
163
162
162
161
160
160
159
159
160
159
158
154
155
156
157
155
159
158
155
157
157
154
155
155
133
102
111
110
137
161
168
171
171
171
171
157
155
176
181
184
182
186
187
187
187
186
187
187
189
191
190
189
188
187
189
188
190
189
192
193
190
192
192
193
192
192
191
193
194
193
194
193
193
193
192
194
196
195
195
197
195
195
196
197
195
194
187
141
95
88
84
86
93
95
100
99
99
96
97
101
98
92
87
81
78
66
58
106
158
170
171
169
157
145
152
161
165
160
120
127
163
162
146
117
92
91
119
159
169
171
171
172
172
170
169
171
170
168
168
169
171
167
171
171
173
171
168
155
136
131
125
112
97
95
102
112
117
126
129
130
133
136
135
132
126
124
123
120
118
113
110
103
101
116
125
128
127
122
119
121
126
134
147
155
172
179
178
165
162
164
165
161
154
152
155
162
159
161
163
164
166
166
164
165
169
172
175
182
194
207
217
222
217
198
184
179
181
180
180
180
181
180
181
181
182
180
178
179
179
179
179
178
177
176
173
174
175
174
173
171
173
170
173
170
172
170
171
169
166
165
163
163
164
166
165
164
162
159
160
161
162
159
160
159
158
158
158
156
155
159
159
158
157
158
156
158
156
155
155
155
132
85
88
114
150
163
168
170
170
171
167
153
165
179
184
185
183
185
186
186
186
188
188
188
188
189
189
188
188
188
190
188
189
190
189
190
191
193
192
192
191
192
192
192
193
192
192
193
194
194
196
196
196
193
194
196
195
194
194
195
193
191
172
118
91
82
79
88
95
97
100
99
94
96
96
97
96
91
83
72
69
57
56
114
163
169
170
168
158
149
156
162
163
152
112
147
168
168
165
154
150
129
107
126
156
168
170
171
171
168
170
171
170
169
167
169
171
171
173
171
172
169
164
159
154
145
129
107
97
94
100
106
112
124
126
129
132
135
135
133
126
128
126
124
124
112
105
104
106
115
122
125
124
121
125
122
125
128
137
146
162
175
179
172
168
167
164
155
155
156
160
162
161
161
162
162
163
167
169
169
166
171
178
188
197
205
206
210
209
196
183
179
181
182
182
182
183
181
182
182
182
179
179
178
179
179
178
178
177
176
172
172
173
173
172
173
172
170
171
169
170
170
170
170
168
165
167
167
164
164
163
163
163
163
162
160
161
160
160
157
155
158
157
157
157
159
160
158
156
157
157
159
156
154
154
155
132
74
86
132
159
167
169
169
170
170
159
155
175
182
184
184
185
182
185
186
187
188
189
188
187
188
187
188
190
189
190
189
189
190
190
191
192
192
192
191
190
193
194
192
191
192
192
193
193
193
195
194
192
194
194
194
195
193
194
195
194
187
153
104
83
80
83
94
95
95
95
101
97
94
92
98
90
86
79
74
66
52
55
123
165
170
169
165
155
156
160
163
163
135
118
162
172
173
171
169
172
160
125
91
116
151
167
171
171
169
168
170
169
167
167
169
171
174
175
173
170
165
161
161
167
164
155
137
107
100
105
109
115
125
124
130
130
132
136
133
133
134
132
132
129
118
109
114
114
113
119
118
120
121
125
122
121
124
129
138
154
167
174
175
170
165
158
150
154
158
162
161
160
160
163
165
165
168
166
167
169
171
177
185
190
197
202
207
205
193
182
179
179
179
181
182
181
180
181
181
181
178
178
178
179
178
176
177
178
177
174
176
176
172
170
172
172
171
170
171
168
169
170
168
168
165
165
166
163
161
161
163
162
163
162
159
160
161
159
157
159
159
159
157
157
158
158
159
155
154
153
156
155
157
154
154
129
83
99
146
166
169
169
169
171
165
151
164
178
182
183
183
186
184
186
187
188
188
187
187
187
187
188
190
189
190
190
189
189
189
191
190
193
192
192
195
193
194
193
194
192
194
191
192
192
192
195
195
194
195
195
194
194
192
192
195
192
179
128
97
87
84
90
97
93
90
91
95
97
97
95
94
89
84
78
68
60
47
57
133
164
169
170
165
155
158
163
166
155
119
143
169
172
172
173
174
172
169
156
130
106
106
124
139
145
161
167
170
168
167
167
169
173
172
174
171
168
164
162
164
170
170
169
160
119
79
85
98
108
116
124
129
129
131
132
133
135
137
136
137
131
119
112
111
116
110
110
113
117
121
122
119
120
122
124
132
145
154
163
173
174
164
152
154
157
162
162
159
161
162
167
165
166
165
165
171
170
172
177
183
189
195
202
207
206
193
182
180
182
183
181
181
182
181
181
181
181
181
178
177
179
178
176
177
177
174
172
173
176
175
170
171
170
169
170
167
166
168
168
166
165
165
163
165
166
162
163
163
164
162
159
162
163
159
159
157
157
156
157
158
158
155
154
153
156
158
157
156
156
158
157
155
131
89
121
155
163
167
169
169
168
158
149
171
182
182
185
186
184
185
185
186
188
187
186
187
188
187
188
188
187
189
188
189
189
190
190
190
190
190
189
190
193
194
194
193
193
193
193
194
192
194
195
194
194
194
192
194
195
196
194
194
189
164
114
98
89
92
96
93
95
93
94
97
95
92
90
86
88
83
79
65
55
42
63
136
164
172
170
159
155
159
165
165
145
125
158
170
172
172
175
177
171
165
140
129
140
143
135
130
145
164
167
169
168
166
164
168
170
171
171
166
163
163
163
170
173
174
171
167
144
91
54
54
65
79
90
106
115
122
125
128
132
132
136
135
131
121
114
114
115
110
112
111
116
114
117
117
118
119
122
125
131
141
155
163
170
164
160
157
161
163
155
157
164
164
163
166
168
167
166
169
171
175
177
184
191
198
205
209
207
197
182
179
181
181
179
181
182
182
180
181
180
180
179
179
179
178
177
175
176
174
173
174
172
171
170
171
170
170
166
168
169
169
168
166
164
164
165
164
162
163
160
162
163
162
161
161
163
159
155
158
156
157
156
158
160
156
153
157
156
157
156
156
157
157
155
157
131
107
144
161
165
166
167
168
165
149
158
175
182
182
183
185
186
187
187
186
187
187
187
189
187
186
188
187
188
188
188
185
188
189
189
190
192
189
191
191
193
193
193
191
193
194
195
192
193
193
194
192
193
193
191
193
193
195
194
191
186
147
105
101
99
96
98
97
97
96
93
94
90
94
93
86
81
80
76
59
50
42
75
145
166
172
168
160
155
160
166
161
128
137
168
174
174
171
173
174
167
127
93
103
141
163
167
169
171
171
170
168
168
167
163
161
160
166
167
163
161
167
170
173
173
173
172
171
165
153
133
123
100
74
44
40
58
82
101
121
126
126
127
128
128
122
115
115
115
111
112
109
113
107
108
110
113
117
118
118
123
134
140
151
160
167
166
164
162
153
153
159
164
162
165
167
168
170
168
169
171
175
180
185
194
202
211
214
215
197
182
180
180
179
179
181
182
181
179
179
178
177
177
178
181
179
177
176
174
175
173
173
172
173
172
169
170
169
168
170
170
167
167
166
167
166
167
163
162
162
163
161
162
161
161
162
163
159
158
157
157
159
157
157
159
154
154
154
153
153
155
156
159
154
154
154
129
120
154
160
168
167
167
167
157
149
170
182
180
183
185
187
185
187
185
184
187
188
188
187
187
187
187
188
189
189
189
187
189
189
190
190
190
191
193
193
194
193
193
192
194
194
193
194
192
193
196
194
193
194
194
193
192
192
191
193
177
127
106
106
102
97
101
100
96
93
89
90
90
89
88
85
81
77
70
55
45
42
89
152
167
171
164
155
157
162
168
152
116
156
171
174
172
170
173
169
141
96
93
100
131
166
169
169
172
172
169
169
167
164
165
160
158
163
163
162
166
167
172
174
174
172
169
169
168
167
167
163
156
128
57
44
49
67
90
111
126
124
125
122
115
109
110
111
112
113
112
109
107
103
100
99
105
112
114
117
120
125
133
142
151
159
164
166
156
146
157
161
162
163
166
168
168
168
170
172
173
172
174
181
188
198
205
209
205
191
184
180
180
181
181
181
182
180
179
181
179
177
176
178
179
177
174
173
172
174
173
172
173
172
170
169
169
171
171
170
168
167
167
168
166
166
168
164
164
164
163
162
164
161
159
158
157
159
158
159
160
158
159
157
157
158
154
153
154
154
154
153
154
152
153
155
128
138
160
163
168
167
170
164
148
158
178
182
182
182
184
184
183
186
186
186
188
187
188
187
188
187
187
187
187
189
189
188
188
189
190
191
191
191
194
193
194
193
193
194
194
193
193
192
192
193
193
195
194
195
195
194
194
192
190
189
167
119
112
111
110
106
103
99
99
100
95
90
89
86
84
82
76
70
64
49
39
47
101
153
168
171
164
155
158
161
166
135
128
167
174
176
173
173
171
162
114
99
108
111
136
166
170
170
170
169
169
171
171
166
165
159
158
162
164
163
165
169
171
173
175
173
169
169
168
169
168
166
159
113
68
73
83
94
110
118
126
122
119
112
110
109
111
109
114
112
111
108
107
104
101
99
104
109
112
116
117
120
125
135
141
145
149
155
158
156
160
162
163
164
165
169
168
172
173
174
174
176
178
186
191
196
202
207
203
193
182
181
182
180
180
181
182
179
178
180
180
178
178
178
175
177
174
174
171
172
171
172
172
171
170
171
169
169
169
166
166
169
165
166
167
166
166
164
166
164
163
160
160
161
160
161
160
159
159
160
159
159
159
157
156
158
155
154
152
153
153
154
154
153
151
154
127
150
161
162
161
166
167
153
149
171
180
181
182
184
184
184
185
186
187
185
185
186
186
188
187
186
187
189
188
189
187
186
188
188
189
190
191
192
192
191
191
193
194
194
193
193
193
193
192
193
191
194
193
195
196
196
193
190
191
187
149
107
112
115
116
106
104
97
94
97
96
91
87
83
79
79
70
62
54
43
39
55
114
155
168
169
162
156
160
166
156
119
147
172
173
173
172
173
172
158
105
111
116
113
140
169
171
170
171
169
168
170
171
172
172
168
165
166
169
171
168
169
170
172
173
173
171
168
170
169
168
166
160
114
87
95
106
106
116
127
127
125
117
113
113
107
111
111
105
112
113
111
106
103
108
106
104
105
107
114
112
114
119
128
134
137
142
144
153
155
158
163
163
164
164
167
167
169
170
173
175
175
179
188
195
199
204
208
205
193
182
181
180
181
180
180
179
180
182
180
180
178
177
178
175
176
174
174
172
172
172
172
174
170
172
170
170
169
167
168
165
168
166
163
165
165
165
165
163
164
164
162
161
160
159
159
158
159
162
161
158
158
158
155
155
156
156
155
154
154
155
153
150
152
153
153
128
156
162
163
162
167
163
148
159
176
180
183
185
184
181
184
183
186
185
186
186
186
190
187
186
185
187
189
188
189
186
186
188
190
190
190
192
193
192
193
192
192
190
192
191
195
194
194
193
193
194
194
193
195
196
195
194
191
190
181
129
106
111
113
115
108
108
100
94
100
90
87
83
81
72
69
67
58
49
42
42
66
127
159
167
164
159
155
160
165
143
120
161
176
176
174
175
170
170
155
112
100
102
118
156
169
171
170
170
168
168
169
172
172
174
171
167
168
171
172
173
176
174
174
173
172
169
171
169
170
167
170
167
135
108
108
114
110
118
123
126
120
113
112
116
112
111
114
110
109
109
111
110
107
112
106
107
109
110
111
105
109
117
124
128
128
134
140
142
146
153
156
160
166
166
168
169
170
171
171
173
176
184
191
197
202
206
209
208
195
183
181
182
181
181
178
179
180
179
179
178
177
175
175
177
176
174
173
175
173
171
172
172
172
169
169
170
170
168
169
167
169
166
166
166
164
165
164
162
163
164
162
163
161
157
160
160
159
159
158
156
157
155
154
155
154
156
156
155
153
155
153
151
154
154
152
127
159
164
165
166
167
151
147
170
176
180
183
183
181
182
184
182
183
184
184
185
184
187
188
186
187
187
188
187
187
186
186
188
189
189
190
191
192
192
194
192
190
190
190
191
194
191
192
193
194
192
191
191
195
196
196
195
194
190
170
108
105
115
114
112
104
98
102
92
95
92
83
77
73
69
63
59
50
44
40
46
82
139
165
168
159
152
156
163
162
121
139
168
174
174
175
175
173
171
162
137
115
135
161
168
169
171
170
170
171
170
171
170
170
168
167
166
170
171
173
173
176
174
173
170
168
167
168
166
166
168
172
172
163
139
122
119
114
110
116
119
113
113
116
117
114
111
112
111
114
109
108
113
115
115
112
111
114
109
105
104
107
110
108
114
119
128
134
135
143
149
152
158
162
166
166
169
169
170
173
175
178
184
190
197
202
209
211
210
199
184
180
183
181
181
178
179
178
179
179
178
179
178
176
176
174
175
175
174
172
171
172
169
172
170
170
171
171
166
167
165
168
165
164
167
166
165
165
163
163
163
163
163
159
158
158
159
159
157
161
157
157
157
155
156
154
155
155
153
151
153
153
151
149
151
152
126
161
163
165
167
163
144
159
176
178
179
182
183
182
183
185
183
182
183
183
184
183
185
186
186
186
187
187
187
188
188
187
188
191
190
189
189
191
190
193
194
191
189
188
191
192
190
192
191
191
192
194
194
195
196
196
195
195
186
141
92
102
111
111
111
107
100
99
97
93
87
82
76
65
58
58
49
46
39
40
51
98
146
165
170
160
151
159
162
151
117
155
172
173
172
172
173
174
172
171
169
165
167
168
171
171
168
167
169
171
172
170
171
171
167
166
167
172
173
175
173
173
173
172
170
168
166
164
167
165
170
171
171
170
162
152
136
117
109
107
110
115
112
121
119
116
115
114
112
113
112
113
113
113
111
112
108
109
109
101
102
106
104
101
107
114
120
126
133
138
142
146
153
160
166
166
169
171
171
174
175
177
183
185
193
201
208
215
218
210
192
180
179
179
180
180
181
180
178
177
176
176
177
177
175
173
174
174
172
169
172
170
170
170
170
168
170
172
166
167
166
165
166
166
166
165
164
165
165
165
163
163
162
158
161
161
160
158
159
159
157
156
155
153
156
152
155
155
154
154
153
154
152
151
150
147
125
159
158
165
163
154
147
167
176
178
179
181
183
183
182
183
183
181
182
183
184
183
185
187
185
186
187
185
186
188
189
188
188
191
189
189
189
191
190
190
190
191
190
191
191
190
191
192
191
190
192
194
192
194
195
194
195
193
175
119
98
103
113
109
107
101
102
99
95
95
86
80
68
58
53
50
46
44
39
41
64
114
154
168
166
157
153
160
160
133
128
165
172
173
175
172
171
172
172
170
170
170
171
171
169
171
168
164
164
168
171
172
172
169
167
170
171
173
175
175
174
174
175
173
169
168
167
164
164
166
166
168
167
165
165
165
158
149
131
114
110
110
108
119
116
116
117
118
115
110
111
111
113
111
111
113
109
111
111
104
106
105
103
102
103
110
112
120
129
134
140
144
145
154
163
166
169
169
173
173
175
174
181
183
189
196
204
212
218
215
196
182
180
180
179
179
179
178
177
177
174
176
176
175
174
176
176
175
172
170
172
170
169
168
170
168
170
168
166
166
167
166
164
164
163
163
165
166
165
161
160
161
159
158
159
158
159
159
160
156
157
155
156
155
154
155
155
155
152
154
152
153
152
151
148
147
126
159
162
164
160
146
156
174
178
180
179
180
181
181
184
183
183
184
185
184
185
184
184
185
185
187
186
186
187
189
189
189
189
190
189
189
189
189
191
192
190
188
189
192
193
193
193
193
192
191
193
193
192
194
195
193
193
186
151
104
93
99
106
107
105
105
104
104
99
87
82
70
59
54
48
46
45
41
36
47
77
121
156
169
163
154
152
159
154
116
147
169
172
175
176
171
171
172
172
170
170
169
172
173
172
171
168
165
166
170
171
171
171
170
169
173
175
176
176
175
174
175
173
173
167
168
166
164
164
164
162
163
161
161
160
162
160
161
154
140
116
107
110
116
118
115
121
119
116
112
111
114
109
113
111
109
109
110
106
103
101
107
105
103
103
106
108
115
122
128
138
144
145
149
159
163
169
170
172
173
174
176
180
183
188
194
200
205
210
205
190
181
180
180
177
180
179
178
179
175
175
177
175
173
172
173
173
173
172
173
171
168
170
173
170
168
169
169
168
167
164
165
165
162
162
163
162
164
164
162
161
162
162
158
158
159
159
157
156
156
154
153
153
155
154
153
155
152
149
152
151
149
150
151
149
148
125
161
164
164
150
143
169
176
177
179
179
180
180
182
183
183
183
184
185
183
186
184
185
187
187
187
185
186
189
189
189
189
189
189
188
187
188
190
190
190
189
188
190
190
192
194
194
194
194
191
194
193
192
193
192
194
193
174
130
101
85
95
105
107
110
110
105
99
95
87
77
66
56
52
48
46
42
40
40
62
93
127
157
166
161
152
152
160
130
114
163
172
172
174
175
172
174
172
171
171
171
170
170
173
172
175
171
171
170
171
171
171
169
168
170
173
175
177
177
177
175
170
169
168
168
166
164
161
162
159
160
156
155
153
153
156
155
160
157
152
138
121
114
107
109
114
117
116
113
115
114
114
117
114
111
109
109
111
108
105
98
103
104
100
105
107
106
113
114
122
135
144
145
145
152
159
167
169
172
171
175
177
179
182
189
196
203
209
212
206
191
183
181
182
179
177
179
179
178
178
177
178
175
174
176
174
171
172
171
172
171
170
170
170
170
170
170
170
168
167
169
165
163
165
163
163
163
162
163
162
162
162
159
162
160
159
158
158
159
157
155
154
156
152
153
152
152
151
154
152
150
151
149
142
149
145
120
163
164
161
139
155
173
178
178
179
181
181
181
182
184
185
184
183
183
183
183
185
187
187
188
187
186
185
187
188
188
189
189
189
189
189
189
189
190
189
188
188
189
189
190
194
193
193
190
189
193
192
191
194
193
194
186
144
113
93
83
91
100
107
107
109
102
96
91
79
69
62
53
49
48
45
41
40
49
76
101
129
153
158
158
151
154
150
107
129
169
170
168
170
173
174
175
172
172
172
170
170
173
173
171
170
171
171
170
171
169
170
171
171
174
175
176
176
174
173
172
170
167
162
162
166
165
161
159
153
153
150
151
148
146
144
144
152
151
152
155
148
130
114
102
107
108
110
110
109
110
112
115
116
113
113
107
110
107
104
104
106
104
103
104
103
104
106
110
115
122
132
144
146
144
153
163
170
173
174
175
177
181
184
189
196
203
209
214
211
198
183
181
181
180
179
179
178
177
178
177
177
176
175
173
173
172
172
170
170
171
171
172
172
171
168
170
171
168
165
165
163
164
163
163
163
164
164
164
161
162
161
159
160
161
157
157
154
154
156
154
152
156
154
155
149
151
147
152
152
151
147
144
140
143
143
117
162
162
146
142
167
177
176
179
179
179
180
181
182
185
183
184
182
181
183
181
185
184
184
186
187
187
187
187
189
188
188
188
190
189
189
188
189
189
189
188
188
189
189
191
193
193
192
191
192
194
192
192
192
189
191
170
124
102
82
86
92
98
108
101
105
99
93
84
74
64
55
51
48
48
44
38
47
68
90
110
135
149
149
142
140
149
132
103
148
167
169
168
167
169
171
171
173
173
173
173
172
173
172
167
165
172
174
171
171
169
170
173
174
175
178
178
175
175
174
172
169
152
140
162
167
165
159
153
149
148
146
146
144
142
145
146
149
151
155
158
162
156
138
116
107
101
108
105
107
109
108
114
116
114
113
113
113
105
106
109
111
103
100
110
103
104
106
106
109
115
128
139
142
142
147
159
170
174
176
176
178
179
184
188
196
202
207
214
215
204
186
181
179
179
179
178
178
178
176
175
177
175
175
173
174
173
170
170
170
171
172
171
172
170
168
169
168
166
167
165
164
163
164
165
163
163
162
160
160
162
161
159
160
160
157
158
156
156
156
155
152
152
153
153
151
153
149
150
151
148
145
146
144
142
137
116
159
153
142
153
173
175
175
178
180
180
181
182
183
182
182
183
184
183
185
183
185
184
183
187
186
185
186
186
188
189
189
188
188
187
188
187
188
188
189
188
189
189
191
191
194
191
193
190
191
192
194
191
190
191
185
139
98
86
79
83
91
95
102
102
99
93
87
80
68
61
52
46
47
44
41
41
56
82
98
110
141
151
145
131
129
130
103
112
157
165
167
163
166
168
166
165
171
172
171
169
169
169
169
154
159
172
172
171
170
168
168
169
168
171
177
176
176
175
173
171
163
131
139
164
167
164
158
153
148
142
140
144
143
144
147
150
148
153
156
159
163
160
150
129
112
104
105
106
108
105
107
113
111
115
117
117
114
110
110
111
107
108
103
105
105
105
105
109
111
116
123
134
138
143
143
153
167
173
175
176
179
180
182
187
193
201
205
211
215
207
190
181
180
179
179
179
178
176
173
173
173
170
173
174
173
173
171
170
170
172
171
171
171
167
167
167
167
164
163
166
164
162
163
166
164
163
161
161
159
162
161
159
158
159
156
156
160
157
155
157
155
154
153
153
153
154
149
147
148
144
142
141
141
140
141
115
161
148
137
165
172
177
178
177
178
178
180
180
180
180
180
181
183
184
183
183
185
185
184
184
184
185
186
186
188
188
187
188
189
189
188
187
187
188
188
188
189
189
191
190
192
190
191
192
191
192
191
192
192
190
171
118
90
82
79
84
88
95
99
103
97
94
86
77
64
55
48
46
48
47
39
47
74
89
104
117
138
150
145
130
133
119
95
124
158
168
172
171
170
168
167
167
166
166
169
171
169
168
155
149
167
171
170
169
169
172
171
169
169
173
175
175
174
172
171
169
153
130
161
169
171
167
157
150
144
146
139
136
138
139
144
148
151
157
160
162
159
157
144
126
115
114
118
112
111
106
107
110
112
111
117
112
114
115
112
113
113
112
109
108
108
107
107
106
109
114
118
127
132
138
143
152
160
165
170
174
175
178
180
186
193
199
204
210
214
210
193
180
179
179
179
179
180
175
176
173
174
172
173
175
173
173
171
170
170
171
171
173
170
168
169
168
167
165
164
165
164
163
164
163
162
163
163
160
161
161
158
158
158
160
159
157
157
152
150
152
152
152
153
149
155
153
148
147
145
140
140
139
138
136
138
114
159
132
151
169
172
176
178
178
179
180
180
177
177
178
179
179
181
183
181
181
183
184
182
184
184
185
187
188
187
187
186
186
188
188
188
186
186
188
190
190
188
188
190
190
192
191
190
191
191
192
192
193
191
185
152
98
84
76
79
83
87
93
105
105
94
84
76
71
60
53
47
48
47
44
42
64
86
98
108
125
141
140
132
126
126
98
97
139
163
166
165
170
172
172
171
169
168
167
166
169
173
167
141
159
170
172
170
166
168
170
172
174
173
168
172
173
170
170
166
164
136
145
167
169
169
165
157
149
141
141
136
138
140
143
148
150
153
158
161
160
152
143
122
119
116
126
134
130
123
119
111
107
107
105
108
107
115
113
111
114
115
117
113
114
109
108
110
108
108
111
118
124
128
134
141
147
146
141
133
129
133
138
145
161
174
187
199
210
215
213
198
183
182
180
178
178
176
173
175
175
174
175
175
172
173
172
173
170
170
170
171
173
172
166
167
167
165
165
166
166
163
163
164
162
161
163
163
163
162
160
158
158
158
162
158
156
155
152
151
153
152
152
153
150
152
152
145
144
139
137
139
135
136
132
131
108
144
135
164
174
174
176
177
177
177
178
179
179
179
180
181
180
181
183
179
180
179
183
183
184
183
184
187
188
186
186
186
186
188
189
187
187
188
188
189
188
189
189
189
189
191
191
190
192
191
192
194
194
190
179
134
88
74
71
78
77
82
92
96
95
86
82
77
67
58
52
48
50
49
41
55
86
96
105
114
144
157
147
125
120
109
85
122
156
162
164
160
163
168
170
169
168
170
169
168
169
171
154
131
140
151
165
170
171
171
171
175
174
169
155
144
148
140
137
142
134
133
161
172
174
168
163
156
144
138
139
136
141
140
147
152
155
158
163
161
157
145
124
114
118
120
133
141
145
144
146
142
134
129
118
111
111
110
112
114
112
111
110
114
115
113
113
110
108
108
113
116
115
125
128
136
143
143
134
122
110
111
111
110
115
126
142
169
193
208
211
201
186
180
177
175
175
176
172
176
174
175
175
174
171
172
173
171
172
169
171
171
170
169
165
167
167
165
165
167
168
165
162
165
165
165
162
160
161
159
158
161
158
156
157
155
155
155
155
156
155
155
151
152
150
150
144
142
147
142
139
137
136
133
129
128
103
134
145
168
173
175
177
177
174
176
178
178
176
177
179
178
180
181
181
181
181
182
184
184
183
182
184
187
187
185
185
186
186
188
188
187
186
187
188
186
185
189
189
189
189
188
190
190
192
193
193
192
193
190
172
118
84
77
69
77
75
80
92
88
88
86
86
75
68
56
50
46
48
47
42
70
94
99
107
125
155
166
157
134
118
95
89
133
156
160
159
163
164
163
165
168
169
172
171
172
171
167
144
155
159
145
143
156
167
169
172
173
176
169
152
142
154
150
136
131
112
148
169
174
174
170
165
152
143
137
138
135
142
145
152
156
161
162
162
157
150
129
112
118
123
133
142
142
147
152
153
155
152
142
137
138
129
119
109
109
110
105
104
112
108
114
115
111
108
104
110
112
114
119
121
132
140
140
136
128
116
112
108
112
113
119
126
133
148
180
201
198
183
178
175
176
176
177
174
175
173
174
171
173
171
171
170
170
169
169
170
169
169
168
167
168
167
167
163
164
166
165
163
162
163
164
163
162
161
161
158
157
157
158
157
157
157
156
155
152
152
156
151
149
150
147
143
144
143
141
140
135
137
129
128
124
103
132
156
170
170
173
173
173
175
177
178
179
177
179
179
179
181
181
182
181
181
185
184
183
182
180
183
185
185
187
186
187
185
187
187
188
187
186
189
188
187
188
190
190
191
189
190
191
192
191
193
191
193
191
163
100
80
78
73
78
79
82
90
91
86
84
83
76
70
59
48
45
45
44
51
83
96
100
113
137
164
168
159
148
125
88
100
135
141
151
160
166
164
164
166
166
168
172
170
171
169
155
149
165
166
144
132
156
166
170
171
171
170
150
134
150
163
164
163
148
134
168
173
178
173
167
158
150
141
138
140
141
142
149
156
158
160
161
157
150
132
114
119
125
132
140
142
143
149
155
155
154
146
148
153
161
157
142
126
111
106
100
103
108
111
114
110
109
104
101
107
107
109
117
118
128
133
138
142
135
122
112
108
109
109
115
119
128
138
148
172
186
183
178
176
176
173
175
172
173
174
173
172
173
172
171
170
169
170
170
168
168
169
165
167
170
166
167
166
165
163
163
163
162
162
165
161
161
160
160
160
157
154
159
157
157
156
152
153
151
154
151
149
147
146
147
143
141
138
137
133
127
126
124
127
123
102
145
165
171
171
173
173
174
174
176
177
177
177
177
178
178
180
179
181
182
181
184
185
184
183
183
182
183
185
187
187
185
186
189
187
187
188
187
187
187
188
188
189
190
191
191
189
190
190
190
192
191
192
186
145
85
80
76
77
76
80
84
89
88
87
82
82
74
67
56
49
44
43
41
66
96
100
99
110
143
166
169
161
149
105
91
137
149
146
145
148
161
166
167
169
167
167
171
171
173
164
149
160
167
158
129
144
167
172
172
173
173
166
133
122
152
161
164
164
139
149
173
174
174
170
163
156
149
139
135
143
143
146
154
159
162
159
157
149
130
112
116
125
133
138
140
137
145
152
155
157
152
152
161
170
168
163
155
137
115
103
102
106
110
108
110
105
104
99
101
103
107
110
111
114
122
128
135
140
142
133
121
110
100
105
115
120
128
136
147
159
172
176
178
177
177
174
175
174
173
172
171
171
173
171
171
169
171
171
169
167
169
169
168
167
165
165
166
166
165
162
163
163
161
161
162
161
159
161
158
159
159
157
158
158
156
155
151
150
152
150
150
148
147
140
142
142
139
138
136
131
127
129
127
127
118
99
158
168
171
175
174
173
173
175
174
175
176
177
177
178
179
179
181
179
179
181
183
183
183
184
184
183
185
186
185
189
186
187
187
186
186
188
185
188
189
187
188
190
190
190
191
190
191
192
192
190
191
193
180
126
84
78
78
71
74
75
80
85
91
89
82
77
70
62
56
46
41
38
47
83
99
102
105
118
150
166
166
157
132
87
113
156
165
161
153
150
153
157
165
169
169
170
172
172
169
144
144
168
167
146
138
156
170
174
171
170
172
166
138
140
160
165
167
157
140
168
176
175
172
163
157
153
147
142
135
143
144
152
157
158
160
156
149
130
109
115
123
132
139
140
139
145
152
155
157
156
158
171
181
176
168
167
166
156
139
115
108
102
100
102
99
94
88
94
94
101
104
104
109
112
117
122
130
137
145
144
134
113
99
104
114
113
122
133
145
156
165
172
177
174
174
174
172
174
174
172
171
169
170
172
170
170
172
171
169
168
168
169
167
168
167
167
167
163
163
164
164
163
161
163
162
162
158
160
157
157
157
156
156
158
156
150
152
151
149
150
147
145
144
140
142
140
134
135
134
132
129
125
125
121
118
100
161
168
171
173
173
173
173
175
174
174
176
177
179
178
179
179
178
178
180
181
180
182
182
183
184
185
185
186
189
188
186
187
187
188
187
188
187
190
189
188
187
188
189
190
191
190
193
193
191
191
189
189
170
109
78
72
72
71
75
77
83
90
86
85
80
70
67
59
53
47
40
39
61
96
99
96
110
127
151
165
162
150
105
83
136
166
169
169
166
164
159
156
153
158
166
167
171
167
152
118
140
161
158
148
144
150
168
174
168
157
155
143
140
159
161
164
164
140
156
175
176
173
168
160
154
152
148
147
140
145
148
151
157
160
156
150
133
115
115
123
131
138
142
142
144
150
152
157
159
170
182
184
180
176
171
171
168
162
150
129
112
103
100
95
91
90
81
82
85
91
91
101
105
108
111
120
123
131
141
146
142
129
112
104
110
114
122
130
139
150
160
170
175
176
174
173
174
173
172
173
172
174
172
171
169
170
170
169
171
168
168
170
166
167
167
167
166
164
164
163
164
163
164
165
163
164
160
159
159
159
157
157
154
154
153
153
154
152
149
150
149
146
142
139
140
138
137
130
130
126
124
123
121
121
118
95
165
168
170
172
174
172
173
175
174
175
176
176
177
176
178
179
177
179
180
180
180
183
183
182
182
186
187
186
185
185
185
185
188
187
187
185
189
189
190
189
188
189
189
189
190
191
190
191
191
189
189
185
161
94
70
70
74
72
72
80
89
87
80
81
76
69
61
56
49
42
38
40
73
100
93
95
108
131
156
162
159
137
92
101
157
169
173
172
172
172
170
167
162
159
155
152
153
139
104
98
114
125
117
113
109
131
160
166
147
144
153
137
143
149
149
164
154
139
171
175
173
167
159
154
148
149
146
139
143
150
154
157
160
159
150
134
120
115
121
130
135
131
138
140
144
151
154
160
175
187
186
174
170
174
173
167
162
163
161
155
123
104
98
91
81
83
73
72
77
81
83
91
96
100
105
112
118
125
134
139
145
140
124
108
102
109
116
123
134
146
157
168
174
176
175
174
173
172
173
173
170
172
172
168
168
171
170
170
170
169
167
165
165
164
166
166
166
164
162
164
162
162
164
161
162
160
159
158
157
157
157
156
155
155
152
154
151
151
149
146
148
144
143
138
135
132
130
130
127
126
122
121
121
120
117
92
167
171
171
171
174
171
173
175
174
174
173
174
176
177
179
177
179
178
179
178
179
182
182
181
182
184
185
184
184
186
185
186
188
186
188
186
188
188
187
189
188
188
189
189
190
192
192
189
190
189
190
185
147
82
68
73
75
72
79
83
85
85
78
76
70
64
58
54
48
40
35
46
87
94
84
95
110
139
159
161
153
115
86
126
163
168
171
171
172
172
172
172
172
170
162
157
156
128
91
85
97
98
89
84
92
113
126
140
135
138
143
140
125
109
146
165
143
156
174
172
170
164
154
148
142
143
141
143
149
154
157
158
155
150
139
120
119
123
126
134
131
126
135
143
147
154
164
179
186
190
175
158
164
164
167
163
154
161
181
180
137
105
97
91
78
75
72
70
71
73
74
82
84
93
98
105
113
118
125
132
140
141
140
122
114
109
113
121
131
141
153
167
171
172
173
172
172
174
172
172
172
172
170
169
169
171
168
169
169
165
166
164
163
166
164
166
164
164
162
164
162
161
160
157
161
160
156
157
158
156
156
155
155
155
153
152
153
153
147
148
144
139
140
138
139
133
126
128
125
126
126
123
122
114
111
94
169
170
172
172
171
172
174
171
175
176
175
176
175
177
177
178
179
180
177
180
179
181
182
184
181
182
181
183
186
186
186
185
186
188
188
188
189
187
188
189
188
188
190
190
191
191
192
189
191
190
190
186
130
77
72
70
75
76
74
82
83
84
82
72
69
61
54
50
48
40
36
57
89
84
85
98
116
146
158
159
139
95
99
153
165
167
169
169
172
174
174
172
171
174
171
154
141
131
104
104
100
88
87
87
87
103
113
120
129
135
135
115
80
92
146
152
140
167
173
170
167
163
155
150
145
142
144
141
145
154
154
152
152
139
118
113
121
131
140
145
138
137
146
151
154
170
185
190
191
184
167
164
168
159
155
165
166
177
195
186
162
119
102
96
84
79
77
73
65
71
73
78
82
87
97
99
103
111
116
122
128
140
146
138
127
116
114
119
128
137
149
164
172
172
172
172
172
174
171
171
171
170
168
169
170
171
169
168
169
164
168
166
164
163
164
164
162
163
162
163
161
161
161
159
158
160
158
159
160
158
155
153
154
153
155
152
152
150
148
147
145
144
142
139
138
137
132
129
129
127
124
121
118
111
107
88
168
169
170
168
169
172
173
174
175
175
176
176
175
175
177
177
180
180
178
179
179
180
181
182
181
180
184
185
186
184
184
186
185
186
186
186
189
188
189
189
189
189
189
189
191
191
191
191
191
189
189
180
120
75
67
70
75
74
77
84
82
82
76
73
70
60
53
49
45
37
36
62
78
74
87
105
123
153
158
151
115
75
125
158
164
165
167
169
167
170
173
169
169
171
165
139
127
113
126
147
136
122
114
94
87
94
101
103
102
99
98
98
89
102
131
130
150
166
165
163
164
163
158
152
151
148
145
145
144
155
153
148
138
117
113
118
130
138
143
144
145
149
156
161
174
187
192
194
190
180
171
166
161
158
162
170
171
188
193
193
194
154
106
99
90
84
78
76
69
70
70
76
79
88
93
90
97
106
109
116
127
131
140
146
141
128
122
120
123
135
148
163
171
171
171
173
173
171
170
170
170
171
171
167
169
172
169
168
168
164
165
167
165
165
166
163
165
163
163
165
164
162
160
159
162
160
159
159
156
156
153
155
154
154
155
151
149
146
147
144
140
141
141
136
135
130
127
128
127
120
116
115
116
110
103
84
168
169
167
168
169
171
172
173
174
174
176
176
176
177
178
179
178
177
180
179
177
180
182
180
181
182
183
183
184
185
185
185
184
186
186
187
189
189
188
190
190
191
189
188
192
192
189
191
191
189
188
171
111
74
72
69
72
75
80
77
81
77
73
72
65
59
55
50
41
36
39
61
69
70
88
109
120
150
157
141
87
87
150
163
165
164
166
158
143
165
170
159
158
169
165
155
140
119
142
146
135
134
128
110
114
120
105
91
77
77
84
93
99
108
115
126
160
166
163
162
161
160
159
153
150
152
152
155
152
152
151
137
119
113
119
130
142
145
143
146
151
158
166
182
189
191
196
189
179
175
175
167
162
168
172
176
188
193
194
205
204
167
114
97
90
82
79
75
69
69
69
70
70
80
84
88
84
97
105
112
120
123
129
141
148
142
135
130
123
131
141
159
169
171
171
172
174
173
172
171
170
170
171
170
167
169
168
167
167
164
164
167
163
163
164
163
164
163
164
162
161
162
160
161
160
159
159
159
156
158
155
156
152
153
152
149
149
145
146
138
138
140
139
137
133
129
131
127
123
120
118
114
114
106
99
82
167
168
168
169
169
171
171
172
172
173
174
174
176
176
176
178
177
176
181
180
178
179
181
182
182
180
181
183
185
186
185
184
186
187
186
188
190
189
191
190
189
191
189
188
191
193
190
192
192
190
186
163
96
71
71
67
73
79
83
78
79
80
72
70
60
56
54
47
40
34
40
56
59
71
97
104
118
146
150
119
76
117
157
161
164
164
161
126
126
162
161
137
144
158
139
139
125
115
117
111
101
93
86
87
114
129
114
86
70
66
72
72
81
93
99
114
140
156
163
163
163
161
160
154
150
152
152
152
148
145
134
120
115
117
125
139
150
145
145
150
160
175
183
186
190
193
194
183
170
167
164
162
167
167
174
186
195
193
202
210
194
177
141
102
90
84
82
75
74
70
67
70
72
75
75
78
83
91
96
97
106
107
116
128
142
150
147
140
133
129
137
156
168
172
173
172
173
171
171
171
170
170
170
168
171
167
165
165
166
164
166
165
164
165
164
164
161
164
163
160
160
163
159
160
159
157
159
158
154
156
155
153
152
153
152
148
146
147
143
141
141
138
135
134
130
127
123
125
123
120
115
111
106
99
95
79
168
168
169
170
168
168
168
170
173
173
172
174
176
174
177
177
175
176
180
177
177
179
178
177
181
181
181
183
185
187
186
183
184
186
185
187
187
188
188
188
189
190
191
191
189
189
189
191
193
190
186
159
90
73
73
70
68
81
80
83
79
76
70
67
59
57
54
45
37
31
34
48
51
69
83
84
97
115
116
86
86
117
135
139
130
132
121
110
120
124
123
117
117
108
101
99
84
83
82
86
84
83
89
105
116
105
85
78
69
68
67
68
73
84
86
90
109
139
157
165
167
166
163
160
157
159
158
154
149
139
119
108
110
120
129
141
148
146
152
163
177
183
187
191
193
196
185
170
164
163
159
165
165
166
176
193
195
196
211
202
191
183
162
120
101
93
87
79
76
74
69
70
73
71
74
76
80
84
88
90
93
99
108
118
131
139
147
149
142
134
137
152
165
170
171
171
174
170
170
169
168
168
170
168
168
166
166
166
165
165
166
164
165
163
164
163
161
161
162
163
162
164
162
160
157
157
156
155
154
156
153
156
152
151
152
146
145
147
142
141
140
134
135
134
133
125
125
126
118
116
111
106
103
97
92
74
167
167
166
169
169
168
171
171
172
172
174
173
174
175
176
178
176
176
179
178
178
178
178
178
180
178
181
184
184
185
187
186
184
185
185
187
186
189
189
189
190
190
189
189
190
190
191
189
191
192
185
146
82
70
67
71
72
72
78
79
81
75
70
66
60
53
51
46
39
31
41
48
52
65
62
67
91
99
88
80
94
117
125
107
101
123
103
98
103
96
101
101
94
91
89
85
70
74
79
81
91
103
119
127
121
101
76
73
76
76
72
72
79
81
81
93
125
147
160
165
168
167
163
161
158
158
155
148
137
111
92
91
105
120
132
136
141
139
157
179
185
189
190
193
197
194
179
172
170
165
164
162
155
164
184
195
195
206
206
191
188
183
167
140
104
93
88
83
78
74
74
72
70
66
67
73
73
74
80
80
86
97
103
114
119
129
138
145
147
139
135
147
163
170
169
170
170
170
169
170
167
167
168
167
166
164
166
166
165
163
163
162
165
161
162
162
162
164
163
161
162
161
161
157
158
157
155
155
157
156
155
156
152
152
151
147
144
143
140
141
138
136
134
132
130
126
123
124
120
113
109
105
98
93
90
71
164
167
167
168
167
169
169
170
173
170
173
174
174
173
174
175
174
177
177
176
177
178
179
179
182
179
183
183
185
184
186
185
185
184
186
186
187
188
187
188
189
190
191
191
191
192
192
190
194
194
181
126
77
68
64
69
71
75
75
73
78
76
67
66
58
54
53
45
38
37
61
67
66
67
57
79
110
95
68
73
102
141
131
90
95
110
94
86
91
85
84
81
82
85
80
74
70
74
93
108
117
121
129
124
122
104
79
73
89
98
78
75
85
84
83
88
101
131
150
156
157
157
156
155
152
150
140
135
118
101
98
107
122
125
131
135
143
162
177
184
187
191
193
196
198
190
173
170
165
156
155
159
160
172
193
193
203
210
196
188
185
180
175
158
119
93
92
86
79
73
73
70
65
66
70
72
70
70
77
80
83
89
98
106
108
113
126
137
143
144
140
147
161
167
168
170
168
168
168
169
168
167
168
167
165
165
166
165
165
162
163
164
163
163
162
162
163
164
162
162
160
159
161
160
156
154
155
156
156
154
153
153
151
150
149
149
143
143
141
142
138
134
131
128
130
123
119
119
116
108
106
103
97
92
85
70
163
165
167
169
167
171
170
170
170
172
173
171
172
173
173
173
173
179
178
177
179
180
179
181
179
178
183
180
183
182
185
184
184
183
187
186
188
186
186
187
189
188
190
193
193
192
192
192
195
193
178
114
71
66
71
71
74
79
75
74
72
69
62
61
57
52
50
41
33
39
67
73
76
61
53
90
100
78
67
69
94
124
102
82
83
90
79
81
86
83
81
76
82
86
75
75
77
99
119
128
131
130
130
127
118
106
83
72
88
85
73
72
75
72
82
90
118
154
163
162
159
156
152
148
144
133
126
113
101
103
111
122
133
141
152
169
181
185
183
184
187
191
194
196
194
181
174
172
167
163
159
162
176
193
195
194
209
201
189
187
183
179
180
174
145
108
90
83
81
77
73
67
64
63
67
65
68
73
77
76
80
81
93
99
103
109
119
127
136
143
145
146
157
165
167
170
170
171
168
167
167
170
167
166
166
168
166
163
165
161
163
164
162
162
164
164
162
161
162
164
160
157
158
160
160
156
155
156
154
152
152
154
152
151
149
145
143
140
141
137
134
134
131
126
130
121
118
118
112
108
104
99
94
84
82
81
168
167
169
167
165
168
169
170
168
173
173
172
172
171
175
175
174
177
177
176
180
180
180
180
181
182
182
181
184
183
183
184
185
185
184
187
187
187
187
185
187
187
188
191
192
192
190
191
192
192
172
103
72
66
68
67
70
72
72
75
70
70
66
61
55
51
46
40
33
48
71
71
60
47
57
87
86
68
63
61
82
101
83
76
76
83
75
81
90
87
80
80
87
84
76
82
100
121
125
125
129
129
136
131
117
105
80
72
83
88
87
80
71
69
89
102
137
167
170
169
170
170
164
161
153
143
123
104
104
112
121
131
138
154
172
184
185
183
184
185
191
193
195
196
186
171
173
167
164
169
169
174
186
194
195
207
207
192
188
185
180
179
180
178
159
119
95
92
80
80
75
68
66
69
67
63
68
73
73
75
82
85
86
97
101
105
112
121
128
136
142
142
152
163
165
171
169
167
167
167
168
169
168
164
166
167
165
163
164
163
162
163
163
163
164
164
163
162
159
160
162
160
159
158
158
154
154
155
154
152
153
153
150
149
146
147
144
138
140
137
131
133
130
126
124
120
113
112
109
106
95
92
90
84
93
98
169
168
169
168
169
167
170
170
168
171
173
172
173
174
174
174
174
176
176
178
179
180
182
180
181
183
180
181
182
182
183
184
184
187
184
186
186
187
187
188
189
188
190
191
194
191
189
190
190
188
158
93
70
67
67
72
76
70
74
76
71
69
69
62
56
49
45
38
35
56
72
62
43
44
54
76
81
72
72
67
70
83
77
77
74
70
75
84
89
86
80
91
93
96
91
103
119
125
132
131
127
129
131
126
114
103
89
80
85
92
96
87
82
96
121
142
166
171
170
170
172
170
167
161
157
138
106
102
108
120
131
141
153
171
184
185
181
181
187
190
193
196
197
191
174
167
170
170
165
168
174
186
198
195
203
209
195
190
187
179
177
179
180
178
172
141
103
94
84
77
75
72
70
65
62
65
69
68
75
76
78
82
86
94
99
104
108
112
118
130
136
141
151
161
165
169
168
168
168
169
168
167
166
165
166
166
163
164
163
165
164
166
164
162
163
163
164
163
160
159
161
159
156
156
158
157
157
156
154
152
154
151
146
148
147
145
142
140
140
136
134
135
129
122
120
117
109
107
104
96
90
86
82
90
112
104
167
167
166
167
169
167
166
168
170
172
173
171
174
173
173
173
176
176
175
177
179
180
181
180
180
181
180
182
181
182
181
180
184
186
184
186
186
187
186
188
189
188
189
191
192
193
191
191
191
186
149
83
67
67
70
73
75
72
71
69
68
66
65
62
53
49
43
35
36
61
66
46
42
42
49
70
73
75
94
73
68
86
78
77
72
72
74
80
87
95
98
106
115
116
114
120
128
134
138
138
130
126
130
125
116
106
87
88
87
87
93
106
133
138
130
151
170
171
172
172
173
171
166
161
143
111
103
112
119
128
140
154
169
182
183
180
177
183
190
192
195
197
192
177
170
167
169
165
157
162
176
194
194
197
210
199
189
188
183
177
180
180
181
180
176
155
114
94
88
82
79
76
73
67
62
63
66
65
68
71
74
76
84
93
97
101
110
107
113
121
129
136
147
159
165
168
168
167
168
169
168
169
168
167
168
167
167
166
162
164
162
165
162
163
162
163
161
160
160
157
159
159
157
156
157
155
155
155
153
154
154
153
150
149
146
145
143
144
137
135
134
132
127
121
119
117
114
106
99
93
88
84
87
106
118
98
163
165
167
166
165
168
166
166
168
171
171
171
174
174
174
175
176
178
177
177
178
178
179
181
181
180
180
182
180
182
182
183
184
185
184
186
186
187
187
187
188
188
188
191
192
192
191
194
191
184
140
81
66
68
69
73
74
74
73
71
69
63
59
57
50
47
41
34
43
66
51
44
47
40
57
80
66
83
93
70
77
87
80
73
72
84
80
92
95
92
100
114
118
114
120
131
139
137
133
135
134
134
134
122
118
116
96
86
84
79
84
103
134
134
114
156
170
172
172
173
173
171
164
147
115
107
111
121
127
137
151
169
183
183
178
176
179
185
190
192
194
192
179
169
171
164
162
165
166
170
184
193
194
204
205
191
190
186
179
178
180
183
179
180
178
166
132
97
85
81
77
74
74
68
64
63
66
66
66
67
73
76
78
86
90
99
106
106
111
115
121
131
141
159
165
165
166
168
169
167
167
167
168
166
166
166
166
165
162
162
162
163
161
163
164
160
159
160
160
160
159
159
158
158
157
156
156
155
153
153
152
151
145
142
146
140
140
138
133
129
129
130
123
122
116
114
109
102
96
91
84
85
104
118
115
95
164
164
164
164
164
165
167
166
167
170
169
170
174
173
175
176
174
176
177
178
176
178
179
178
180
181
181
181
181
182
182
184
182
182
184
185
187
188
188
188
188
189
190
191
191
190
189
192
190
178
125
76
64
65
69
70
71
69
69
66
64
61
57
54
48
45
40
35
49
54
44
48
41
43
72
75
70
88
81
71
70
73
86
76
82
93
91
97
96
103
114
119
121
120
127
140
144
141
132
134
134
131
127
117
121
116
92
76
75
74
77
90
100
103
133
166
170
173
174
174
173
171
147
116
114
114
122
127
136
150
170
183
182
176
174
179
187
189
189
192
194
188
171
166
161
162
163
159
169
179
194
191
201
209
193
188
187
182
179
181
181
181
181
181
178
173
148
106
89
88
79
76
68
68
65
63
66
66
66
68
71
74
75
84
90
96
98
100
109
113
117
124
137
156
165
168
166
166
167
165
165
166
168
166
165
165
166
164
163
163
162
162
163
163
163
162
160
162
162
159
158
157
157
157
155
157
157
153
151
152
149
149
147
143
143
140
138
137
135
128
128
125
123
115
111
108
104
97
93
84
84
100
115
116
116
108
164
162
163
163
163
166
168
169
168
169
169
171
174
174
176
176
175
175
179
176
176
180
180
178
179
180
181
180
179
183
183
184
184
185
185
185
187
188
187
188
189
189
190
189
188
189
191
191
189
171
118
74
73
69
70
72
72
67
69
71
68
62
57
54
48
43
37
36
46
49
52
50
42
55
81
70
74
78
77
70
61
81
100
78
87
95
96
97
104
120
119
118
119
125
137
141
142
134
125
130
137
134
124
117
118
109
86
72
70
75
73
85
88
102
147
166
173
173
167
168
169
156
118
115
118
119
127
131
147
168
181
181
173
170
174
185
191
192
190
194
192
172
155
157
154
160
147
149
168
191
190
196
208
200
187
187
182
177
180
183
183
181
181
180
180
178
163
124
92
84
81
78
73
70
67
65
62
62
67
70
70
69
74
79
87
92
95
105
110
113
114
126
136
152
163
167
167
167
165
168
167
167
167
167
164
165
163
161
163
164
162
164
164
164
162
159
161
163
159
157
159
158
156
156
154
153
153
154
153
151
149
147
144
144
141
139
137
135
131
128
128
124
121
116
110
107
101
93
87
83
94
111
117
117
126
122
162
164
165
166
166
168
168
170
170
169
172
172
172
174
174
172
173
176
176
176
178
179
179
179
177
178
180
179
181
182
181
183
184
185
185
185
186
185
187
188
188
188
189
190
191
191
193
190
186
167
108
70
68
66
67
69
71
75
70
70
65
55
56
53
48
43
36
36
48
56
52
38
43
52
61
62
74
82
96
72
67
89
88
83
87
96
103
103
112
118
120
121
120
130
138
143
134
126
126
129
134
135
125
124
120
103
78
65
67
69
74
79
78
98
137
162
166
146
126
160
154
119
113
122
120
126
134
143
163
179
176
171
166
171
181
188
189
188
191
194
185
163
156
156
151
155
154
154
179
192
190
204
205
191
190
184
178
178
182
183
183
183
181
182
182
180
172
142
100
87
83
77
74
70
69
69
60
63
61
63
62
67
71
74
81
91
99
105
105
113
115
122
134
152
164
169
168
167
167
165
163
164
167
165
166
166
162
163
164
164
161
163
162
164
161
159
162
159
160
161
160
157
157
156
157
153
149
151
152
149
146
143
142
143
138
135
136
129
130
128
126
122
120
115
107
97
93
88
83
84
95
104
109
123
140
115
162
164
165
163
164
166
167
169
169
167
170
170
172
172
175
174
174
175
173
177
178
177
177
179
179
178
180
180
183
184
182
183
182
184
186
186
187
187
187
186
186
189
190
191
191
191
191
189
187
164
95
65
68
67
64
67
68
71
71
68
63
57
55
49
46
39
29
40
59
60
45
39
42
46
55
65
85
104
101
68
73
84
83
85
94
105
110
106
110
113
123
127
135
140
142
142
132
129
132
137
140
134
127
127
122
99
73
65
69
71
71
72
82
105
114
134
143
114
132
153
128
125
137
140
138
136
146
162
176
172
162
160
168
178
183
186
186
187
192
191
170
159
159
153
149
151
155
171
190
188
197
207
194
188
186
181
177
179
180
182
182
182
180
182
181
181
177
159
118
87
83
76
72
73
72
67
60
62
63
62
63
64
67
71
79
86
92
100
107
114
114
121
132
152
165
166
167
166
165
163
163
165
165
165
165
166
164
164
165
163
163
163
161
162
160
160
160
159
160
160
159
155
156
158
158
154
154
150
150
147
142
143
141
140
139
136
133
131
126
127
123
117
111
107
100
92
89
88
84
101
107
108
124
143
136
111
164
164
165
162
164
164
166
168
168
168
170
169
171
171
172
173
177
175
174
178
178
179
178
178
179
179
183
181
181
182
182
181
181
183
185
185
185
187
187
186
187
189
189
190
193
192
190
189
186
159
89
60
63
63
65
68
61
65
69
63
61
57
56
50
43
36
27
40
57
50
38
42
42
45
56
72
93
102
90
75
79
82
89
95
104
107
105
108
118
119
123
130
141
142
140
139
127
129
131
139
140
135
127
123
113
96
71
68
71
70
63
66
76
79
88
107
109
120
141
122
132
142
145
144
149
144
158
173
169
158
153
160
176
185
185
184
183
188
192
183
162
154
154
152
151
154
161
185
190
194
208
197
189
187
181
181
180
181
182
182
182
182
181
181
182
182
181
174
138
94
87
80
77
73
72
69
61
62
59
60
62
61
66
71
72
79
87
95
102
111
115
123
133
155
165
165
166
165
165
165
166
164
163
164
165
163
163
162
161
164
161
161
161
161
161
160
160
161
159
159
158
156
154
156
154
153
152
153
149
150
143
145
142
140
136
133
132
132
126
120
118
114
111
104
94
88
83
86
100
112
116
123
145
140
127
106
163
165
163
162
163
164
165
165
165
166
167
169
170
170
172
173
173
173
175
176
179
179
177
178
178
179
180
180
181
182
182
180
182
183
183
184
184
186
187
186
187
188
189
188
190
189
188
189
186
147
88
65
62
62
68
70
61
64
64
64
63
59
52
47
41
31
27
39
49
40
38
42
46
50
69
88
94
91
82
81
95
102
106
103
103
104
101
113
126
131
132
138
148
148
135
127
123
127
139
146
140
131
125
117
107
93
72
72
72
67
65
61
62
76
93
104
107
115
110
119
143
148
152
149
147
158
168
166
151
150
157
173
184
185
183
183
184
189
186
173
162
154
145
141
139
159
179
190
191
204
204
188
186
185
180
181
181
182
181
182
181
182
182
182
183
182
182
178
160
117
94
83
78
74
73
70
65
65
61
62
64
63
62
66
74
79
83
86
101
107
115
125
134
151
165
165
166
165
166
167
166
163
163
165
164
164
164
163
163
161
164
160
162
160
160
159
159
158
156
160
159
156
154
152
154
152
149
151
148
146
142
139
139
139
131
129
130
127
122
118
114
108
105
99
89
85
80
92
107
109
115
134
148
130
123
108
158
159
160
163
165
166
164
163
165
164
168
169
169
169
172
172
171
173
175
175
178
177
177
179
177
178
179
179
179
180
180
183
183
184
184
187
186
186
187
187
188
189
189
188
190
189
189
187
182
138
81
65
63
62
69
69
66
63
62
65
63
56
50
42
36
30
26
39
42
35
42
50
51
52
71
86
86
88
90
96
105
108
109
106
104
102
106
112
123
135
140
145
148
137
127
123
122
129
135
139
138
125
113
106
105
97
83
75
72
74
64
57
69
77
83
96
101
87
98
133
146
150
153
156
161
171
165
152
148
153
167
179
184
183
182
184
187
189
179
171
161
154
145
138
155
180
190
192
200
208
191
188
184
182
179
180
180
181
180
182
181
181
182
182
182
181
183
181
171
143
101
90
79
79
79
77
68
70
68
65
62
65
66
68
72
81
81
82
98
107
117
125
135
151
163
165
166
164
165
165
163
164
162
164
161
163
162
162
163
163
163
159
159
161
159
161
160
159
156
159
162
157
154
154
151
152
144
147
143
142
138
137
138
137
130
130
126
125
117
115
108
104
98
93
86
83
87
97
102
101
121
143
134
124
126
115
161
158
161
162
162
165
163
164
167
166
166
168
169
169
169
172
174
174
174
177
177
177
177
178
177
179
179
181
181
181
182
185
181
182
183
185
184
186
187
188
188
189
189
188
190
189
189
187
182
137
76
61
60
59
61
63
67
65
62
62
60
56
51
45
33
26
27
34
38
36
46
58
62
70
74
72
79
97
104
104
102
102
105
107
107
107
109
112
120
127
137
137
141
132
129
123
128
135
143
144
134
117
107
105
105
97
81
70
72
67
61
64
67
69
77
76
65
69
100
134
151
155
159
160
158
149
130
141
150
161
178
182
183
183
182
184
187
178
169
167
162
156
144
144
164
186
191
196
207
197
188
186
182
179
180
180
180
180
180
181
182
181
183
183
182
182
181
180
175
160
124
96
86
85
82
80
72
72
68
63
63
63
67
68
68
75
79
87
101
110
117
125
133
150
163
165
163
165
165
164
163
164
162
161
163
162
164
163
163
162
160
160
158
159
158
159
156
159
159
158
158
156
153
151
152
149
147
146
143
141
138
136
137
133
133
129
121
125
118
113
106
100
96
86
81
78
78
93
101
115
143
135
126
124
132
121
161
160
161
161
161
161
160
166
167
165
167
166
166
168
170
171
172
172
172
176
175
175
177
176
176
180
179
180
182
180
179
183
180
181
183
184
185
185
188
188
188
189
189
188
188
190
189
189
181
133
73
61
59
60
61
66
64
65
63
59
56
54
52
42
31
26
31
34
35
42
54
60
62
64
68
75
80
90
99
102
99
100
97
99
102
108
115
119
120
120
127
129
130
126
124
126
134
147
146
135
127
109
101
105
109
106
90
86
72
59
68
68
63
68
71
56
50
70
91
123
148
155
158
142
115
102
107
143
158
174
184
184
181
182
182
183
182
168
155
160
162
157
148
159
177
189
192
204
204
190
187
181
177
179
179
181
179
179
181
181
183
184
183
183
181
182
181
179
178
172
151
110
96
91
85
80
73
73
66
62
66
67
68
66
69
70
78
90
102
111
115
124
132
150
161
163
165
163
164
165
164
164
163
162
162
163
162
162
162
161
160
161
159
158
160
160
158
158
159
156
153
154
154
151
153
151
152
150
143
139
138
137
137
131
129
128
120
118
116
110
106
94
90
82
76
78
85
98
110
138
139
129
126
130
143
112
157
159
160
161
161
160
159
164
167
164
167
167
168
168
169
171
171
171
171
173
175
177
176
176
176
177
177
178
178
178
179
183
181
182
183
183
185
185
186
188
188
189
189
188
188
190
188
186
177
123
68
59
59
57
61
61
61
63
61
59
56
53
47
38
28
27
30
32
37
49
58
57
63
71
73
81
82
84
85
89
94
98
105
99
97
106
114
120
124
123
126
121
119
118
121
125
133
141
139
130
117
105
103
109
115
110
94
75
63
65
69
60
65
72
54
44
55
68
93
110
129
141
130
105
108
98
123
151
167
182
185
183
183
186
187
187
179
158
142
152
163
163
166
179
188
188
197
205
192
185
183
177
175
177
178
180
180
179
180
181
183
184
184
184
181
183
181
181
182
179
167
144
107
89
84
75
74
75
69
67
68
64
65
66
70
71
81
92
104
107
113
123
134
156
163
164
165
164
164
163
163
164
163
163
162
163
163
161
159
163
160
159
160
158
156
159
159
158
154
156
157
154
152
150
152
148
151
147
144
141
136
129
132
127
122
123
121
115
111
106
99
91
83
79
76
79
88
98
127
135
130
127
124
137
134
102
158
160
160
160
159
161
161
164
165
165
165
167
168
169
170
169
170
172
173
171
175
176
177
176
175
179
178
178
178
181
180
182
181
183
181
182
186
184
185
188
187
188
189
189
188
189
189
186
173
111
64
58
59
61
66
66
65
66
62
57
55
51
45
34
27
31
34
34
42
54
51
57
70
73
78
82
87
83
84
85
89
96
102
106
105
105
109
109
112
122
129
127
120
118
119
120
128
129
128
125
121
112
109
113
115
106
89
81
86
78
64
67
71
54
43
52
64
79
94
102
113
115
90
98
97
107
149
163
177
185
183
184
187
189
189
185
169
154
149
150
155
168
175
187
188
191
205
197
188
184
179
176
177
177
178
178
179
181
181
179
183
184
184
183
182
182
181
180
180
181
178
163
131
96
84
79
76
73
70
73
70
69
70
69
72
70
77
90
97
101
109
120
140
157
163
164
166
164
165
164
163
162
162
162
161
160
162
161
161
160
160
161
158
159
158
160
159
156
156
154
154
155
153
151
150
145
144
140
140
139
133
127
127
127
120
119
120
114
107
98
91
85
78
70
72
74
88
117
139
130
123
126
136
134
119
78
156
157
159
159
160
162
162
163
165
167
165
167
167
168
170
168
169
172
174
174
176
175
177
176
177
179
177
179
178
180
180
182
182
183
181
183
185
184
187
187
185
186
187
188
189
188
189
187
171
102
59
56
61
61
62
63
63
63
59
58
55
51
43
31
30
46
51
43
45
47
46
62
77
80
79
80
84
83
86
92
93
93
95
107
112
113
118
110
100
107
115
120
120
123
126
128
129
124
121
122
113
101
105
112
113
111
103
93
91
72
69
69
47
40
49
60
75
106
120
102
98
78
81
102
99
133
159
172
181
181
183
184
185
187
188
176
160
156
153
149
152
168
187
190
190
202
201
188
186
182
176
178
181
181
181
178
180
182
183
181
181
184
183
183
182
181
181
181
181
180
179
172
156
124
95
83
81
75
71
72
73
72
71
69
69
70
78
85
92
98
109
120
147
161
165
165
164
163
165
165
162
161
162
164
163
162
163
162
163
159
160
161
161
156
159
161
159
154
153
152
154
152
151
151
148
145
144
138
136
133
134
127
127
125
122
118
114
107
102
94
85
84
74
62
62
68
96
132
135
130
126
136
139
126
101
58
157
157
160
159
160
160
162
164
163
166
166
166
170
169
169
172
171
170
172
176
174
174
176
177
177
179
178
179
178
179
180
182
181
184
183
184
185
184
186
186
187
187
188
188
187
187
188
186
165
95
65
58
63
60
60
62
64
60
58
56
53
48
38
30
35
46
51
44
46
51
52
67
78
81
78
81
82
84
81
84
92
96
99
105
106
115
120
116
114
113
113
108
112
122
131
131
125
125
126
118
106
102
97
101
109
108
102
87
80
83
79
56
44
49
59
65
82
112
127
111
70
57
94
110
112
144
166
176
177
177
182
182
182
183
180
159
149
150
155
156
162
177
190
189
198
205
190
183
183
180
175
178
179
181
180
179
180
183
180
181
180
182
181
183
183
182
180
182
180
179
179
177
173
154
123
94
86
79
73
72
76
73
71
66
66
73
72
78
84
98
111
129
158
164
163
164
166
166
164
162
162
162
164
164
163
163
161
161
161
159
161
159
159
158
159
156
157
155
153
156
153
151
149
149
146
143
143
135
133
132
132
126
125
122
118
114
103
102
96
87
82
75
65
60
57
79
127
131
128
128
134
140
130
116
94
62
159
157
156
158
158
158
163
163
165
163
166
166
169
167
168
171
171
169
173
174
173
176
174
175
175
176
179
179
178
179
181
179
180
183
183
182
183
184
186
186
187
186
187
187
186
186
186
184
160
87
63
58
62
60
60
62
62
60
57
55
50
43
36
27
32
44
50
53
58
59
59
73
73
76
74
77
78
85
84
88
89
94
105
107
109
113
111
111
113
111
105
107
109
113
124
122
116
117
115
111
106
104
100
101
101
101
89
78
100
101
61
45
53
54
65
72
84
120
125
86
56
69
111
114
117
143
171
178
179
178
180
179
180
180
174
160
158
157
160
160
169
186
189
191
205
195
186
183
180
176
177
179
181
182
181
181
180
181
180
180
180
181
180
180
183
182
182
182
179
177
180
178
177
171
154
122
96
85
78
80
80
76
76
75
74
73
71
75
86
99
118
144
165
165
165
166
165
166
164
165
164
164
163
163
163
161
160
160
160
160
158
158
157
158
157
156
156
154
154
155
153
149
150
150
145
139
142
139
133
128
127
123
121
121
115
109
101
95
89
84
74
61
54
58
70
123
137
127
126
134
143
132
121
92
78
57
157
157
157
154
155
158
162
163
164
164
165
164
168
170
170
168
170
171
172
173
172
175
176
175
175
175
178
178
178
181
180
179
180
183
181
181
183
185
186
186
187
188
186
188
189
188
188
186
167
93
63
58
57
59
61
67
65
61
58
55
51
43
34
27
35
48
51
59
68
64
66
76
75
75
79
79
83
86
91
95
93
90
100
102
110
114
109
112
109
102
98
102
103
111
114
114
109
112
113
106
96
95
97
101
99
98
91
100
105
73
47
51
53
58
67
78
92
106
72
52
56
81
115
108
120
151
173
177
180
181
181
180
180
179
172
166
160
161
163
163
179
188
191
201
202
187
184
182
178
177
179
180
182
180
179
181
181
180
180
180
181
180
179
180
181
182
181
181
179
178
176
179
179
178
172
161
132
96
85
82
76
78
76
76
76
77
76
78
87
105
133
159
168
166
168
166
166
165
166
165
167
166
166
162
160
159
162
161
161
158
157
158
157
160
158
158
156
152
154
154
150
147
149
146
143
141
139
134
130
132
126
125
118
116
110
102
99
93
89
77
61
53
52
60
108
135
129
130
133
142
137
122
103
84
68
53
156
157
159
161
160
157
157
162
163
163
163
162
167
169
167
169
169
172
172
171
169
171
173
172
174
176
175
177
178
180
179
181
180
182
182
181
183
185
186
186
187
187
186
187
188
187
188
191
167
84
58
57
55
58
61
61
63
61
58
55
48
41
32
29
41
52
52
62
74
69
75
80
78
77
81
86
90
95
100
95
96
99
99
100
97
105
109
111
109
104
96
102
101
100
104
107
106
107
102
95
86
84
84
82
90
92
88
87
64
49
55
52
55
67
76
80
78
58
50
53
61
95
99
100
128
166
175
176
180
180
179
177
181
178
165
157
155
158
166
180
191
189
199
202
190
186
184
178
177
180
181
179
179
179
180
181
181
181
180
181
182
181
181
182
180
180
178
179
179
179
179
180
179
178
176
175
166
144
112
93
81
79
76
75
72
78
79
82
92
119
158
169
168
168
169
166
166
166
166
165
165
166
166
163
163
162
163
160
161
157
160
162
159
158
156
155
153
153
154
147
146
149
146
145
143
139
136
129
133
131
124
122
117
110
105
101
95
90
78
64
53
53
55
94
136
133
129
131
141
139
121
102
82
77
68
57
153
154
156
159
160
159
158
163
162
161
164
162
164
168
168
168
169
171
169
169
170
171
174
173
175
175
176
176
177
180
180
181
181
181
181
180
182
185
185
184
186
187
186
186
185
185
190
192
156
78
55
57
53
58
59
60
62
59
60
58
49
41
30
31
46
58
56
61
66
69
76
77
79
80
83
92
96
103
110
106
105
107
111
108
98
98
100
99
98
97
102
106
104
97
101
104
102
101
90
87
81
78
72
72
80
86
75
54
54
59
55
57
61
81
80
66
50
51
60
58
79
98
83
95
144
172
176
177
179
181
180
183
185
173
153
137
145
157
169
185
189
193
203
193
186
186
181
175
178
179
179
179
180
180
180
182
182
183
183
182
182
180
182
181
180
180
178
179
179
179
180
178
178
177
178
177
175
170
156
132
98
88
80
75
72
75
77
85
114
157
169
170
168
166
169
166
164
163
167
167
164
164
166
166
163
161
160
160
161
156
160
160
158
157
156
153
152
153
153
147
148
149
143
142
141
141
137
132
130
128
125
119
114
108
102
95
93
82
69
53
51
54
80
131
133
132
131
140
142
127
115
92
74
68
66
58
154
155
157
159
162
160
162
160
162
162
163
165
166
166
166
167
167
169
168
170
172
174
174
173
174
176
176
176
177
180
179
179
179
180
180
181
183
185
186
186
185
187
187
186
185
185
188
180
133
70
56
56
56
60
63
59
63
61
61
55
47
36
27
34
48
54
58
63
62
63
80
81
80
86
90
93
97
103
106
107
113
113
109
106
96
98
97
93
90
88
91
95
91
92
98
103
100
101
87
79
71
69
71
73
84
76
53
50
67
66
61
63
69
83
65
46
55
79
78
68
100
94
88
118
167
173
176
181
182
180
178
181
181
157
152
153
154
158
179
188
189
200
199
187
185
181
178
178
179
180
181
180
180
181
181
181
183
182
182
181
181
181
181
179
181
180
178
177
177
179
179
178
177
178
178
175
177
176
174
168
152
121
89
77
75
78
84
118
159
170
170
169
169
168
169
168
166
166
167
166
166
166
164
164
162
162
162
161
162
158
159
156
156
159
156
152
154
153
154
144
148
148
141
139
138
136
131
131
125
121
121
115
111
102
93
93
86
73
56
44
47
65
122
138
132
134
139
141
128
112
91
73
64
55
50
50
152
155
156
157
160
157
160
160
161
162
163
165
166
165
166
167
168
168
169
172
173
174
172
173
172
175
176
175
179
178
179
179
179
179
182
182
184
186
185
186
186
186
186
186
185
182
170
148
107
67
56
56
58
61
60
57
59
60
61
55
43
33
27
35
48
53
54
61
59
61
75
86
87
87
87
96
103
103
102
108
110
108
108
110
104
99
99
96
94
96
95
90
86
87
94
99
97
98
84
73
70
70
77
87
82
57
46
61
73
69
63
60
79
65
45
58
86
94
73
88
94
80
97
144
170
174
177
180
176
175
180
181
176
153
154
159
155
172
190
190
198
204
187
185
183
178
178
176
178
182
182
180
179
182
182
180
181
180
182
182
180
180
179
177
179
180
180
180
178
179
178
177
176
177
178
177
176
177
180
178
174
165
146
118
105
120
146
166
170
170
171
171
171
170
169
167
167
167
168
165
167
163
162
164
164
164
161
161
159
159
158
156
156
159
157
155
154
151
150
146
147
147
143
143
139
139
134
134
129
117
116
111
106
96
88
83
80
60
49
46
55
115
135
134
129
139
142
134
114
74
62
60
55
47
43
45
152
153
154
154
158
159
162
161
161
161
164
163
164
164
164
167
169
168
169
172
172
172
169
171
171
175
176
177
176
178
177
177
176
178
180
183
182
184
185
187
186
185
185
184
183
180
161
136
92
62
59
57
58
61
61
60
63
59
60
54
42
32
28
36
50
51
51
61
61
60
72
84
90
97
96
98
107
106
104
113
116
116
110
103
104
105
102
100
100
97
101
98
92
96
96
92
86
78
66
61
70
76
90
88
61
43
50
63
73
69
60
63
57
46
51
74
95
86
76
99
90
89
118
158
169
174
178
178
174
175
183
184
169
154
150
149
160
180
188
192
204
191
185
184
180
175
176
178
178
179
180
180
179
180
180
182
180
180
180
182
179
180
179
179
180
179
179
178
178
178
177
177
177
177
177
174
176
178
180
178
177
176
176
173
171
171
170
173
174
172
169
170
171
170
172
169
168
166
167
166
165
162
163
164
163
161
161
160
161
159
159
158
157
157
156
152
150
146
146
145
140
142
138
139
136
136
131
129
125
117
112
107
100
90
81
76
63
52
46
53
98
134
134
131
136
144
136
123
92
61
50
48
39
29
36
44
156
154
153
156
159
160
160
159
161
161
161
164
164
163
165
168
168
167
167
168
168
172
170
173
172
175
175
176
177
177
177
176
176
178
179
182
183
184
185
185
183
184
183
185
185
179
161
127
88
59
53
54
58
58
60
62
65
62
57
51
41
29
29
39
50
50
54
58
57
62
67
75
88
101
104
105
110
113
115
116
115
111
103
101
104
100
94
99
107
101
105
106
104
100
93
94
87
72
60
65
72
79
81
59
50
50
49
64
68
62
58
44
44
53
59
74
91
77
85
88
86
99
139
168
172
173
175
173
175
177
180
178
161
161
162
159
172
184
188
199
197
184
182
180
175
175
176
177
178
178
177
178
179
180
181
180
180
181
182
182
180
181
177
178
180
178
178
176
178
177
177
176
176
176
176
175
176
179
180
181
180
180
179
178
178
176
173
174
174
171
171
170
172
171
170
167
169
168
168
170
165
165
164
163
165
161
162
163
160
157
157
155
156
156
157
152
148
144
145
147
139
140
137
134
134
129
126
126
120
112
111
100
91
83
77
61
53
49
49
87
131
133
130
132
142
136
123
101
73
55
48
43
35
39
46
45
152
152
154
156
161
158
161
161
161
162
160
162
164
166
163
167
166
165
164
168
169
170
172
170
171
174
177
176
177
177
176
177
178
179
179
181
183
184
184
183
183
184
185
189
193
178
161
130
81
60
52
50
55
58
59
61
64
59
56
48
41
30
31
38
50
52
52
57
59
63
68
70
81
87
97
106
112
117
120
120
119
110
92
95
94
88
86
87
91
97
100
108
111
106
101
97
84
69
68
74
90
79
59
47
52
49
53
68
61
51
42
52
59
60
64
84
88
77
91
82
86
116
158
167
171
174
174
174
172
175
176
170
162
163
161
166
184
186
196
200
188
183
182
178
176
177
177
175
179
179
178
177
177
177
178
178
181
182
182
182
182
181
180
179
179
178
179
179
178
176
176
176
177
175
177
175
175
178
177
181
181
181
181
180
180
176
174
173
171
172
174
173
172
171
171
168
167
167
167
167
166
166
165
165
164
160
164
162
160
160
159
158
157
155
154
149
149
144
146
148
143
139
138
132
129
126
124
120
115
109
102
92
83
79
66
54
51
51
74
126
138
129
129
139
138
126
108
74
65
59
53
51
43
43
50
44
148
154
153
155
154
158
159
161
160
162
161
163
161
163
162
164
165
167
165
167
167
168
169
169
173
176
176
175
175
177
177
174
177
178
178
179
179
181
182
183
182
183
184
195
202
178
163
129
76
54
52
50
55
57
59
55
55
54
50
47
38
33
36
42
52
52
52
57
61
66
69
73
76
84
91
93
96
110
114
115
110
102
98
101
88
78
77
79
89
101
103
102
106
113
105
93
88
81
79
86
84
58
48
52
52
51
52
57
46
38
51
75
70
68
78
90
81
89
90
86
94
132
165
169
166
168
166
166
169
172
175
167
159
164
171
186
186
191
198
190
185
183
179
174
176
178
178
176
177
178
178
178
180
179
179
179
181
181
180
178
178
181
177
179
177
177
178
180
177
175
174
173
177
175
175
175
176
176
179
181
182
181
181
182
180
178
175
174
174
173
174
172
170
169
169
170
171
169
166
167
170
166
166
165
165
164
162
160
161
160
158
158
157
155
154
151
148
148
143
144
140
137
135
131
127
123
119
115
109
103
95
88
82
72
53
47
47
64
117
134
131
131
139
142
131
116
88
60
54
60
52
42
46
48
44
43
149
155
152
154
154
157
158
158
159
163
162
164
162
163
163
162
165
166
165
168
168
167
169
170
172
174
172
174
174
174
175
175
178
179
178
179
182
180
181
183
182
182
186
199
199
171
151
116
71
51
50
50
53
54
59
53
55
52
48
45
37
37
42
47
51
50
56
63
64
68
77
84
90
93
93
88
83
89
98
95
92
91
93
95
89
82
85
89
96
108
107
110
112
113
106
100
95
86
80
64
48
42
50
58
55
53
47
43
36
47
73
81
74
70
87
88
82
93
87
97
104
147
168
168
162
164
167
166
173
173
176
164
154
162
176
183
185
198
197
187
184
181
177
174
177
178
178
177
178
177
181
178
179
179
178
180
181
180
179
177
176
178
177
178
178
178
177
177
177
176
176
174
178
176
174
174
175
178
178
181
182
181
182
182
182
180
178
175
177
175
174
171
170
171
170
170
171
172
167
166
166
165
166
164
164
167
162
160
163
160
158
155
157
154
154
151
146
145
142
142
142
141
134
132
125
124
120
113
105
98
89
86
80
59
48
46
54
114
132
134
130
136
142
132
121
95
71
60
55
56
49
42
40
39
41
43
150
153
152
155
156
156
157
159
158
160
161
162
163
161
164
165
164
164
166
167
169
169
170
170
171
172
170
175
175
175
176
174
174
177
179
179
180
180
181
182
182
182
186
198
193
163
133
96
61
50
51
52
53
53
55
56
58
54
49
43
37
32
37
45
50
55
58
71
82
86
94
98
94
96
94
88
87
89
84
77
69
76
82
83
81
86
93
98
103
109
106
110
110
99
96
103
97
89
70
47
45
51
56
61
61
53
40
41
47
64
80
85
76
70
77
72
95
89
95
100
117
155
166
163
161
164
168
174
177
174
167
154
148
164
184
186
194
199
189
183
181
177
175
175
176
178
178
176
179
177
178
177
177
178
178
179
179
181
179
176
177
177
176
178
177
175
177
176
174
174
174
175
175
176
174
174
174
175
178
180
181
181
183
182
182
181
178
178
176
176
176
175
172
172
172
171
170
171
168
168
167
167
166
164
164
165
163
162
163
161
158
156
156
156
153
150
149
148
144
140
136
136
128
125
123
121
115
107
96
90
85
78
64
48
48
52
97
139
133
129
132
141
136
122
88
67
54
54
55
51
51
47
45
40
39
44
150
151
149
154
154
154
158
157
157
160
162
162
161
161
164
161
163
167
165
165
168
168
168
170
171
170
172
173
172
171
174
174
174
177
180
178
180
182
180
180
181
182
187
197
193
160
129
92
58
48
52
53
53
55
53
57
58
57
50
42
36
33
40
48
46
53
60
74
90
92
95
99
101
97
93
94
87
88
77
67
66
59
59
67
67
70
75
83
93
103
106
106
102
95
98
104
96
83
51
42
48
58
63
67
56
45
39
46
59
74
83
87
80
74
71
76
101
82
103
112
133
159
161
158
164
173
170
169
172
172
165
156
151
176
185
192
201
193
183
182
179
174
175
177
177
178
177
176
178
177
178
177
177
178
179
176
177
178
178
177
178
178
179
176
176
178
175
176
174
176
174
174
172
172
173
175
175
176
180
180
180
180
182
181
180
179
180
180
178
178
176
176
176
174
172
172
172
171
169
171
168
168
168
168
164
165
163
159
162
161
159
157
156
155
154
147
148
148
140
140
139
132
124
119
119
118
108
100
90
84
79
63
48
48
52
91
137
132
134
132
142
139
121
90
55
47
52
56
56
53
51
49
46
40
35
41
151
151
153
149
154
156
156
156
157
159
162
161
161
161
164
163
165
168
163
164
167
168
169
170
171
170
174
173
171
172
174
175
176
178
177
179
181
182
182
181
180
182
186
196
189
153
116
82
55
53
50
52
54
60
59
57
58
57
48
41
36
33
46
66
60
51
58
68
78
78
81
95
99
103
106
97
86
82
77
72
66
63
60
59
59
58
64
74
84
88
85
80
80
88
100
102
82
50
41
46
54
66
66
62
51
45
46
51
63
79
88
92
79
71
67
89
95
85
104
124
149
159
161
162
167
171
169
168
172
170
159
160
174
182
188
197
194
184
182
181
176
175
175
179
180
177
177
178
178
178
178
179
180
180
178
177
177
177
178
178
177
177
179
176
174
175
175
175
174
176
176
175
173
173
172
173
176
177
180
180
180
180
181
182
181
180
181
179
179
178
177
177
176
175
170
173
172
172
169
170
168
163
167
167
165
164
162
163
159
160
155
156
156
151
154
146
145
146
140
137
137
127
124
120
115
110
102
97
84
78
70
54
46
50
69
128
140
135
130
145
143
129
107
69
59
53
48
54
58
58
48
47
53
49
44
39
152
151
151
151
154
154
155
157
159
159
158
159
158
162
162
162
163
163
164
164
164
168
168
168
168
169
172
170
171
171
172
174
177
177
178
180
181
181
181
181
180
180
183
193
184
142
108
81
55
50
51
52
55
61
58
56
55
51
46
38
32
34
45
61
68
56
56
64
67
64
71
90
97
102
105
99
95
85
74
71
75
72
70
59
56
60
67
71
69
70
71
65
65
71
82
77
48
43
46
47
54
65
58
58
62
58
56
53
68
85
94
95
81
69
73
98
93
94
115
136
156
160
164
164
171
179
179
175
173
162
152
169
182
184
195
197
186
183
183
178
177
177
178
178
180
179
180
181
180
179
179
181
180
178
176
176
178
177
177
178
179
178
177
175
175
174
173
173
172
173
172
174
174
173
173
172
173
174
179
179
180
182
183
182
180
181
180
179
178
179
178
177
177
173
173
174
171
171
171
169
168
167
167
167
166
165
163
163
161
160
156
155
154
153
153
151
143
145
145
138
131
125
122
116
112
106
96
88
83
77
61
52
52
63
119
138
138
136
143
143
134
114
84
62
61
55
48
51
59
60
52
49
49
44
42
40
153
148
150
152
154
153
153
158
159
157
155
160
159
161
162
163
162
163
164
165
164
167
165
166
169
166
169
171
171
172
173
174
175
179
177
178
180
180
178
179
179
171
167
187
177
133
103
78
57
52
50
54
58
59
56
55
54
51
46
38
32
35
45
56
67
71
69
67
70
65
67
76
92
95
84
85
92
89
82
77
73
74
75
65
69
74
76
75
65
65
62
62
64
70
66
43
39
46
52
57
63
62
65
76
79
69
56
50
63
83
94
87
72
60
77
98
85
101
120
144
155
161
166
171
174
177
174
173
168
151
150
179
183
190
200
189
182
183
181
177
177
177
177
174
175
178
178
177
178
177
179
181
178
175
177
175
177
177
175
175
175
177
179
177
175
174
173
173
174
175
174
174
175
173
172
171
174
177
179
179
179
180
182
181
181
181
180
179
179
179
179
178
177
177
176
173
172
172
171
169
169
170
168
167
167
164
164
163
162
160
158
156
156
155
153
149
146
144
141
134
131
124
120
113
104
97
95
85
77
65
51
51
58
114
140
136
135
142
144
132
121
93
66
63
59
55
56
55
51
54
51
47
51
44
39
38
150
150
146
151
153
151
153
158
158
158
158
160
160
160
160
164
162
164
164
166
166
167
167
167
169
168
169
170
170
171
172
174
176
179
178
177
179
178
179
179
175
128
131
180
166
126
104
75
55
52
52
56
58
57
57
54
51
50
46
42
34
37
43
50
55
72
84
81
74
67
66
75
78
80
75
74
82
85
81
85
82
78
75
73
72
80
87
78
73
65
69
73
72
61
46
42
46
48
55
60
59
60
75
86
87
75
58
51
58
75
89
82
66
61
85
92
87
105
126
153
159
164
166
166
165
168
169
168
146
136
161
182
187
199
193
180
181
180
177
174
174
176
178
177
176
174
175
176
176
179
180
181
179
178
179
180
179
177
175
174
174
175
175
176
174
175
175
173
173
175
173
173
174
172
172
172
173
176
179
178
178
180
179
179
178
180
180
180
180
178
179
179
177
176
176
173
173
172
170
169
171
169
167
165
166
168
162
161
162
159
159
155
154
155
150
145
143
139
131
138
131
121
116
106
102
92
85
81
65
52
51
54
96
137
140
135
133
147
141
125
99
76
66
63
60
55
50
51
47
45
51
49
41
43
45
44
153
153
152
151
153
152
153
155
158
157
158
157
156
159
161
164
162
164
164
165
166
165
167
166
166
168
168
170
170
173
172
173
175
179
175
175
176
179
178
178
156
76
106
172
157
122
96
73
56
56
54
58
57
58
54
52
52
47
46
40
34
43
44
48
54
65
86
95
90
77
66
67
73
71
66
72
70
71
80
86
83
84
91
90
83
81
76
74
71
70
77
79
62
43
44
48
52
55
55
53
53
57
70
76
74
64
53
51
55
71
78
74
61
61
91
95
88
106
128
154
160
161
164
165
165
164
166
161
150
161
179
183
194
197
186
181
182
177
174
175
176
175
178
178
177
176
177
175
179
178
180
180
181
179
176
176
175
174
175
174
174
174
174
173
174
171
173
174
172
174
171
172
173
171
169
171
174
177
179
180
180
181
180
180
178
179
180
180
182
180
179
178
177
176
178
176
174
172
171
171
171
171
170
166
166
164
162
164
159
158
156
155
152
154
147
145
144
140
136
135
125
120
110
104
96
87
78
67
48
47
49
85
132
139
139
139
146
143
127
107
83
70
67
59
53
50
45
42
40
40
46
46
48
49
49
49
148
149
147
148
151
150
151
152
157
157
156
158
157
157
161
161
162
163
163
161
164
166
167
167
167
169
170
168
166
171
173
173
175
175
174
176
177
178
178
168
110
35
86
159
152
114
86
63
56
56
55
56
55
55
55
54
51
48
44
37
37
47
50
48
55
61
68
78
94
93
87
79
77
74
71
69
68
67
67
71
75
79
87
92
89
81
73
74
75
85
88
70
45
43
46
51
54
51
45
46
52
54
64
66
61
60
58
54
55
61
69
60
52
62
97
88
88
108
143
157
159
161
165
167
166
166
167
162
165
180
183
187
198
188
182
182
179
176
175
176
177
175
177
175
178
178
177
176
181
180
181
180
179
176
175
175
173
173
175
174
175
174
174
173
173
171
173
174
172
173
171
171
170
170
171
172
173
176
177
180
181
183
180
179
179
179
178
179
181
181
180
179
179
177
176
176
173
173
173
171
170
168
168
167
166
166
164
163
159
156
155
155
153
153
151
146
146
143
134
126
119
114
104
101
89
85
73
54
44
48
71
126
141
138
136
143
145
131
113
93
76
69
59
56
53
48
40
39
38
39
36
44
56
51
50
52
147
147
144
149
149
147
151
153
151
154
156
157
157
159
161
160
160
161
161
162
161
164
167
165
163
167
168
167
168
170
175
174
175
176
177
179
178
177
175
141
51
22
59
139
143
112
82
56
54
57
56
57
53
54
53
54
51
45
41
40
38
47
53
53
53
57
59
62
67
76
88
96
83
75
65
60
60
59
60
61
62
68
79
89
85
76
75
84
86
82
69
48
43
46
47
51
49
45
45
51
55
56
61
60
57
60
58
53
50
53
52
48
45
70
96
85
97
121
154
161
164
164
166
173
171
167
166
167
176
181
184
194
192
184
184
180
177
175
174
177
175
175
176
179
179
179
179
176
180
179
179
178
180
177
175
176
178
175
174
174
174
171
174
173
173
172
172
173
171
173
172
171
172
172
171
172
173
176
178
179
181
182
180
181
180
179
179
179
179
178
179
178
177
174
176
177
173
174
176
173
171
171
170
168
165
166
163
164
160
159
156
154
153
153
149
140
142
139
133
123
115
108
99
91
85
76
57
47
43
59
126
142
141
137
143
143
140
122
103
79
60
54
47
54
58
49
44
38
41
40
40
52
56
49
51
46
147
146
148
149
146
147
149
150
153
155
153
155
156
158
160
159
159
158
161
161
163
164
165
164
165
167
166
167
169
169
173
174
173
175
176
177
176
173
162
91
25
19
41
112
131
106
82
59
53
52
55
57
52
54
53
52
49
47
43
36
33
44
59
63
60
59
57
59
60
60
67
72
82
86
79
68
58
55
57
57
58
62
71
72
65
62
70
76
78
66
51
47
48
52
54
45
41
46
50
54
56
60
58
56
53
54
50
49
46
51
54
56
62
88
87
80
91
121
151
157
161
166
171
168
162
159
164
171
181
183
190
195
186
181
180
175
174
173
174
177
176
175
178
177
178
178
180
180
180
180
178
180
179
178
179
178
176
174
174
175
173
173
174
174
175
172
171
171
168
170
171
170
170
168
170
171
174
177
178
179
181
182
183
182
178
180
180
179
179
180
178
179
178
176
176
174
175
175
177
173
172
171
168
167
167
165
161
160
156
160
158
152
151
151
148
142
138
133
122
113
108
98
93
84
77
57
43
43
48
110
144
142
140
141
147
141
122
93
75
64
53
54
53
53
57
55
54
44
49
49
51
57
56
51
48
45
145
146
147
147
147
147
151
151
149
154
156
154
155
156
160
159
161
157
163
162
161
163
164
164
166
165
166
169
170
170
171
173
174
173
175
176
175
168
136
47
20
18
28
80
118
104
79
57
51
52
52
53
49
51
52
52
51
47
43
36
34
41
52
68
68
63
57
57
56
62
58
53
59
71
83
86
82
79
78
70
65
64
63
56
59
66
73
68
53
48
49
51
52
53
52
47
58
66
71
76
72
69
70
60
62
61
59
58
52
58
60
66
71
72
66
71
81
127
152
157
160
161
162
160
159
158
163
179
180
188
196
187
181
179
177
175
174
174
176
176
174
176
178
176
178
178
178
179
179
179
179
179
179
180
180
179
178
177
174
174
173
175
174
172
171
171
171
171
168
170
172
170
170
169
171
172
172
175
179
178
181
182
183
181
182
181
181
178
177
179
179
179
179
177
174
175
176
176
176
173
171
170
168
169
165
161
160
160
158
159
154
153
151
148
145
141
134
127
114
106
101
93
86
81
63
47
44
46
91
145
141
143
145
148
143
132
98
59
59
58
54
57
54
49
51
54
50
45
43
43
53
56
48
40
39
38
144
144
147
150
149
147
150
151
147
151
153
155
154
150
156
159
160
160
162
163
160
163
163
166
167
167
168
169
169
169
170
173
174
174
175
173
171
159
83
24
17
17
20
55
95
95
77
58
51
47
49
49
48
47
49
53
49
42
41
35
33
40
47
64
75
75
70
63
59
57
57
59
55
53
52
51
60
73
84
94
94
88
80
74
76
80
73
59
51
61
72
79
75
65
51
52
59
68
75
80
83
78
72
61
56
51
46
39
40
41
41
42
45
47
52
59
84
140
157
151
150
158
161
160
157
161
175
183
185
196
190
181
180
178
174
173
174
175
176
173
174
175
176
177
177
177
178
180
180
179
180
181
181
182
182
180
178
178
177
175
173
175
174
172
172
172
170
169
166
168
170
170
170
171
172
173
172
174
178
179
181
182
181
181
182
179
178
179
177
177
180
179
176
176
174
177
177
175
173
172
172
173
170
168
168
164
162
158
156
157
153
149
148
146
144
142
130
122
110
103
99
90
82
67
50
47
46
77
132
144
143
140
148
145
130
98
78
65
54
52
53
55
51
44
45
45
40
40
41
39
43
47
41
46
45
40
145
144
148
151
145
146
148
151
150
151
150
152
153
155
159
161
159
158
159
161
161
163
163
165
165
166
169
169
168
171
174
171
171
170
173
173
170
124
38
19
16
17
16
27
60
77
68
59
50
48
49
47
48
48
49
51
48
44
42
35
30
38
43
53
68
79
82
81
72
59
55
56
58
55
51
49
54
58
59
61
71
71
74
81
86
91
68
46
47
50
55
53
48
44
45
51
55
55
58
60
60
59
57
51
48
46
47
45
43
43
44
44
42
45
54
80
121
148
150
141
148
156
156
157
165
171
180
184
192
192
181
180
178
176
173
173
174
174
174
174
175
178
176
178
177
179
179
179
179
179
181
182
181
183
184
181
179
179
177
174
173
173
173
172
172
172
170
170
168
169
170
172
170
167
169
170
172
174
178
179
179
180
180
181
182
180
179
180
177
179
179
178
178
178
178
177
177
177
174
171
171
171
168
167
164
161
160
159
155
155
150
148
138
133
139
132
121
116
105
98
92
80
68
51
44
44
65
128
148
142
146
150
152
138
110
85
76
73
67
63
62
57
51
52
46
43
42
42
44
51
53
50
47
46
42
43
142
146
150
146
146
149
147
150
151
153
154
154
153
158
157
158
160
158
160
159
162
163
162
163
163
165
167
167
167
169
171
170
168
169
170
170
152
68
22
17
16
14
14
19
36
63
61
60
52
49
48
49
48
47
48
48
46
44
41
33
29
33
40
47
55
64
76
85
85
76
70
61
54
49
48
53
57
56
57
62
60
57
62
64
67
57
43
45
53
57
62
52
41
41
49
53
53
55
55
56
61
58
59
56
55
59
63
64
60
54
51
54
60
75
98
124
146
150
147
153
155
151
156
163
166
174
180
187
195
186
180
179
175
172
172
175
175
176
178
175
177
180
177
179
180
180
180
180
180
180
183
183
183
184
185
183
182
180
179
175
173
174
173
172
172
172
170
169
167
169
170
171
171
170
169
170
173
174
176
176
178
181
181
181
181
181
180
179
178
178
175
176
177
176
175
176
176
176
174
171
170
170
168
164
162
161
161
160
157
151
144
119
99
111
115
112
111
106
99
91
81
70
56
45
45
57
124
149
148
145
154
156
142
124
91
86
80
62
59
61
60
62
61
51
39
37
41
39
42
53
56
54
54
46
42
42
142
143
146
143
145
146
143
147
150
152
154
152
153
157
157
157
155
155
155
154
159
159
163
163
163
166
166
167
169
170
170
169
170
169
167
168
127
39
18
16
16
15
15
16
23
48
54
55
49
48
45
45
47
46
45
46
48
46
40
35
28
29
36
44
51
57
63
64
79
84
82
75
62
51
49
53
53
51
52
55
54
57
60
64
54
44
48
52
54
53
48
46
52
59
61
62
65
58
63
66
69
74
76
85
88
95
99
95
98
100
104
114
127
138
144
147
149
149
153
157
158
157
156
158
167
175
183
195
189
179
178
177
174
173
172
174
176
174
173
173
175
179
177
178
179
181
181
180
183
182
183
182
183
185
185
186
185
182
177
177
174
171
171
171
171
170
170
172
170
170
169
170
168
168
170
170
170
172
176
178
178
182
181
180
180
179
180
181
180
180
180
179
177
175
175
177
177
173
173
171
170
169
168
163
163
162
160
157
154
150
131
96
100
97
77
78
96
96
92
86
74
53
43
43
50
112
148
149
144
149
154
145
128
92
77
79
72
62
62
65
65
57
53
47
47
47
47
42
42
49
53
52
49
40
39
38
142
142
140
140
145
145
145
147
149
152
152
150
154
153
154
154
152
153
153
152
160
159
161
163
164
165
165
166
169
171
170
169
169
169
167
161
100
27
18
16
15
14
14
13
18
37
51
51
49
47
45
47
48
48
49
46
47
45
41
37
30
26
31
39
50
56
57
53
58
69
81
82
72
65
70
72
66
65
67
57
57
62
58
50
51
56
59
60
57
54
58
64
73
78
83
82
87
81
82
77
74
75
82
96
93
98
104
104
116
118
123
128
142
151
156
158
158
156
155
158
159
160
158
163
168
179
190
192
182
178
177
173
172
174
173
173
175
175
175
176
175
177
178
177
180
182
183
181
184
183
183
184
186
189
187
188
185
183
181
176
173
173
173
171
170
170
171
172
171
170
168
168
166
166
166
170
170
171
173
177
178
179
180
179
180
178
178
179
179
178
178
175
176
173
175
175
176
172
171
170
171
168
167
165
164
162
157
154
152
141
100
109
108
73
54
56
56
66
78
75
62
43
42
46
90
149
153
147
146
155
151
135
103
82
80
74
71
68
54
50
57
55
51
49
58
55
46
42
46
53
50
54
51
45
45
44
144
146
139
142
146
146
144
146
146
149
149
149
154
153
153
155
155
154
156
156
156
159
160
163
163
162
165
165
168
170
169
167
166
166
167
150
71
21
18
16
14
13
13
13
19
39
51
51
46
46
48
45
45
48
48
48
43
43
44
38
31
26
26
36
47
57
63
60
61
66
65
66
71
74
81
85
85
86
84
78
82
81
62
58
64
70
73
67
57
60
70
66
74
74
81
80
79
79
81
82
83
87
96
100
100
106
104
112
119
119
122
129
149
155
154
156
152
152
159
161
164
161
161
163
172
187
193
183
178
178
174
173
172
173
174
174
174
173
175
178
178
177
179
179
182
183
183
184
184
184
186
187
187
187
184
185
184
184
181
177
173
173
171
168
171
170
170
171
171
169
166
167
166
167
166
168
170
171
173
176
177
177
179
178
178
180
179
178
179
177
177
177
174
174
174
173
173
172
169
170
170
166
164
165
163
159
156
152
146
101
93
107
106
88
57
37
32
51
69
65
45
43
44
77
144
154
150
151
154
153
140
114
89
85
72
65
69
63
53
59
63
63
55
51
45
47
45
47
51
52
55
57
49
49
48
41
141
145
141
139
142
143
146
147
146
145
148
150
150
153
153
155
156
154
154
151
154
158
160
163
166
165
165
165
165
168
168
168
166
166
165
135
44
20
16
15
14
12
13
13
22
45
51
50
48
48
49
47
46
45
50
49
46
47
48
41
37
31
26
30
41
51
57
58
68
73
69
65
63
71
73
80
82
72
81
84
86
70
62
72
71
68
67
54
55
72
76
73
67
71
71
74
73
81
90
92
91
94
103
117
119
125
123
126
125
121
125
141
160
160
156
153
152
156
157
165
167
160
159
168
178
190
188
179
178
174
171
173
174
175
176
174
175
174
175
177
178
178
179
180
183
183
184
185
185
185
186
188
187
185
185
185
183
182
183
179
176
172
173
169
171
171
170
171
171
168
166
168
169
168
169
169
171
172
175
176
176
176
179
177
175
178
179
177
178
175
178
177
175
174
173
173
172
172
171
170
167
169
163
163
160
159
156
149
115
67
70
79
95
80
47
34
38
65
64
48
42
43
62
134
156
155
152
154
155
144
114
91
87
78
63
58
66
67
70
67
65
61
54
54
51
48
42
44
48
49
54
57
57
49
46
46
136
143
143
139
143
146
147
145
146
143
147
147
148
150
151
151
153
153
154
156
158
158
162
164
163
163
164
166
165
168
167
164
164
165
158
113
32
18
15
14
14
12
12
13
30
46
51
49
47
44
49
49
47
48
49
49
47
47
48
44
40
35
31
30
35
46
53
57
64
69
72
69
71
78
80
79
75
73
76
89
85
77
79
85
77
63
57
54
59
74
86
81
77
74
66
68
87
95
99
99
100
107
112
118
122
122
120
120
119
122
127
141
151
152
158
160
154
151
155
161
165
164
167
176
187
189
179
177
175
172
171
172
174
176
175
175
176
175
175
176
175
177
178
180
181
182
182
184
186
188
186
187
186
187
185
186
185
182
182
180
175
173
173
170
171
172
171
169
166
169
168
168
170
169
170
169
170
171
173
176
175
175
178
178
175
177
178
178
178
177
176
179
177
174
172
174
172
169
169
168
167
165
163
161
159
157
154
130
82
61
60
71
72
61
36
38
60
65
53
41
43
51
121
156
157
155
155
158
151
125
84
76
73
65
53
52
61
66
71
72
74
66
55
51
51
50
47
45
42
49
48
50
52
50
53
50
137
139
137
143
142
144
141
144
143
147
147
146
150
154
152
152
153
155
156
159
161
160
162
163
162
164
164
166
165
164
165
164
164
164
157
104
26
17
16
15
14
13
13
16
37
49
50
49
47
45
45
45
46
47
48
50
49
47
47
46
42
38
34
30
31
38
48
54
57
61
59
60
60
63
73
77
75
78
79
85
88
84
74
70
65
66
71
80
85
93
93
86
74
72
77
89
102
107
108
104
105
111
113
110
114
116
119
118
119
118
119
130
144
149
153
152
153
158
159
160
161
168
174
183
190
184
177
175
172
171
171
171
171
172
172
173
176
175
177
177
177
179
178
180
182
182
184
186
188
189
188
187
185
185
187
187
186
184
181
180
179
175
173
172
171
171
170
167
166
170
169
165
167
168
168
169
169
170
172
176
178
176
178
180
178
176
178
178
177
178
175
176
174
174
175
173
173
171
169
169
169
166
165
160
159
156
139
91
82
64
48
50
50
44
38
57
65
59
46
43
49
104
151
154
153
157
160
154
134
97
70
65
70
73
64
66
63
69
70
70
63
56
56
59
59
53
53
47
44
47
47
46
51
56
54
47
132
139
139
142
140
140
138
140
142
145
145
146
147
151
150
147
149
152
153
158
159
159
160
161
162
162
163
164
164
162
164
163
162
163
152
82
21
16
15
13
13
13
14
21
38
48
49
47
46
45
43
42
44
44
47
48
49
48
46
44
44
38
36
31
27
32
40
46
50
56
57
60
64
71
74
73
72
75
67
69
72
65
57
56
64
81
93
99
103
100
86
80
78
79
87
94
101
108
109
103
107
113
109
107
113
116
115
115
122
123
125
138
149
153
158
155
152
145
141
150
159
164
172
189
185
179
177
173
172
173
173
172
171
173
174
173
175
176
176
176
176
179
180
181
182
183
186
186
185
188
186
185
186
185
185
187
187
183
180
179
179
174
172
173
170
169
170
170
166
169
168
168
169
167
167
167
167
171
171
174
175
178
179
178
178
175
178
177
177
176
175
176
175
176
174
171
172
171
169
167
165
164
165
161
159
151
115
90
93
69
47
39
36
38
51
67
59
47
44
42
90
147
153
153
157
159
157
143
110
79
67
73
74
70
71
75
71
68
62
60
60
63
63
66
59
54
55
55
52
49
48
48
53
51
46
42
130
132
137
137
137
139
140
141
142
146
144
145
147
150
152
149
150
153
155
157
159
158
157
160
162
160
163
162
162
162
162
162
163
161
136
54
20
15
14
13
13
12
14
22
39
45
45
43
42
40
42
42
43
44
47
47
48
50
48
46
44
41
38
32
29
31
39
47
49
52
55
58
63
72
82
79
74
73
72
80
78
75
63
57
65
81
94
95
94
85
77
83
84
76
87
94
97
97
102
104
110
112
110
109
118
122
119
120
131
134
138
142
151
157
155
141
128
130
144
155
162
167
183
188
179
178
173
171
172
172
173
173
174
173
172
174
175
176
177
177
176
179
178
180
181
182
183
185
185
186
186
185
185
186
185
185
186
184
181
180
180
174
173
172
171
170
171
168
167
169
169
169
167
166
166
166
168
171
173
173
175
178
177
177
177
178
177
177
178
175
174
173
175
173
171
172
171
169
166
163
163
164
162
159
156
153
138
122
92
55
42
35
35
47
66
65
46
41
42
71
144
156
155
156
162
156
143
112
82
77
75
78
72
69
70
70
66
56
59
56
58
60
60
61
56
53
48
51
51
52
48
49
55
50
45
44
103
112
123
129
130
135
138
137
138
144
146
145
146
151
152
150
150
152
153
156
160
159
158
160
161
160
159
162
161
162
160
162
166
161
114
31
18
17
15
14
14
13
14
22
37
42
42
41
42
40
40
41
43
46
48
48
53
49
50
47
48
44
40
34
29
27
32
42
47
49
52
56
63
66
75
73
67
73
70
67
65
58
55
59
72
86
89
77
78
83
87
84
91
88
96
107
104
105
103
106
108
109
114
114
118
119
120
125
131
142
140
143
146
140
136
138
141
143
154
158
164
177
189
180
175
174
170
169
171
172
174
173
172
172
171
173
175
177
177
176
178
179
177
179
181
182
179
184
183
183
186
187
187
185
188
186
185
184
182
178
178
174
172
169
168
169
170
168
165
165
168
166
167
165
166
166
165
169
171
172
173
176
177
177
177
178
176
176
176
175
173
172
174
171
170
170
170
169
165
164
164
162
157
158
153
153
152
140
110
78
54
36
42
67
66
50
42
39
57
129
156
155
153
156
160
148
118
98
83
67
61
62
65
66
64
57
53
58
59
52
46
46
50
56
55
45
51
52
50
50
44
46
48
48
47
44
66
69
86
103
115
122
131
133
138
141
143
147
146
147
151
148
148
150
154
154
154
156
159
159
160
160
161
161
160
160
161
158
159
149
83
23
15
15
15
14
14
12
14
22
38
42
41
42
41
43
42
41
43
46
49
50
51
52
52
47
50
45
40
34
32
28
30
40
44
45
54
58
61
69
74
70
65
67
62
61
56
53
53
59
76
76
72
77
85
91
92
97
100
104
106
110
106
106
108
103
103
103
109
109
113
121
124
127
128
128
124
118
120
129
146
154
159
162
162
161
172
186
183
177
175
172
170
171
173
174
171
172
173
174
174
174
174
177
177
176
177
177
176
177
179
181
179
184
184
184
187
187
185
185
186
186
185
184
182
180
177
176
174
171
169
169
168
167
167
166
165
166
165
165
163
165
165
169
171
171
174
175
178
177
177
178
178
175
174
175
175
173
172
171
170
170
167
167
167
165
163
160
157
158
153
150
145
137
116
103
84
63
75
76
52
38
39
49
112
154
153
156
156
159
154
125
90
89
88
80
70
58
58
65
63
61
64
61
56
56
58
59
59
57
56
57
59
59
57
46
40
42
52
48
42
38
54
54
58
64
71
87
104
120
134
135
140
146
146
144
147
148
149
149
151
155
155
156
158
159
158
159
161
160
160
160
160
159
157
129
51
16
14
14
14
13
13
13
13
22
36
43
42
40
39
41
39
42
44
47
49
51
52
51
52
46
46
46
41
34
34
31
29
36
44
48
49
58
61
66
66
66
66
66
67
67
66
67
70
73
66
61
71
83
82
83
89
98
100
107
111
113
112
112
110
98
100
104
108
113
128
133
132
127
115
104
104
120
133
138
142
149
156
155
160
164
174
180
176
175
173
168
169
171
171
172
170
173
174
173
173
177
177
176
177
178
177
174
174
178
178
181
182
181
182
184
185
184
185
186
184
185
184
183
183
181
178
174
170
172
169
169
166
166
167
166
166
164
164
164
164
164
165
167
172
172
172
174
176
177
178
180
176
175
173
173
175
173
173
173
170
170
165
166
164
162
162
160
159
156
152
148
137
124
117
108
98
90
81
61
42
38
45
108
152
157
156
158
159
154
135
87
71
75
75
80
76
71
73
65
61
68
64
60
64
66
68
64
64
55
49
55
57
56
59
56
46
43
48
42
38
41
52
53
55
56
58
62
67
82
101
119
128
134
142
142
142
145
149
150
149
152
153
153
156
157
159
159
160
157
160
161
161
158
150
97
26
15
13
13
14
13
13
13
12
22
36
42
39
38
39
41
39
42
43
46
48
48
53
51
50
48
46
44
38
33
34
35
32
34
44
48
51
58
61
62
61
63
69
68
67
72
73
69
73
65
58
59
66
75
82
87
85
83
92
100
102
105
105
103
105
105
108
115
113
118
130
134
118
102
95
97
111
124
132
134
140
153
155
153
158
168
172
174
175
172
170
170
170
169
170
172
172
170
171
173
174
178
176
174
176
176
175
174
174
175
177
179
180
181
182
183
182
183
184
185
185
183
183
182
182
181
179
177
171
171
167
169
168
169
166
164
166
166
165
166
165
165
167
169
172
172
174
172
175
177
174
177
176
173
174
175
174
173
170
170
169
167
166
164
161
162
162
158
157
153
150
142
127
119
116
106
98
91
73
45
40
44
87
152
157
155
156
161
155
140
93
71
78
70
76
84
77
76
74
66
64
63
60
62
61
63
64
63
52
48
52
60
61
57
60
55
47
47
47
50
45
41
54
52
55
55
53
56
58
60
64
76
90
103
119
131
136
142
147
146
152
149
152
154
153
157
155
156
157
155
156
152
156
156
136
63
18
14
14
13
13
13
13
12
13
22
35
38
36
37
39
40
38
42
44
45
46
45
50
50
51
49
49
44
37
31
33
35
32
32
42
49
52
54
59
64
67
67
62
57
63
68
64
54
52
52
56
55
53
68
81
85
85
81
87
94
98
100
104
102
108
105
110
119
125
124
115
106
101
102
107
114
124
134
131
130
144
153
158
158
163
170
174
174
175
172
170
172
172
172
173
173
173
171
172
174
175
176
175
175
177
174
174
174
174
173
173
175
179
180
182
182
181
181
183
184
183
182
183
184
183
182
178
176
173
171
169
170
167
166
165
164
164
165
166
167
165
165
166
167
170
172
174
175
176
175
176
175
176
174
172
173
172
170
169
169
166
167
165
162
161
162
161
157
153
149
146
135
126
113
106
98
94
81
52
42
40
69
148
160
158
156
160
158
145
108
69
81
84
74
87
89
77
70
73
72
62
52
53
53
55
53
57
57
50
48
50
53
53
53
53
49
50
56
52
53
48
42
55
58
55
53
56
58
56
57
57
57
58
65
77
95
114
131
140
143
149
149
151
153
151
154
156
155
154
156
156
155
155
149
110
34
16
13
14
13
13
13
13
12
13
22
31
36
36
36
37
39
37
41
43
44
45
44
45
48
50
49
48
40
33
31
35
37
34
33
40
49
55
58
57
61
60
57
54
55
57
58
52
49
53
53
60
64
65
81
91
91
89
85
88
96
96
97
104
103
103
101
107
115
109
91
89
107
122
133
127
126
127
126
123
137
157
166
166
163
161
169
173
173
173
170
171
172
172
174
173
173
172
172
172
175
175
173
174
175
174
173
175
174
172
174
173
174
177
178
180
182
183
183
183
182
182
182
181
181
181
181
179
175
172
171
170
170
167
166
164
165
165
165
165
165
165
165
166
168
170
171
172
174
174
174
174
173
175
174
171
173
172
171
170
167
165
167
162
162
161
161
159
157
150
145
136
126
119
109
100
93
79
52
43
43
58
126
159
158
157
161
160
153
125
89
85
90
82
75
89
85
76
67
65
66
63
56
55
55
60
51
56
53
52
46
47
46
48
46
46
51
55
62
61
53
46
44
64
63
59
54
55
56
58
56
56
57
56
55
57
59
65
80
100
119
137
144
148
151
154
152
152
153
155
155
153
154
151
134
76
21
14
13
13
13
13
12
12
12
13
21
31
37
38
38
36
37
36
38
40
43
44
45
47
50
49
48
44
37
30
31
36
40
36
33
37
45
52
59
59
59
53
49
52
55
52
54
56
62
65
69
75
80
83
91
97
94
87
82
95
110
109
102
105
107
103
97
94
91
96
106
114
127
135
136
135
135
133
126
125
145
162
165
163
158
162
169
174
173
170
168
170
173
172
171
171
169
169
172
173
174
173
174
173
173
174
173
175
171
172
173
172
171
175
175
179
179
181
181
181
182
181
180
182
182
181
179
178
176
172
172
171
169
166
165
165
165
164
164
163
164
165
164
164
167
167
170
171
172
175
175
175
174
175
172
172
172
170
170
169
164
166
164
160
161
161
160
156
154
148
140
129
121
111
103
95
86
61
40
42
51
116
157
158
157
158
158
156
128
98
85
85
86
72
70
81
80
66
64
67
61
58
64
68
67
61
52
52
45
47
50
59
59
56
57
57
55
53
55
55
47
38
39
78
71
69
63
59
58
56
56
55
56
57
55
55
54
52
54
57
66
88
116
132
143
148
151
151
151
150
154
154
153
146
116
48
16
14
12
13
13
13
12
12
12
14
17
29
35
36
35
34
35
36
38
40
41
43
45
46
47
44
46
43
35
28
29
33
41
39
33
36
44
50
50
50
48
45
47
51
54
56
65
76
82
91
94
98
100
95
91
93
92
90
86
94
100
102
104
106
96
80
72
85
101
102
109
121
128
134
133
136
137
136
135
140
148
155
156
156
151
157
171
173
170
167
170
171
171
172
171
171
172
170
172
173
172
172
172
173
170
170
173
173
170
172
171
172
173
172
174
179
178
179
179
181
182
181
181
182
181
180
179
177
176
174
170
169
169
167
167
166
164
163
162
164
164
164
165
166
166
166
168
170
173
176
176
174
171
172
170
170
171
171
170
167
166
165
162
160
160
159
158
155
151
143
131
121
117
113
105
93
70
43
36
43
97
153
156
157
155
159
153
130
96
84
78
83
77
81
82
78
65
59
58
60
57
68
76
75
65
56
55
47
36
39
54
64
59
54
53
50
48
51
49
51
44
38
37
123
90
78
70
67
67
63
63
59
57
58
56
57
56
55
54
55
53
58
63
81
102
117
134
143
149
152
152
155
152
137
80
25
13
13
11
12
12
12
12
12
12
12
17
25
33
33
34
34
34
37
40
44
42
42
45
47
48
48
47
45
37
27
25
32
39
41
34
33
45
51
49
45
42
43
46
51
60
69
79
84
86
95
101
104
96
92
90
92
90
84
83
86
82
79
85
77
70
72
82
91
103
107
111
119
124
124
126
133
134
134
130
132
145
154
158
153
151
161
172
171
166
168
170
169
169
170
170
169
170
171
173
171
173
172
170
173
171
171
171
172
172
172
172
173
173
170
173
175
176
178
178
181
182
181
181
182
182
182
181
179
177
177
173
169
167
166
164
163
164
165
163
163
164
163
163
163
163
166
169
172
173
173
175
172
171
170
169
169
170
171
168
165
163
162
161
160
159
157
156
154
143
131
121
116
112
106
97
82
48
39
38
83
148
158
156
157
159
156
140
94
74
74
75
70
71
75
78
68
58
56
53
52
57
69
70
62
59
62
59
51
47
51
55
59
51
46
46
41
47
48
49
48
44
41
38
173
142
107
85
74
72
72
73
64
62
61
59
59
58
57
55
51
49
52
56
56
60
70
86
108
129
142
148
147
143
119
50
16
13
13
11
12
12
11
11
12
11
11
12
18
25
31
33
34
35
36
40
42
45
45
45
45
48
49
51
45
38
29
26
31
39
41
36
33
40
44
45
45
46
52
58
65
67
71
77
79
79
88
88
83
85
80
79
73
69
67
63
62
64
75
91
93
99
98
100
107
105
111
119
122
124
126
131
123
122
129
137
139
153
157
156
156
160
167
170
167
166
170
170
170
168
171
170
169
170
172
171
173
172
172
171
171
172
171
171
171
171
173
170
171
170
171
171
171
173
176
177
180
179
179
178
181
179
180
180
179
176
174
172
169
166
165
165
164
166
164
164
163
162
163
164
163
163
166
168
172
172
171
174
170
169
171
171
170
170
170
168
164
161
161
162
159
157
153
149
149
135
122
115
112
105
100
83
53
39
39
62
134
154
154
156
161
157
148
118
89
65
64
75
75
66
60
64
78
75
65
52
54
58
71
74
76
77
69
54
52
55
53
56
62
47
48
45
42
48
52
47
48
40
34
37
185
182
164
134
100
82
81
74
72
68
65
64
65
62
57
55
52
50
50
52
52
51
52
59
65
75
91
113
124
127
82
24
13
12
12
11
10
11
10
10
11
10
11
12
13
16
21
26
31
34
36
39
40
44
42
42
43
47
48
48
42
37
29
25
27
35
38
38
33
40
43
49
52
53
58
62
68
67
69
72
72
78
82
85
73
71
64
64
53
45
42
42
46
61
74
85
98
108
116
116
111
114
124
126
121
122
123
120
123
130
140
142
147
151
156
164
166
163
168
165
165
167
168
169
170
170
168
169
168
170
171
172
172
172
170
170
171
171
172
171
172
171
170
168
170
170
170
171
172
172
173
176
178
178
178
178
179
176
179
181
181
177
173
170
169
168
166
166
165
163
164
164
165
164
164
162
161
163
166
168
170
172
172
171
169
170
171
171
170
168
166
164
164
163
160
160
158
153
151
149
140
125
118
113
112
99
85
58
41
38
48
127
155
156
155
160
161
151
130
104
90
70
75
69
62
63
64
66
79
72
59
51
53
54
70
69
61
69
63
57
56
55
47
56
61
58
50
44
44
45
51
47
43
44
40
38
185
186
184
177
156
121
97
81
76
74
72
72
73
69
65
62
57
52
52
51
50
50
50
50
51
52
57
62
74
74
39
15
13
11
11
11
10
11
10
10
10
10
10
10
10
11
11
15
21
27
31
37
41
42
41
38
40
44
45
44
41
34
27
22
25
32
37
35
31
34
45
54
56
61
61
60
52
43
46
51
59
62
61
54
49
41
31
22
17
19
25
40
50
60
66
71
81
88
93
97
103
108
120
123
125
131
124
119
124
130
139
142
148
153
155
154
157
167
171
163
166
168
167
171
172
169
170
170
168
172
171
172
169
170
171
172
172
170
171
170
172
169
170
169
170
168
167
169
171
173
173
175
176
176
178
179
178
181
179
178
178
175
174
171
169
166
164
167
164
164
163
164
165
164
163
163
162
165
167
167
169
173
173
171
173
173
170
166
168
169
168
162
162
163
159
157
157
152
152
141
128
118
113
108
106
92
67
43
40
43
107
155
157
154
159
163
154
137
107
96
83
70
64
54
49
49
54
72
76
61
47
41
43
57
64
52
51
64
58
48
46
47
52
61
68
68
65
56
57
51
50
46
43
47
45
40
172
177
182
183
177
163
137
103
84
79
75
76
74
70
69
70
64
62
57
53
51
48
47
47
50
49
50
50
47
36
18
13
12
11
11
11
11
11
10
9
9
9
9
9
9
9
9
9
12
14
19
28
38
38
35
34
33
38
41
40
35
30
25
22
23
30
36
36
28
31
44
44
41
41
38
33
33
33
38
43
43
40
32
24
17
13
12
10
11
11
14
17
34
44
58
68
78
81
82
90
100
112
118
120
132
137
138
130
123
127
130
138
146
148
147
152
162
170
167
165
165
168
165
168
171
170
172
169
170
171
172
171
171
172
170
167
169
170
170
169
171
172
170
169
169
169
169
169
169
168
171
173
174
174
176
179
179
182
182
180
177
175
175
171
167
165
163
166
164
164
162
161
161
161
161
162
162
164
166
166
167
171
171
170
169
167
167
163
166
165
163
161
161
161
158
156
155
151
145
132
122
112
111
104
98
76
46
39
41
93
150
156
154
158
161
158
137
113
97
95
78
66
66
57
47
39
59
74
71
57
59
55
48
57
62
61
66
68
61
65
67
64
69
66
59
63
63
59
56
57
60
56
52
46
47
47
139
149
171
178
173
168
155
133
106
93
87
86
80
76
71
72
68
65
63
63
58
54
48
48
49
49
48
46
42
25
14
12
11
10
11
11
11
11
10
9
8
9
9
9
9
9
8
8
9
10
11
16
26
31
29
25
27
31
34
33
28
25
24
22
22
30
36
32
24
42
70
51
23
17
17
19
20
20
19
16
14
13
12
11
10
12
12
12
11
11
12
13
14
18
27
41
56
69
76
85
93
109
114
122
128
133
141
146
144
138
136
136
143
152
150
162
171
172
169
166
168
170
167
169
168
169
169
170
170
171
170
169
170
169
168
168
171
170
170
167
168
170
170
168
168
170
169
169
166
167
169
170
172
173
176
178
177
177
179
180
180
177
172
170
166
165
164
165
164
161
160
163
163
163
161
162
163
163
165
165
168
169
169
170
169
167
168
164
164
163
163
160
158
157
155
152
148
146
133
124
116
109
106
96
76
49
40
46
73
142
158
155
154
160
157
139
96
73
68
78
62
57
58
53
49
41
46
52
54
64
65
64
55
56
64
66
71
67
60
67
74
64
59
63
61
61
52
50
50
48
45
44
46
51
52
47
119
123
134
148
159
173
174
160
148
149
139
110
90
84
78
73
71
71
67
64
64
63
59
54
51
48
46
46
35
17
12
10
9
11
11
11
11
10
8
9
8
9
9
9
9
8
9
8
8
9
8
10
14
19
20
22
25
26
26
26
26
26
24
22
21
27
36
33
33
68
85
52
15
9
10
11
12
12
10
10
10
9
9
9
9
10
10
11
12
12
11
12
11
11
13
14
16
19
25
34
49
67
88
108
117
135
142
150
144
143
150
152
152
155
156
161
166
166
166
166
168
169
170
166
166
168
169
170
168
170
172
170
169
171
169
171
171
169
168
166
167
169
171
170
169
167
167
165
166
166
167
167
170
173
175
174
177
178
177
179
180
178
174
173
168
167
166
160
161
161
160
161
162
161
161
161
160
162
163
164
167
168
167
167
166
167
165
163
164
165
165
161
159
155
151
152
151
133
123
119
113
109
102
83
52
38
45
70
131
153
154
155
160
158
147
106
80
61
65
68
54
49
47
47
50
43
50
54
58
62
72
68
60
62
63
64
64
70
67
70
71
62
57
59
64
61
53
45
46
40
40
39
37
36
43
43
110
110
108
103
129
161
167
165
170
179
176
159
125
98
85
80
76
75
68
68
65
63
63
63
57
53
49
42
25
14
12
10
10
11
9
9
9
9
9
9
10
9
9
9
9
8
8
8
8
9
9
9
10
12
13
15
17
19
22
25
26
25
23
22
18
23
33
33
36
65
80
37
11
10
9
9
11
10
9
8
8
9
9
9
8
8
9
10
12
12
11
11
12
11
11
12
12
12
12
12
15
19
30
54
83
106
123
137
130
131
131
125
123
145
159
161
162
165
167
167
167
167
170
167
169
170
170
168
169
169
171
168
169
171
169
168
169
168
170
171
168
169
167
168
167
167
164
165
167
167
167
167
167
169
172
174
174
176
176
177
178
179
175
173
167
166
164
162
161
161
159
160
162
161
162
159
161
162
164
163
167
168
167
166
164
165
162
164
163
163
161
160
158
154
152
150
137
122
117
112
106
101
91
58
39
37
47
114
148
157
155
159
162
152
113
79
78
61
64
60
52
55
56
66
68
55
54
53
57
59
67
66
67
70
73
73
68
64
64
62
56
63
60
55
55
56
54
50
45
39
37
40
38
44
43
41
91
92
85
82
107
138
154
166
179
179
178
174
161
145
117
92
84
76
72
71
69
65
62
64
60
57
53
41
20
13
13
11
11
10
9
9
9
9
9
8
11
10
9
9
9
8
8
8
8
9
9
9
9
10
9
9
9
11
14
21
26
24
24
21
15
19
31
35
36
60
63
24
10
9
9
9
8
9
9
9
9
9
9
9
9
9
9
9
11
10
9
9
10
11
11
11
11
11
11
12
12
14
14
18
30
62
86
92
90
81
58
45
68
143
167
166
163
164
167
168
167
167
168
167
170
170
168
169
167
168
169
168
170
170
169
166
166
167
167
168
167
167
168
166
167
168
166
163
163
165
165
165
166
168
171
172
172
172
174
176
177
176
176
172
169
166
164
162
163
161
158
160
162
160
158
158
160
159
160
161
166
166
168
169
164
163
164
163
162
161
158
158
155
153
151
146
129
121
111
109
101
93
64
38
36
41
100
149
153
154
156
160
157
134
94
74
72
57
54
49
54
71
69
74
67
62
66
65
67
72
65
63
69
72
67
68
59
58
67
63
59
59
59
59
58
61
53
51
51
48
47
40
36
43
47
47
62
67
72
88
105
123
129
136
153
166
175
178
171
167
162
141
106
86
79
73
70
66
65
63
66
62
52
32
15
12
11
9
9
9
8
10
8
9
9
9
11
10
9
9
9
9
9
8
8
9
9
8
8
9
10
9
10
10
10
14
20
22
21
16
12
18
31
37
37
48
46
17
9
9
9
8
9
8
8
7
8
9
9
9
9
9
9
9
9
9
9
8
9
9
10
11
11
12
12
12
12
13
12
13
15
16
20
21
21
20
20
22
74
148
164
160
163
165
167
167
169
166
165
168
170
169
168
166
167
167
167
168
169
168
168
164
165
167
168
168
167
166
168
164
165
167
162
163
165
166
165
165
162
168
169
169
169
170
172
174
174
175
175
173
169
167
164
163
163
160
163
163
161
161
160
161
162
158
160
162
164
164
167
167
164
163
162
161
157
158
155
153
153
150
143
131
122
115
109
101
94
64
43
37
37
84
144
155
155
158
160
155
142
116
82
68
67
62
77
66
63
73
74
70
64
68
76
71
73
69
61
61
72
69
63
60
51
50
60
59
58
62
61
60
59
59
53
47
48
51
53
47
45
46
50
46
69
73
89
101
106
117
120
106
92
111
149
169
176
178
178
169
155
130
101
78
74
69
66
66
63
63
47
21
13
12
11
9
9
8
8
10
8
9
9
10
11
10
9
9
9
9
9
8
8
9
9
8
9
9
8
9
8
9
9
10
13
14
13
11
15
44
66
64
60
50
33
14
11
10
9
8
9
8
8
8
8
9
9
9
9
9
9
9
9
9
9
9
10
8
9
10
10
10
11
12
12
13
13
13
13
13
15
14
15
18
21
28
107
160
161
163
163
165
167
167
171
167
166
169
168
170
169
166
166
166
168
170
168
167
166
166
166
167
167
167
165
166
166
168
168
165
165
162
162
165
162
162
161
162
166
168
168
169
171
171
171
172
174
172
168
165
162
163
161
159
159
159
159
160
160
161
160
158
159
161
162
166
164
164
162
163
162
160
156
158
153
153
153
146
133
123
118
107
103
95
80
45
34
40
65
142
153
152
154
162
156
141
114
99
76
78
76
69
73
75
75
71
60
59
63
70
79
81
77
72
65
61
58
53
56
58
50
51
52
60
59
55
50
49
59
57
50
46
46
47
53
52
47
47
47
42
86
86
91
92
94
98
108
98
85
84
102
137
165
178
178
173
176
176
159
123
92
77
71
67
65
62
40
17
12
12
11
10
9
8
9
9
9
8
9
9
9
9
9
9
9
9
9
9
9
9
9
9
8
8
9
8
8
9
9
9
10
11
10
13
39
79
92
94
83
59
27
12
11
10
11
9
8
8
9
9
9
9
9
8
9
10
8
9
9
9
8
8
10
10
10
10
10
9
11
12
12
12
13
13
14
14
13
14
16
18
22
49
141
160
160
163
162
166
169
167
169
167
167
166
168
169
167
167
166
168
170
170
168
168
166
167
165
166
168
168
166
170
166
166
165
164
165
163
163
165
163
163
161
162
165
165
166
167
168
167
167
173
171
169
167
163
162
161
159
159
159
157
157
158
158
159
157
159
155
159
163
162
160
162
161
160
161
159
157
154
151
150
146
132
121
115
108
105
99
83
53
36
36
50
124
155
153
155
156
157
147
119
97
82
84
85
78
67
72
75
80
75
67
66
68
71
68
66
70
74
69
61
56
46
47
55
52
52
60
60
53
46
37
42
56
51
43
43
49
53
53
51
47
49
45
41
107
101
102
95
91
85
88
98
98
87
84
99
124
151
163
170
177
179
180
171
147
110
86
75
70
56
27
16
11
11
11
11
9
9
9
9
9
8
10
9
10
8
9
9
9
9
9
9
9
9
9
9
9
8
8
8
8
9
9
9
10
11
12
34
69
88
99
101
92
62
21
12
10
9
11
9
8
8
9
9
9
9
9
8
9
10
8
9
9
10
8
9
10
11
9
11
11
11
11
12
12
12
13
13
14
14
13
15
16
18
22
82
151
161
162
162
163
165
167
167
166
166
168
168
166
168
167
167
166
168
170
170
168
168
166
167
164
165
165
164
165
167
164
162
162
164
163
163
164
163
162
161
164
163
163
163
165
165
166
168
168
165
166
164
162
162
160
158
159
158
158
156
158
157
157
157
156
157
155
160
162
160
160
162
163
159
159
156
154
153
150
145
136
125
120
111
104
100
88
58
37
34
40
112
150
153
155
159
159
151
125
102
88
86
87
80
71
63
63
66
69
76
74
66
71
68
57
59
61
64
62
62
65
61
55
52
56
63
67
62
51
42
42
54
56
50
49
55
56
58
55
52
49
44
38
41
168
147
123
110
99
85
78
89
97
95
91
96
101
118
140
157
162
166
179
183
182
171
146
110
84
52
21
14
12
11
11
11
11
11
10
11
9
9
9
9
10
9
9
9
10
9
9
9
9
10
8
8
9
9
8
8
9
9
10
9
9
11
30
76
90
92
98
102
98
68
19
11
9
9
9
8
8
8
9
9
9
9
9
9
9
9
9
10
10
10
9
9
9
10
9
10
11
11
11
12
12
12
12
12
14
13
14
14
16
17
39
131
156
158
162
163
164
166
168
165
165
164
167
166
167
167
166
168
167
169
167
168
169
168
168
169
166
166
166
164
165
166
165
162
161
163
163
162
163
162
162
162
164
163
162
162
163
162
162
165
166
166
164
162
159
160
159
157
158
158
157
154
157
158
157
153
155
155
158
160
157
159
160
159
159
158
155
156
153
149
150
147
129
118
114
106
100
90
64
38
35
38
93
147
152
155
157
159
153
129
86
72
81
85
81
73
66
70
66
60
62
76
83
80
72
64
53
57
65
68
62
64
71
74
67
52
53
62
69
70
58
52
57
62
54
50
48
49
45
44
48
51
50
46
41
41
187
178
159
138
120
102
94
84
85
80
78
91
102
111
116
111
103
150
172
178
179
178
178
166
140
77
26
17
12
11
11
11
11
10
10
10
9
9
9
9
9
9
9
8
8
8
9
9
10
10
8
9
9
9
9
8
8
9
8
9
10
23
58
78
76
84
97
94
90
51
16
10
10
9
8
8
8
8
8
8
8
9
9
9
9
9
9
8
8
8
8
9
10
11
10
11
12
12
12
12
12
12
11
11
14
14
16
15
15
21
91
150
156
161
163
162
165
166
167
166
164
165
167
164
166
165
164
168
170
170
168
169
169
166
168
169
167
165
164
166
163
164
165
161
163
162
163
161
162
161
160
161
162
160
161
159
160
161
160
164
163
163
162
162
160
160
159
157
155
157
157
157
156
157
157
153
156
156
154
155
157
160
161
156
154
155
155
152
149
147
143
133
118
113
109
99
92
71
42
33
38
79
140
152
153
153
157
155
137
105
94
91
93
91
85
74
69
72
64
60
61
66
71
65
62
59
56
68
75
74
70
74
68
66
59
59
58
58
64
64
55
52
58
58
52
54
51
54
46
43
52
56
56
51
48
42
190
184
177
171
158
134
117
98
87
76
78
79
87
99
104
99
92
115
152
165
167
170
177
178
169
142
94
44
18
14
12
10
12
11
9
9
9
9
9
9
9
9
10
9
9
9
9
9
9
10
10
9
9
9
8
8
9
9
8
10
18
48
71
64
57
76
89
91
79
40
12
9
9
8
7
7
7
7
7
7
7
8
8
9
10
9
9
9
10
8
7
8
10
11
11
12
13
13
13
12
10
12
13
13
13
14
15
17
18
34
120
153
158
163
162
162
164
162
164
163
164
165
166
167
165
166
166
169
170
171
171
171
171
171
170
169
169
165
165
167
163
164
163
161
162
161
161
161
163
159
158
160
157
162
161
158
160
160
160
159
162
160
159
159
159
158
159
158
158
157
158
156
154
155
156
152
154
153
155
156
156
159
156
157
155
154
151
147
147
144
135
123
115
109
106
95
75
46
35
34
60
125
150
152
154
157
156
140
108
96
96
93
89
87
73
69
73
69
68
60
63
62
67
65
67
61
58
64
65
60
59
64
63
60
63
66
65
61
64
57
48
50
55
56
54
50
53
57
58
49
52
54
53
50
46
43
191
187
184
180
171
160
142
121
110
95
92
78
75
85
98
104
102
120
135
145
156
171
178
177
170
164
156
137
104
57
22
13
12
11
10
10
9
8
9
9
9
9
8
9
9
9
9
9
9
8
9
9
9
9
8
8
9
9
9
11
30
60
71
74
72
70
76
87
66
32
12
10
9
8
7
6
7
7
7
7
7
7
8
8
8
8
8
7
9
9
8
9
10
11
11
12
12
12
12
11
11
12
13
13
13
14
14
16
17
54
136
154
159
162
161
162
163
162
163
163
165
167
166
166
166
168
168
171
171
173
172
171
171
171
170
168
170
167
165
165
161
161
163
163
160
162
162
160
160
159
159
159
160
162
161
160
160
158
159
158
159
160
159
157
156
157
157
156
157
157
157
155
153
153
155
152
153
150
149
152
154
154
154
153
154
153
148
146
145
134
125
117
110
105
98
82
50
36
36
48
117
147
146
148
155
155
146
117
92
82
74
78
85
85
79
72
68
69
73
68
67
72
74
70
68
58
56
64
68
58
60
62
62
54
53
58
64
60
59
57
55
52
45
52
58
51
48
54
55
49
48
52
51
49
48
41
190
188
189
175
153
155
157
163
156
136
111
90
77
74
80
90
102
115
113
119
133
159
165
170
171
174
175
180
178
159
111
49
20
15
13
11
10
10
10
9
9
9
9
9
9
9
9
8
8
9
9
10
9
9
9
9
9
10
10
16
41
59
73
86
83
72
74
87
68
26
12
8
8
8
7
6
7
7
7
7
7
7
8
8
8
8
8
8
10
9
9
9
9
10
12
12
11
11
9
11
11
11
12
13
13
13
15
16
20
84
146
154
158
159
161
162
162
162
162
164
164
165
165
165
165
168
165
169
171
173
174
173
173
173
171
169
168
167
166
162
162
162
161
161
161
162
163
161
159
159
158
159
160
158
161
161
160
158
157
155
156
156
158
157
156
156
154
157
156
154
154
155
154
150
151
152
154
148
144
151
154
153
153
153
152
152
147
141
137
125
117
109
103
96
84
55
34
33
41
103
148
149
142
145
153
146
121
95
81
78
84
88
92
84
69
61
57
59
74
70
69
67
63
68
72
66
60
69
75
68
59
55
54
51
58
62
59
55
55
52
54
55
51
55
56
49
48
53
52
48
50
55
52
49
47
40
190
186
184
186
181
180
179
179
175
169
154
114
81
75
74
75
86
101
102
109
125
133
140
147
162
174
173
173
181
186
176
146
98
43
20
13
12
11
11
10
9
9
10
9
9
9
8
7
7
9
9
10
9
9
9
9
9
11
12
31
58
62
69
79
79
79
81
86
64
19
11
9
8
8
8
8
8
7
7
7
7
7
8
8
8
8
8
8
9
9
9
9
10
11
11
11
11
11
10
11
11
11
12
13
13
13
14
16
32
115
151
158
161
159
162
161
161
165
164
163
163
165
164
163
163
167
168
171
173
175
175
175
174
171
172
170
170
166
167
164
162
162
161
163
163
160
162
163
160
160
159
161
160
157
159
159
158
159
158
156
157
155
157
159
157
155
153
156
155
153
155
154
151
151
153
152
150
148
146
150
151
153
152
150
148
146
144
141
127
116
112
102
98
90
62
34
32
33
84
141
153
149
142
142
145
124
85
83
89
88
81
88
84
75
63
57
54
57
68
71
55
45
53
58
65
64
59
61
69
68
59
60
65
68
65
58
52
55
53
44
48
48
47
45
45
45
47
55
51
49
45
52
53
53
51
44
191
183
183
185
186
186
188
183
174
171
165
153
135
110
84
73
79
85
96
108
118
122
129
124
129
143
149
161
176
185
188
185
176
157
110
50
21
15
12
11
10
11
11
9
9
9
9
8
9
9
9
10
9
9
9
10
10
11
23
60
75
70
67
74
77
76
76
78
46
15
10
8
9
9
9
9
8
7
7
7
7
7
7
8
8
8
8
8
8
9
10
8
11
12
11
11
11
11
11
11
11
13
13
13
14
13
13
16
63
139
156
159
161
161
161
162
162
164
164
164
163
166
166
165
163
166
169
171
174
176
176
176
175
172
171
170
170
167
168
168
166
165
165
164
159
159
163
162
159
159
159
158
158
159
160
158
159
158
157
157
157
154
156
158
157
152
152
156
153
152
154
153
153
150
149
149
146
145
148
148
150
149
150
148
147
144
140
132
120
111
107
101
90
68
36
30
33
67
133
153
154
151
150
145
130
95
83
85
98
95
86
82
70
71
69
60
64
66
70
70
58
58
59
60
66
65
64
65
69
66
58
58
60
61
66
56
54
57
52
46
44
45
50
46
42
42
46
51
46
45
47
51
51
53
53
44
190
188
184
182
183
185
184
167
155
159
165
168
170
160
137
117
104
102
101
96
87
97
97
84
93
110
125
140
165
176
179
185
189
191
183
152
99
45
19
12
12
12
11
10
9
9
9
10
10
9
9
9
8
9
10
11
13
23
51
66
74
70
72
65
64
73
68
58
29
12
9
8
9
9
9
8
8
7
7
8
8
8
8
8
8
8
8
8
8
8
9
9
10
12
10
10
11
11
11
11
11
12
13
13
13
15
16
26
98
150
157
157
157
160
161
161
161
162
162
164
163
166
164
164
165
166
169
171
174
176
175
177
177
175
172
172
171
168
168
167
166
164
163
164
162
162
162
159
160
161
161
157
157
158
158
156
157
157
157
156
156
156
155
156
154
154
153
155
153
153
151
150
149
151
147
141
142
141
144
143
144
146
145
148
145
141
131
119
116
110
102
89
71
38
28
29
49
127
154
153
155
157
154
143
110
81
73
77
90
87
83
79
71
73
65
63
64
63
67
69
73
60
56
64
71
68
65
68
67
67
61
63
55
61
68
63
64
59
55
54
46
49
50
51
48
45
47
48
45
45
48
54
54
51
51
47
182
185
188
187
179
173
162
159
167
171
173
175
171
166
167
160
148
127
111
90
71
65
69
82
95
103
108
115
132
148
163
176
185
192
193
183
177
147
88
46
18
13
11
11
10
9
9
9
9
9
9
8
9
10
11
12
23
62
76
71
76
82
80
72
76
82
72
51
19
10
8
9
9
8
8
8
7
7
8
8
8
8
8
8
8
8
8
9
9
9
9
10
9
11
9
9
10
12
11
11
11
12
12
14
13
14
16
44
122
152
158
159
159
158
159
160
159
160
160
163
164
162
163
163
164
164
169
173
174
175
175
175
178
179
175
174
173
169
170
168
166
161
164
164
163
163
161
160
162
160
161
158
158
156
155
158
157
158
156
155
156
156
154
153
153
154
154
151
153
155
150
148
147
148
144
138
140
138
141
140
145
142
145
143
141
131
121
116
109
100
91
77
45
28
28
35
110
151
155
153
156
159
147
117
88
76
71
75
84
83
79
78
78
75
74
70
62
51
53
66
78
72
64
66
70
65
56
60
62
60
67
63
52
58
68
66
62
59
59
55
49
48
45
46
51
47
44
46
48
50
51
52
51
48
49
47
169
174
185
183
173
165
148
150
167
169
169
172
170
166
171
171
156
146
131
108
99
86
84
89
87
94
96
95
97
102
121
146
163
176
180
185
190
187
183
159
94
38
19
13
11
10
8
10
9
9
10
10
11
11
12
18
50
74
72
69
84
87
82
82
82
79
78
49
15
10
9
9
8
8
8
8
7
7
7
8
8
8
8
8
8
8
9
9
9
10
9
10
10
10
9
10
11
12
11
11
12
13
13
13
14
16
19
81
145
156
159
161
160
159
157
159
160
159
158
162
164
160
162
164
163
165
168
173
174
175
176
177
177
177
175
175
172
171
171
168
166
165
165
163
164
163
163
161
163
161
161
160
158
157
155
156
156
156
152
152
152
153
153
150
152
154
152
152
150
152
150
145
147
144
142
137
138
136
140
138
140
144
142
140
130
121
114
111
103
93
81
51
27
26
29
86
143
156
152
152
154
148
127
97
85
80
77
69
74
74
73
70
72
74
76
75
68
69
71
77
77
70
58
62
61
57
61
55
50
57
64
57
49
53
57
61
56
51
53
48
46
49
49
51
50
45
47
47
41
48
52
52
50
44
51
49
174
169
176
174
158
147
138
154
169
171
171
173
166
161
178
181
169
157
155
153
141
102
85
75
75
94
99
94
94
97
99
100
118
141
158
180
187
190
194
187
175
145
100
48
17
13
10
12
10
11
10
11
11
11
14
38
65
67
66
65
67
78
76
74
79
78
60
33
12
9
10
8
8
8
9
8
8
8
8
8
8
8
8
9
9
9
9
9
9
10
10
11
11
11
11
11
11
12
12
12
12
13
13
13
14
16
34
115
152
159
155
160
161
159
157
160
158
161
161
162
164
161
161
161
164
165
168
170
174
175
176
176
177
176
174
172
171
171
170
168
166
168
165
165
164
164
164
163
162
160
160
159
159
159
155
155
154
153
151
153
152
151
150
151
151
152
152
149
148
148
145
144
143
139
142
140
137
138
135
142
142
142
140
132
123
116
109
100
93
85
57
32
28
27
73
140
154
153
152
154
151
129
104
92
92
92
87
75
67
67
73
74
73
73
72
74
76
78
72
71
72
66
60
64
66
64
69
56
56
63
62
60
53
56
57
58
55
55
53
47
48
49
46
50
50
45
43
45
44
50
49
48
49
52
52
45
181
178
184
182
167
153
157
171
177
181
177
177
170
162
173
178
178
181
180
182
172
134
114
97
79
82
85
88
96
87
82
88
104
113
135
156
172
189
195
195
193
190
185
155
84
32
15
12
11
10
10
10
12
12
21
59
69
67
69
68
63
65
71
79
88
81
58
28
13
9
9
9
9
8
8
8
8
8
8
8
8
8
8
8
8
9
9
9
9
9
9
10
10
10
10
11
10
11
13
12
12
12
12
13
14
16
74
139
154
157
157
158
159
158
158
159
159
160
159
163
163
161
160
160
163
166
169
171
172
175
173
176
175
174
174
175
172
171
173
171
168
168
164
165
165
165
165
164
164
159
159
159
159
157
157
156
155
152
152
153
150
152
151
150
154
151
151
147
145
146
147
146
142
139
141
139
137
137
135
134
138
138
137
126
116
109
103
98
85
65
34
26
30
58
131
150
150
154
153
149
135
111
90
84
82
76
79
68
67
70
69
64
74
72
69
74
83
77
66
61
60
57
64
62
57
68
69
67
61
57
57
59
59
57
53
53
52
49
50
49
45
42
42
49
50
49
46
43
38
41
45
46
48
49
46
41
174
184
189
183
179
174
173
180
188
188
185
181
175
170
165
171
183
191
186
185
181
172
169
153
119
97
82
88
92
91
80
82
89
97
117
128
141
164
182
187
178
176
187
187
171
127
73
29
15
13
11
12
13
15
38
68
78
84
85
74
65
64
65
74
86
87
65
27
13
9
8
9
9
9
8
8
8
8
8
8
8
8
8
8
8
9
9
9
9
9
9
9
9
9
10
11
10
11
11
11
13
12
13
13
14
27
113
146
154
155
156
154
160
158
160
160
158
158
160
161
161
160
160
162
163
164
167
171
174
174
174
175
174
174
173
173
172
171
172
172
172
170
169
166
165
167
167
166
163
163
162
161
159
158
155
157
156
154
154
153
152
151
152
151
150
152
148
143
147
148
144
143
139
138
136
134
133
135
133
130
135
131
126
118
111
102
98
88
66
38
26
26
43
112
149
151
150
153
147
139
113
93
82
84
81
80
73
60
55
53
65
62
76
77
74
79
84
75
63
59
53
61
64
53
46
51
50
58
59
57
57
55
57
53
50
53
57
57
49
41
46
50
46
44
44
47
46
44
39
43
47
47
48
46
40
38
181
187
187
181
186
187
177
177
185
186
185
179
171
159
146
175
187
188
183
180
177
181
188
183
162
121
96
97
92
86
84
83
93
105
112
104
115
129
135
153
166
170
178
182
183
183
165
103
53
23
15
12
14
22
56
67
69
69
78
72
65
64
66
71
72
71
45
20
12
10
9
9
9
8
9
8
8
8
8
8
8
8
8
8
9
9
9
8
8
9
10
9
9
9
10
10
11
11
11
11
12
12
13
13
16
67
133
151
154
154
152
155
156
157
158
159
160
159
159
159
162
161
162
162
163
166
171
172
172
171
174
174
174
173
173
172
172
173
173
170
171
171
170
168
169
169
167
166
163
162
161
162
161
158
157
156
156
155
154
154
150
154
151
149
149
150
148
143
142
145
142
138
136
136
136
134
133
131
134
129
133
128
120
107
103
100
92
75
45
26
26
32
98
145
149
150
151
149
136
117
97
82
83
82
82
85
76
61
55
64
65
59
62
68
74
84
75
73
69
55
54
57
51
47
53
54
51
56
53
50
48
52
51
43
45
58
62
63
55
50
51
52
45
40
40
44
49
46
46
39
39
46
48
42
39
38
186
188
186
185
191
190
183
177
178
184
183
172
161
157
164
184
188
185
176
173
171
176
184
182
172
160
146
126
104
92
90
89
100
107
102
105
110
111
104
121
142
154
168
175
174
179
179
171
151
101
51
22
16
37
68
73
67
62
70
74
74
75
72
66
67
58
28
14
11
9
9
9
9
8
9
8
8
8
8
8
8
8
8
9
9
9
9
8
7
9
9
9
9
8
10
10
11
11
12
12
11
12
13
15
24
106
150
153
153
154
156
156
155
156
157
159
160
158
158
156
160
161
160
162
164
168
170
172
173
173
173
172
173
172
170
170
171
172
172
171
171
171
171
170
170
170
168
168
165
164
162
162
161
162
161
157
155
152
152
152
153
151
150
149
150
149
149
145
143
143
139
136
136
136
134
134
131
128
129
128
126
115
112
105
98
91
80
48
27
25
29
77
135
144
151
154
152
142
119
101
89
77
77
70
78
83
83
69
65
64
63
63
61
58
57
62
59
59
62
56
52
46
47
58
58
60
60
59
53
47
44
55
45
37
41
54
63
60
61
59
50
47
44
44
48
49
54
55
49
40
38
44
46
43
38
36
186
187
188
190
192
191
186
176
179
189
188
177
160
154
167
180
186
182
172
155
137
137
159
174
175
173
174
170
155
130
96
96
105
95
98
111
118
115
106
112
115
117
144
161
163
167
176
178
169
163
136
96
62
65
85
86
73
65
69
81
84
87
77
72
72
62
25
11
11
11
9
8
8
8
9
8
8
8
8
8
8
8
8
8
9
8
8
8
8
9
9
9
9
8
9
10
11
11
11
12
13
13
13
16
54
128
152
153
153
155
157
156
154
157
156
153
155
156
159
158
160
158
159
161
163
168
171
171
173
174
173
172
173
171
171
171
171
172
170
171
171
170
171
170
170
168
169
166
166
165
165
164
163
163
162
162
159
155
154
151
148
149
146
145
147
149
144
146
143
142
138
137
134
131
130
130
127
126
125
124
118
109
105
103
92
84
58
29
23
24
60
136
149
147
148
152
148
133
100
90
76
62
64
68
76
80
76
69
71
68
67
62
60
56
56
64
66
65
65
62
47
47
53
62
55
54
57
58
55
46
52
58
51
48
50
52
49
51
59
59
55
51
45
43
45
41
50
54
52
47
43
44
44
41
38
38
185
183
185
189
179
171
174
176
179
188
187
183
176
168
169
169
174
170
165
161
146
119
130
163
183
184
178
176
177
169
152
130
111
98
94
101
103
109
107
105
102
108
130
136
134
137
163
170
171
174
175
173
152
116
96
86
72
72
79
83
79
81
84
79
77
54
18
11
11
11
9
9
8
8
9
8
8
8
8
8
8
8
8
9
8
7
8
8
8
9
9
9
9
9
10
10
10
11
11
12
13
12
15
29
97
142
155
151
152
153
154
154
156
155
153
153
154
156
157
156
156
159
160
162
165
167
170
170
173
171
172
170
171
170
170
169
171
172
171
169
171
169
170
170
168
168
170
169
170
168
167
165
164
163
162
162
159
158
156
151
151
153
145
146
147
146
141
144
141
138
137
136
132
129
128
128
124
127
122
117
111
104
99
92
85
67
33
24
24
42
118
145
149
150
152
146
131
93
78
77
70
67
72
75
75
73
62
62
65
70
70
69
64
56
53
57
56
58
66
57
45
48
56
62
54
52
51
49
54
53
56
60
56
47
45
46
44
47
52
54
50
46
38
36
36
35
42
49
51
46
44
41
42
41
37
39
185
178
181
186
175
164
170
175
175
182
187
184
179
166
162
162
165
162
160
150
137
127
128
165
182
184
183
182
178
185
189
173
140
110
100
94
84
80
81
96
100
90
92
94
89
96
122
149
168
177
181
179
168
149
125
113
92
86
84
83
76
72
79
82
69
33
14
10
11
10
9
9
8
8
8
8
8
8
8
8
9
8
8
10
8
7
9
8
8
9
9
9
9
10
12
12
11
11
12
11
13
13
18
59
128
150
149
151
154
154
157
156
153
155
153
154
156
158
157
155
155
158
162
164
167
171
171
170
172
171
171
169
171
172
172
172
171
170
171
169
170
169
168
167
168
169
167
170
170
167
168
167
164
164
161
160
159
159
156
154
152
152
150
149
146
147
142
142
141
138
137
133
128
129
128
126
121
124
118
112
106
101
99
87
72
39
24
24
31
103
143
146
147
153
151
132
92
65
64
75
70
64
66
70
72
60
54
56
64
60
53
55
64
60
62
68
59
56
58
51
51
49
54
55
59
56
48
47
55
54
57
62
56
50
49
51
51
46
47
50
44
42
41
40
37
34
34
42
50
50
42
39
39
39
37
36
178
182
188
189
187
183
177
168
164
174
187
188
179
172
174
171
168
162
153
141
127
131
152
174
180
177
178
175
176
191
195
189
179
168
144
119
92
71
63
74
87
89
83
86
80
79
90
122
148
164
166
164
158
158
165
153
141
116
93
91
81
79
80
76
57
25
12
11
11
10
9
9
8
8
8
8
8
8
8
8
9
10
10
10
8
9
10
8
8
9
9
9
9
9
11
12
12
11
12
11
13
14
24
93
139
148
148
150
153
153
154
153
154
153
154
154
155
156
157
156
158
159
164
166
168
168
171
172
169
169
169
170
171
172
172
172
170
170
170
165
167
168
166
166
169
169
166
166
167
166
166
165
163
162
163
161
160
160
159
156
154
151
151
151
148
148
143
140
140
139
136
130
126
127
127
125
123
123
113
103
97
93
90
77
43
26
23
26
80
137
146
146
150
152
141
92
55
58
68
75
65
64
67
70
72
64
52
47
59
67
60
55
60
57
65
70
66
66
64
61
54
51
53
51
63
62
55
52
55
57
57
54
49
55
55
51
45
43
44
49
48
45
44
42
40
41
39
47
87
75
47
39
38
38
39
37
